;FLAVOR:Marlin
;TIME:3861
;Filament used: 2.01338m
;Layer height: 0.2
;Generated with Cura_SteamEngine 3.1.0
M190 S60
M104 S230
M109 S230
M82 ; absolute extrusion mode
G28 ;Home
G1 Z15.0 F6000 ;Move the platform down 15mm
;Prime the extruder
G92 E0
G1 F200 E3
G92 E0
;LAYER_COUNT:723
;LAYER:0
M107
G0 F3600 X87.178 Y93.156 Z0.2
;TYPE:SKIRT
G1 F1800 X87.178 Y92.757 E0.01354
G1 X87.258 Y92.365 E0.02711
G1 X87.424 Y91.978 E0.0414
G1 X87.765 Y91.371 E0.06501
G1 X87.995 Y91.044 E0.07858
G1 X88.285 Y90.77 E0.09211
G1 X88.623 Y90.558 E0.10565
G1 X88.998 Y90.418 E0.11923
G1 X89.392 Y90.354 E0.13277
G1 X89.791 Y90.371 E0.14632
G1 X90.093 Y90.438 E0.15681
G1 X100.635 Y93.656 E0.53075
G1 X100.67 Y93.667 E0.53199
G1 X110.479 Y96.858 E0.88193
G1 X110.522 Y96.873 E0.88347
G1 X125.476 Y102.118 E1.42109
G1 X125.838 Y102.287 E1.43465
G1 X126.159 Y102.525 E1.4482
G1 X126.426 Y102.822 E1.46175
G1 X126.629 Y103.166 E1.4753
G1 X126.76 Y103.543 E1.48884
G1 X126.813 Y103.939 E1.5024
G1 X126.786 Y104.338 E1.51597
G1 X126.643 Y104.815 E1.53286
G1 X125.684 Y106.98 E1.61319
G1 X123.628 Y112.171 E1.80261
G1 X122.739 Y114.738 E1.89477
G1 X121.063 Y120.296 E2.09171
G1 X120.879 Y120.721 E2.10742
G1 X120.334 Y121.662 E2.14431
G1 X120.1 Y121.986 E2.15787
G1 X119.936 Y122.151 E2.16577
G1 X119.33 Y122.693 E2.19335
G1 X118.844 Y123.014 E2.21311
G1 X118.003 Y123.407 E2.2446
G1 X117.626 Y123.539 E2.25815
G1 X117.386 Y123.582 E2.26642
G1 X116.418 Y123.694 E2.29948
G1 X116.018 Y123.7 E2.31305
G1 X115.779 Y123.665 E2.32125
G1 X114.855 Y123.472 E2.35327
G1 X114.474 Y123.351 E2.36683
G1 X114.258 Y123.242 E2.37504
G1 X113.425 Y122.757 E2.40774
G1 X113.04 Y122.466 E2.42411
G1 X112.695 Y122.132 E2.44041
G1 X112.413 Y121.791 E2.45542
G1 X109.362 Y117.132 E2.64435
G1 X106.092 Y112.627 E2.8332
G1 X102.595 Y108.34 E3.02089
G1 X98.846 Y104.242 E3.20932
G1 X94.89 Y100.38 E3.39688
G1 X90.694 Y96.724 E3.58568
G1 X87.924 Y94.524 E3.70569
G1 X87.638 Y94.246 E3.71922
G1 X87.412 Y93.916 E3.73279
G1 X87.257 Y93.548 E3.74633
G1 X87.178 Y93.156 E3.7599
G0 F3600 X87.568 Y92.966
G1 F1800 X87.606 Y92.61 E3.77205
G1 X87.773 Y92.174 E3.78788
G1 X88.114 Y91.567 E3.8115
G1 X88.323 Y91.277 E3.82363
G1 X88.59 Y91.041 E3.83572
G1 X88.904 Y90.87 E3.84785
G1 X89.248 Y90.772 E3.85999
G1 X89.604 Y90.754 E3.87208
G1 X89.976 Y90.821 E3.8849
G1 X100.518 Y94.039 E4.25883
G1 X100.546 Y94.047 E4.25982
G1 X110.355 Y97.238 E4.60976
G1 X110.39 Y97.25 E4.61102
G1 X125.344 Y102.495 E5.14864
G1 X125.665 Y102.65 E5.16073
G1 X125.945 Y102.873 E5.17287
G1 X126.168 Y103.152 E5.18499
G1 X126.323 Y103.474 E5.19711
G1 X126.403 Y103.822 E5.20923
G1 X126.405 Y104.179 E5.22134
G1 X126.277 Y104.653 E5.238
G1 X125.323 Y106.806 E5.31789
G1 X123.251 Y112.038 E5.5088
G1 X122.357 Y114.619 E5.60146
G1 X120.68 Y120.181 E5.79854
G1 X120.533 Y120.521 E5.81111
G1 X119.988 Y121.462 E5.848
G1 X119.67 Y121.853 E5.8651
G1 X119.064 Y122.395 E5.89268
G1 X118.674 Y122.652 E5.90853
G1 X117.833 Y123.045 E5.94002
G1 X117.34 Y123.184 E5.9574
G1 X116.372 Y123.296 E5.99046
G1 X115.861 Y123.273 E6.00781
G1 X114.937 Y123.08 E6.03983
G1 X114.459 Y122.897 E6.0572
G1 X113.626 Y122.412 E6.0899
G1 X113.318 Y122.179 E6.103
G1 X112.973 Y121.845 E6.11929
G1 X112.748 Y121.572 E6.13129
G1 X109.691 Y116.904 E6.32059
G1 X106.411 Y112.384 E6.51006
G1 X102.893 Y108.072 E6.69885
G1 X99.147 Y103.978 E6.88711
G1 X95.149 Y100.074 E7.07668
G1 X90.959 Y96.424 E7.2652
G1 X88.173 Y94.211 E7.38591
G1 X87.92 Y93.959 E7.39802
G1 X87.729 Y93.657 E7.41014
G1 X87.61 Y93.32 E7.42227
G1 X87.568 Y92.966 E7.43436
G0 F3600 X87.977 Y93.107
G1 F1800 X87.979 Y92.798 E7.44484
G1 X88.122 Y92.37 E7.46015
G1 X88.463 Y91.763 E7.48377
G1 X88.648 Y91.515 E7.49427
G1 X88.89 Y91.323 E7.50475
G1 X89.173 Y91.199 E7.51523
G1 X89.478 Y91.151 E7.52571
G1 X89.859 Y91.203 E7.53875
G1 X100.401 Y94.421 E7.91268
G1 X100.422 Y94.428 E7.91344
G1 X110.231 Y97.619 E8.26337
G1 X110.257 Y97.628 E8.26431
G1 X125.211 Y102.873 E8.80193
G1 X125.487 Y103.012 E8.81241
G1 X125.719 Y103.217 E8.82292
G1 X125.89 Y103.474 E8.83339
G1 X125.99 Y103.767 E8.84389
G1 X126.012 Y104.075 E8.85437
G1 X125.911 Y104.491 E8.86889
G1 X124.961 Y106.635 E8.94845
G1 X122.875 Y111.9 E9.14057
G1 X121.975 Y114.499 E9.23388
G1 X120.297 Y120.065 E9.4311
G1 X120.186 Y120.32 E9.44054
G1 X119.641 Y121.261 E9.47743
G1 X119.403 Y121.554 E9.49024
G1 X118.797 Y122.096 E9.51782
G1 X118.505 Y122.289 E9.52969
G1 X117.664 Y122.682 E9.56118
G1 X117.294 Y122.787 E9.57423
G1 X116.326 Y122.899 E9.60729
G1 X115.943 Y122.882 E9.6203
G1 X115.019 Y122.689 E9.65232
G1 X114.66 Y122.551 E9.66537
G1 X113.827 Y122.066 E9.69807
G1 X113.596 Y121.891 E9.7079
G1 X113.251 Y121.557 E9.72419
G1 X113.082 Y121.352 E9.73321
G1 X110.017 Y116.672 E9.923
G1 X106.729 Y112.142 E10.11289
G1 X103.198 Y107.813 E10.30241
G1 X99.431 Y103.695 E10.49175
G1 X95.427 Y99.787 E10.68157
G1 X91.21 Y96.113 E10.87131
G1 X88.422 Y93.898 E10.99211
G1 X88.206 Y93.676 E11.00262
G1 X88.055 Y93.406 E11.01311
G1 X87.977 Y93.107 E11.0236
G1 F1500 E10.2236
G0 F3600 X89.602 Y92.574
;TYPE:WALL-OUTER
G1 F1500 E11.06517
G1 F1200 X93.425 Y93.724 E11.20061
G1 X96.563 Y94.688 E11.31198
G1 X99.794 Y95.697 E11.42681
G1 X103.207 Y96.788 E11.54837
G1 X106.604 Y97.893 E11.66956
G1 X109.654 Y98.901 E11.77853
G1 X113.507 Y100.206 E11.91654
G1 X116.875 Y101.371 E12.03745
G1 X119.686 Y102.358 E12.13852
G1 X122.47 Y103.353 E12.23882
G1 X124.534 Y104.107 E12.31336
G1 X123.668 Y105.607 E12.37212
G1 X118.097 Y111.178 E12.63941
G1 X119.101 Y118.315 E12.88392
G1 X119.129 Y118.78 E12.89972
G1 X119.085 Y119.224 E12.91486
G1 X118.97 Y119.653 E12.92993
G1 X118.786 Y120.065 E12.94523
G1 X118.543 Y120.436 E12.96028
G1 X118.238 Y120.769 E12.9756
G1 X117.891 Y121.044 E12.99062
G1 X117.496 Y121.265 E13.00598
G1 X117.075 Y121.42 E13.02119
G1 X116.642 Y121.502 E13.03615
G1 X116.189 Y121.517 E13.05152
G1 X115.751 Y121.46 E13.06651
G1 X115.317 Y121.33 E13.08188
G1 X114.918 Y121.138 E13.0969
G1 X114.545 Y120.877 E13.11234
G1 X114.231 Y120.571 E13.12722
G1 X113.961 Y120.21 E13.14251
G1 X113.749 Y119.805 E13.15802
G1 X107.012 Y103.925 E13.74323
G1 X89.418 Y92.889 E14.44782
G1 X89.602 Y92.574 E14.46019
G0 F3600 X89.793 Y92.631
G1 F1500 E13.66019
G0 F3600 X94.987 Y94.575
G1 F1500 E14.50177
G1 F1200 X94.417 Y95.563 E14.54047
G1 X94.811 Y95.785 E14.55581
G1 X95.387 Y94.792 E14.59475
G1 X94.987 Y94.575 E14.61019
G0 F3600 X94.887 Y94.748
G1 F1500 E13.81019
G0 F3600 X106.625 Y98.281
G1 F1500 E14.65177
G1 F1200 X104.534 Y101.904 E14.79368
G1 X104.924 Y102.133 E14.80902
G1 X107.022 Y98.501 E14.95132
G1 X106.625 Y98.281 E14.96672
G0 F3600 X106.526 Y98.454
G1 F1500 E14.16672
G0 F3600 X115.843 Y117.904
G1 F1500 E15.00829
G1 F1200 X115.708 Y118.002 E15.01395
G1 X115.594 Y118.12 E15.01952
G1 X115.501 Y118.258 E15.02516
G1 X115.433 Y118.409 E15.03078
G1 X115.393 Y118.569 E15.03638
G1 X115.38 Y118.735 E15.04203
G1 X115.398 Y118.901 E15.04769
G1 X115.443 Y119.058 E15.05323
G1 X115.514 Y119.208 E15.05886
G1 X115.612 Y119.343 E15.06452
G1 X115.73 Y119.456 E15.07006
G1 X115.867 Y119.55 E15.0757
G1 X116.02 Y119.618 E15.08138
G1 X116.178 Y119.658 E15.08691
G1 X116.344 Y119.671 E15.09256
G1 X116.511 Y119.653 E15.09826
G1 X116.668 Y119.608 E15.1038
G1 X116.816 Y119.537 E15.10937
G1 X116.952 Y119.439 E15.11505
G1 X117.066 Y119.321 E15.12062
G1 X117.16 Y119.184 E15.12626
G1 X117.228 Y119.031 E15.13194
G1 X117.268 Y118.872 E15.1375
G1 X117.28 Y118.707 E15.14311
G1 X117.263 Y118.541 E15.14877
G1 X117.218 Y118.383 E15.15435
G1 X117.147 Y118.235 E15.15992
G1 X117.049 Y118.099 E15.1656
G1 X116.931 Y117.984 E15.17119
G1 X116.793 Y117.891 E15.17684
G1 X116.642 Y117.823 E15.18246
G1 X116.482 Y117.783 E15.18805
G1 X116.316 Y117.771 E15.1937
G1 X116.151 Y117.788 E15.19932
G1 X115.993 Y117.833 E15.2049
G1 X115.843 Y117.904 E15.21053
G0 F3600 X115.708 Y118.002
G0 X115.685 Y118.026
G1 F1500 E14.41053
G0 F3600 X113.793 Y119.45
;TYPE:SKIN
G1 F1500 E15.2521
G1 F1200 X115.556 Y121.212 E15.33666
G1 X115.626 Y121.282
G0 F3600 X116.242 Y121.333
G1 F1200 X113.377 Y118.468 E15.47412
G1 X113.307 Y118.398
G1 F1500 E14.67412
G0 F3600 X112.961 Y117.486
G1 F1500 E15.51569
G1 F1200 X116.768 Y121.293 E15.69835
G1 X116.838 Y121.363
G0 F3600 X117.214 Y121.174
G1 F1200 X115.677 Y119.636 E15.77211
G1 X115.607 Y119.566
G0 F3600 X115.411 Y119.37
G1 F1200 X112.543 Y116.503 E15.90969
G1 X112.473 Y116.433
G1 F1500 E15.10969
G0 F3600 X112.127 Y115.521
G1 F1500 E15.95126
G1 F1200 X115.21 Y118.604 E16.09918
G1 X115.28 Y118.674
G0 F3600 X115.343 Y118.171
G1 F1200 X111.71 Y114.538 E16.27348
G1 X111.64 Y114.468
G1 F1500 E15.47348
G0 F3600 X111.293 Y113.556
G1 F1500 E16.31506
G1 F1200 X115.595 Y117.858 E16.52146
G1 X115.665 Y117.928
G0 F3600 X115.957 Y117.654
G1 F1200 X110.877 Y112.574 E16.76518
G1 X110.807 Y112.504
G1 F1500 E15.96518
G0 F3600 X110.459 Y111.591
G1 F1500 E16.80676
G1 F1200 X116.469 Y117.601 E17.0951
G1 X116.539 Y117.671
G1 F1500 E16.2951
G0 F3600 X117.447 Y118.578
G1 F1500 E17.13668
G1 F1200 X118.695 Y119.827 E17.19658
G1 X118.765 Y119.897
G0 F3600 X118.49 Y120.187
G1 F1200 X117.396 Y119.093 E17.24907
G1 X117.326 Y119.023
G0 F3600 X117.188 Y119.451
G1 F1200 X118.238 Y120.501 E17.29944
G1 X118.308 Y120.571
G0 F3600 X117.943 Y120.771
G1 F1200 X116.878 Y119.706 E17.35054
G1 X116.808 Y119.636
G0 F3600 X116.446 Y119.84
G1 F1200 X117.602 Y120.996 E17.406
G1 X117.672 Y121.066
G1 F1500 E16.606
G0 F3600 X118.848 Y119.414
G1 F1500 E17.44758
G1 F1200 X110.043 Y110.609 E17.87002
G1 X109.973 Y110.539
G1 F1500 E17.07002
G0 F3600 X109.626 Y109.626
G1 F1500 E17.91159
G1 F1200 X118.933 Y118.933 E18.35812
G1 X119.003 Y119.003
G0 F3600 X118.922 Y118.356
G1 F1200 X109.209 Y108.644 E18.82411
G1 X109.139 Y108.574
G1 F1500 E18.02411
G0 F3600 X108.792 Y107.661
G1 F1500 E18.86568
G1 F1200 X118.832 Y117.701 E19.34738
G1 X118.902 Y117.771
G0 F3600 X118.74 Y117.043
G1 F1200 X108.376 Y106.679 E19.84462
G1 X108.306 Y106.609
G1 F1500 E19.04462
G0 F3600 X107.959 Y105.696
G1 F1500 E19.88619
G1 F1200 X118.647 Y116.384 E20.39898
G1 X118.717 Y116.454
G0 F3600 X118.554 Y115.726
G1 F1200 X107.542 Y104.714 E20.92731
G1 X107.472 Y104.644
G1 F1500 E20.12731
G0 F3600 X105.747 Y102.919
G1 F1500 E20.96888
G1 F1200 X105.068 Y102.24 E21.00146
G1 X104.998 Y102.17
G0 F3600 X105.276 Y101.882
G1 F1200 X118.462 Y115.068 E21.63409
G1 X118.532 Y115.138
G0 F3600 X118.369 Y114.409
G1 F1200 X105.483 Y101.523 E22.25233
G1 X105.413 Y101.453
G0 F3600 X105.689 Y101.164
G1 F1200 X118.277 Y113.751 E22.85625
G1 X118.347 Y113.821
G0 F3600 X118.183 Y113.092
G1 F1200 X105.897 Y100.805 E23.44573
G1 X105.827 Y100.735
G0 F3600 X106.104 Y100.447
G1 F1200 X118.091 Y112.434 E24.02084
G1 X118.161 Y112.504
G0 F3600 X117.998 Y111.775
G1 F1200 X106.311 Y100.088 E24.58155
G1 X106.241 Y100.018
G0 F3600 X106.518 Y99.73
G1 F1200 X117.905 Y111.117 E25.12788
G1 X117.975 Y111.187
G0 F3600 X118.186 Y110.832
G1 F1200 X106.725 Y99.371 E25.67775
G1 X106.655 Y99.301
G0 F3600 X106.932 Y99.013
G1 F1200 X118.469 Y110.549 E26.23124
G1 X118.539 Y110.619
G0 F3600 X118.752 Y110.266
G1 F1200 X107.14 Y98.654 E26.78836
G1 X107.07 Y98.584
G0 F3600 X107.394 Y98.343
G1 F1200 X119.035 Y109.984 E27.34687
G1 X119.105 Y110.054
G0 F3600 X119.317 Y109.701
G1 F1200 X108.239 Y98.623 E27.87836
G1 X108.169 Y98.553
G1 F1500 E27.07836
G0 F3600 X109.084 Y98.902
G1 F1500 E27.91994
G1 F1200 X119.6 Y109.418 E28.42447
G1 X119.67 Y109.488
G0 F3600 X119.883 Y109.135
G1 F1200 X109.933 Y99.185 E28.90185
G1 X109.863 Y99.115
G1 F1500 E28.10185
G0 F3600 X110.788 Y99.475
G1 F1500 E28.94343
G1 F1200 X120.166 Y108.852 E29.39334
G1 X120.236 Y108.922
G0 F3600 X120.449 Y108.569
G1 F1200 X111.644 Y99.764 E29.81578
G1 X111.574 Y99.694
G1 F1500 E29.01578
G0 F3600 X112.499 Y100.054
G1 F1500 E29.85735
G1 F1200 X120.732 Y108.287 E30.25236
G1 X120.802 Y108.357
G0 F3600 X121.014 Y108.004
G1 F1200 X113.355 Y100.344 E30.61984
G1 X113.285 Y100.274
G1 F1500 E29.81984
G0 F3600 X114.219 Y100.643
G1 F1500 E30.66142
G1 F1200 X121.297 Y107.721 E31.001
G1 X121.367 Y107.791
G0 F3600 X121.58 Y107.438
G1 F1200 X115.084 Y100.942 E31.31266
G1 X115.014 Y100.872
G1 F1500 E30.51266
G0 F3600 X115.949 Y101.241
G1 F1500 E31.35424
G1 F1200 X121.863 Y107.155 E31.63798
G1 X121.933 Y107.225
G0 F3600 X122.146 Y106.872
G1 F1200 X116.813 Y101.539 E31.89384
G1 X116.743 Y101.469
G1 F1500 E31.09384
G0 F3600 X117.685 Y101.846
G1 F1500 E31.93542
G1 F1200 X122.429 Y106.589 E32.163
G1 X122.499 Y106.659
G0 F3600 X122.712 Y106.307
G1 F1200 X118.557 Y102.152 E32.36235
G1 X118.487 Y102.082
G1 F1500 E31.56235
G0 F3600 X119.43 Y102.459
G1 F1500 E32.40392
G1 F1200 X122.994 Y106.024 E32.57494
G1 X123.064 Y106.094
G0 F3600 X123.277 Y105.741
G1 F1200 X120.308 Y102.772 E32.71739
G1 X120.238 Y102.702
G1 F1500 E31.91739
G0 F3600 X121.188 Y103.086
G1 F1500 E32.75896
G1 F1200 X123.551 Y105.449 E32.87233
G1 X123.621 Y105.519
G0 F3600 X123.757 Y105.09
G1 F1200 X122.068 Y103.4 E32.95339
G1 X121.998 Y103.33
G1 F1500 E32.15339
G0 F3600 X122.955 Y103.721
G1 F1500 E32.99497
G1 F1200 X123.965 Y104.731 E33.04342
G1 X124.035 Y104.801
G0 F3600 X124.171 Y104.372
G1 F1200 X123.846 Y104.047 E33.05902
G1 F1500 E32.25902
G0 F3600 X106.338 Y98.418
G1 F1500 E33.10059
G1 F1200 X105.712 Y97.792 E33.13063
G1 X105.642 Y97.722
G0 F3600 X104.873 Y97.519
G1 F1200 X106.131 Y98.777 E33.19098
G1 X106.201 Y98.847
G0 F3600 X105.923 Y99.135
G1 F1200 X104.034 Y97.246 E33.28161
G1 X103.964 Y97.176
G0 F3600 X103.195 Y96.972
G1 F1200 X105.717 Y99.494 E33.40261
G1 X105.787 Y99.564
G0 F3600 X105.51 Y99.853
G1 F1200 X102.366 Y96.709 E33.55345
G1 X102.296 Y96.639
G0 F3600 X101.534 Y96.443
G1 F1200 X105.303 Y100.211 E33.73426
G1 X105.373 Y100.281
G0 F3600 X105.095 Y100.57
G1 F1200 X100.702 Y96.177 E33.94502
G1 X100.632 Y96.107
G0 F3600 X99.871 Y95.911
G1 F1200 X104.889 Y100.929 E34.18577
G1 X104.959 Y100.999
G0 F3600 X104.682 Y101.288
G1 F1200 X99.045 Y95.651 E34.45622
G1 X98.975 Y95.581
G0 F3600 X98.223 Y95.395
G1 F1200 X104.475 Y101.646 E34.75616
G1 X104.545 Y101.716
G0 F3600 X104.231 Y101.968
G1 F1200 X97.401 Y95.139 E35.08382
G1 X97.331 Y95.069
G0 F3600 X96.579 Y94.882
G1 F1200 X102.713 Y101.016 E35.37812
G1 X102.783 Y101.086
G1 F1500 E34.57812
G0 F3600 X101.196 Y100.064
G1 F1500 E35.41969
G1 F1200 X95.762 Y94.631 E35.68038
G1 X95.692 Y94.561
G0 F3600 X95.506 Y94.941
G1 F1200 X99.678 Y99.113 E35.88054
G1 X99.748 Y99.183
G1 F1500 E35.08054
G0 F3600 X98.161 Y98.161
G1 F1500 E35.92212
G1 F1200 X95.299 Y95.299 E36.05943
G1 X95.229 Y95.229
G0 F3600 X95.091 Y95.657
G1 F1200 X96.643 Y97.209 E36.13389
G1 X96.713 Y97.279
G1 F1500 E35.33389
G0 F3600 X95.126 Y96.257
G1 F1500 E36.17546
G1 F1200 X94.884 Y96.015 E36.18707
G1 F1500 E35.38707
G0 F3600 X94.704 Y94.704
G1 F1500 E36.22865
G1 F1200 X94.127 Y94.127 E36.25633
G1 X94.057 Y94.057
G0 F3600 X93.312 Y93.878
G1 F1200 X94.497 Y95.063 E36.31319
G1 X94.567 Y95.133
G0 F3600 X94.29 Y95.421
G1 F1200 X92.503 Y93.635 E36.3989
G1 X92.433 Y93.565
G1 F1500 E35.5989
G0 F3600 X92.089 Y94.352
G1 F1500 E36.44047
G1 F1200 X90.885 Y93.148 E36.49824
G1 X90.815 Y93.078
G0 F3600 X90.571 Y93.399
G1 F1200 X90.076 Y92.905 E36.52196
G1 F1500 E35.72196
G0 F3600 X91.694 Y93.391
G1 F1500 E36.56354
G1 F1200 X93.607 Y95.304 E36.65532
G1 X93.677 Y95.374
G1 F1500 E35.85532
G0 F3600 X89.611 Y92.579
;TIME_ELAPSED:54.382437
;LAYER:1
M140 S60
M106 S255
G0 F5400 X89.611 Y92.579 Z0.4
;TYPE:WALL-OUTER
G1 F1500 E36.6969
G1 F1800 X93.476 Y93.743 E36.83383
G1 X96.718 Y94.739 E36.94889
G1 X99.708 Y95.673 E37.05516
G1 X103.206 Y96.792 E37.17976
G1 X106.855 Y97.979 E37.30994
G1 X109.246 Y98.769 E37.39537
