;FLAVOR:Marlin
;TIME:3857
;Filament used: 2.01166m
;Layer height: 0.2
;Generated with Cura_SteamEngine 3.1.0
M190 S60
M104 S230
M109 S230
M82 ; absolute extrusion mode
G28 ;Home
G1 Z15.0 F6000 ;Move the platform down 15mm
;Prime the extruder
G92 E0
G1 F200 E3
G92 E0
;LAYER_COUNT:723
;LAYER:0
M107
G0 F3600 X86.713 Y99.286 Z0.2
;TYPE:SKIRT
G1 F1800 X86.746 Y98.888 E0.01355
G1 X86.858 Y98.505 E0.02709
G1 X86.967 Y98.277 E0.03566
G1 X87.301 Y97.679 E0.0589
G1 X87.53 Y97.351 E0.07247
G1 X87.819 Y97.076 E0.086
G1 X88.157 Y96.863 E0.09956
G1 X88.531 Y96.722 E0.11312
G1 X88.925 Y96.658 E0.12666
G1 X89.324 Y96.673 E0.1402
G1 X89.763 Y96.787 E0.15559
G1 X93.996 Y98.411 E0.3094
G1 X99.275 Y100.165 E0.49812
G1 X104.645 Y101.617 E0.68684
G1 X107.37 Y102.232 E0.78161
G1 X110.039 Y102.752 E0.87386
G1 X115.532 Y103.588 E1.06236
G1 X121.057 Y104.111 E1.25064
G1 X125.79 Y104.387 E1.41148
G1 X126.185 Y104.45 E1.42505
G1 X126.422 Y104.529 E1.43352
G1 X127.208 Y104.846 E1.46227
G1 X127.636 Y105.083 E1.47887
G1 X128.108 Y105.426 E1.49867
G1 X128.441 Y105.732 E1.51401
G1 X128.966 Y106.336 E1.54116
G1 X129.214 Y106.693 E1.55591
G1 X129.45 Y107.127 E1.57267
G1 X129.597 Y107.471 E1.58536
G1 X129.783 Y108.051 E1.60602
G1 X129.865 Y108.423 E1.61894
G1 X129.925 Y108.922 E1.63599
G1 X129.931 Y109.337 E1.65007
G1 X129.861 Y110.131 E1.67712
G1 X129.757 Y110.616 E1.69394
G1 X129.549 Y111.21 E1.7153
G1 X129.349 Y111.622 E1.73083
G1 X128.927 Y112.286 E1.75752
G1 X128.683 Y112.596 E1.77091
G1 X126.153 Y115.238 E1.89501
G1 X122.458 Y119.453 E2.08517
G1 X120.742 Y121.585 E2.17801
G1 X118.055 Y125.184 E2.33039
G1 X117.785 Y125.479 E2.34395
G1 X117.462 Y125.714 E2.35751
G1 X117.099 Y125.881 E2.37106
G1 X116.71 Y125.971 E2.38461
G1 X116.31 Y125.983 E2.39818
G1 X115.917 Y125.915 E2.41171
G1 X115.544 Y125.77 E2.42529
G1 X115.164 Y125.518 E2.44076
G1 X111.044 Y122.052 E2.62341
G1 X111.02 Y122.032 E2.62447
G1 X103.071 Y115.124 E2.98175
G1 X103.041 Y115.097 E2.98312
G1 X92.907 Y105.927 E3.44678
G1 X92.881 Y105.903 E3.44798
G1 X87.345 Y100.711 E3.70546
G1 X87.082 Y100.41 E3.71902
G1 X86.885 Y100.063 E3.73256
G1 X86.76 Y99.683 E3.74613
G1 X86.713 Y99.286 E3.75969
G0 F3600 X87.118 Y99.128
G1 F1800 X87.185 Y98.777 E3.77181
G1 X87.316 Y98.472 E3.78308
G1 X87.65 Y97.874 E3.80631
G1 X87.858 Y97.583 E3.81845
G1 X88.125 Y97.346 E3.83056
G1 X88.438 Y97.174 E3.84268
G1 X88.782 Y97.076 E3.85481
G1 X89.138 Y97.057 E3.86691
G1 X89.62 Y97.16 E3.88363
G1 X93.886 Y98.797 E4.03864
G1 X99.144 Y100.544 E4.22661
G1 X104.549 Y102.005 E4.41656
G1 X107.298 Y102.626 E4.51217
G1 X109.953 Y103.143 E4.60393
G1 X115.486 Y103.985 E4.7938
G1 X121.053 Y104.512 E4.98351
G1 X125.767 Y104.787 E5.1437
G1 X126.272 Y104.9 E5.16126
G1 X127.058 Y105.217 E5.19001
G1 X127.401 Y105.407 E5.20331
G1 X127.873 Y105.75 E5.22311
G1 X128.14 Y105.994 E5.23538
G1 X128.665 Y106.598 E5.26253
G1 X128.863 Y106.884 E5.27433
G1 X129.099 Y107.318 E5.29109
G1 X129.217 Y107.593 E5.30124
G1 X129.403 Y108.173 E5.32191
G1 X129.468 Y108.471 E5.33225
G1 X129.528 Y108.97 E5.3493
G1 X129.533 Y109.302 E5.36057
G1 X129.463 Y110.096 E5.38761
G1 X129.379 Y110.484 E5.40108
G1 X129.171 Y111.078 E5.42243
G1 X129.011 Y111.407 E5.43484
G1 X128.589 Y112.071 E5.46153
G1 X128.395 Y112.32 E5.47224
G1 X125.836 Y114.993 E5.59778
G1 X122.15 Y119.196 E5.78743
G1 X120.429 Y121.334 E5.88054
G1 X117.734 Y124.945 E6.03341
G1 X117.49 Y125.206 E6.04553
G1 X117.194 Y125.406 E6.05765
G1 X116.861 Y125.535 E6.06976
G1 X116.508 Y125.587 E6.08187
G1 X116.151 Y125.56 E6.09401
G1 X115.81 Y125.454 E6.10613
G1 X115.422 Y125.212 E6.12164
G1 X111.302 Y121.746 E6.30429
G1 X111.282 Y121.73 E6.30516
G1 X103.333 Y114.822 E6.66244
G1 X103.309 Y114.8 E6.66354
G1 X93.175 Y105.63 E7.1272
G1 X93.154 Y105.611 E7.12816
G1 X87.618 Y100.419 E7.38565
G1 X87.387 Y100.147 E7.39775
G1 X87.221 Y99.831 E7.40986
G1 X87.13 Y99.485 E7.422
G1 X87.118 Y99.128 E7.43412
G0 F3600 X87.514 Y99.303
G1 F1800 X87.541 Y98.995 E7.44461
G1 X87.665 Y98.667 E7.4565
G1 X87.999 Y98.069 E7.47974
G1 X88.184 Y97.821 E7.49024
G1 X88.425 Y97.628 E7.50071
G1 X88.708 Y97.503 E7.51121
G1 X89.014 Y97.454 E7.52172
G1 X89.321 Y97.486 E7.53219
G1 X89.477 Y97.534 E7.53773
G1 X93.731 Y99.166 E7.6923
G1 X99.056 Y100.935 E7.88266
G1 X104.453 Y102.394 E8.07233
G1 X107.174 Y103.009 E8.16697
G1 X109.909 Y103.542 E8.2615
G1 X115.424 Y104.381 E8.45075
G1 X121.018 Y104.911 E8.64138
G1 X125.744 Y105.186 E8.80198
G1 X126.123 Y105.271 E8.81516
G1 X126.909 Y105.588 E8.84391
G1 X127.165 Y105.73 E8.85384
G1 X127.637 Y106.073 E8.87364
G1 X127.838 Y106.257 E8.88288
G1 X128.363 Y106.861 E8.91003
G1 X128.511 Y107.075 E8.91886
G1 X128.747 Y107.509 E8.93562
G1 X128.836 Y107.716 E8.94326
G1 X129.022 Y108.296 E8.96393
G1 X129.07 Y108.519 E8.97167
G1 X129.13 Y109.018 E8.98872
G1 X129.134 Y109.266 E8.99713
G1 X129.064 Y110.06 E9.02417
G1 X129.002 Y110.352 E9.0343
G1 X128.794 Y110.946 E9.05565
G1 X128.674 Y111.193 E9.06497
G1 X128.252 Y111.857 E9.09166
G1 X128.106 Y112.043 E9.09968
G1 X125.54 Y114.723 E9.22556
G1 X121.855 Y118.926 E9.41519
G1 X120.122 Y121.078 E9.50892
G1 X117.414 Y124.706 E9.66251
G1 X117.198 Y124.928 E9.67302
G1 X116.933 Y125.087 E9.6835
G1 X116.637 Y125.174 E9.69397
G1 X116.328 Y125.182 E9.70446
G1 X116.027 Y125.11 E9.71496
G1 X115.679 Y124.906 E9.72864
G1 X111.559 Y121.44 E9.9113
G1 X111.545 Y121.428 E9.91192
G1 X103.596 Y114.52 E10.2692
G1 X103.578 Y114.504 E10.27001
G1 X93.444 Y105.334 E10.73367
G1 X93.428 Y105.319 E10.73442
G1 X87.892 Y100.127 E10.9919
G1 X87.696 Y99.888 E11.00239
G1 X87.567 Y99.607 E11.01288
G1 X87.514 Y99.303 E11.02334
G1 F1500 E10.22334
G0 F3600 X89.128 Y98.893
;TYPE:WALL-OUTER
G1 F1500 E11.06492
G1 F1200 X107.483 Y108.611 E11.76951
G1 X124.609 Y106.506 E12.35489
G1 X125.059 Y106.487 E12.37017
G1 X125.509 Y106.539 E12.38554
G1 X125.934 Y106.661 E12.40054
G1 X126.344 Y106.853 E12.4159
G1 X126.71 Y107.102 E12.43091
G1 X127.035 Y107.409 E12.44608
G1 X127.307 Y107.765 E12.46128
G1 X127.52 Y108.16 E12.4765
G1 X127.666 Y108.582 E12.49165
G1 X127.742 Y109.022 E12.5068
G1 X127.749 Y109.47 E12.522
G1 X127.683 Y109.912 E12.53716
G1 X127.548 Y110.338 E12.55232
G1 X127.345 Y110.741 E12.56763
G1 X127.085 Y111.1 E12.58267
G1 X126.767 Y111.418 E12.59793
G1 X126.407 Y111.677 E12.61297
G1 X125.989 Y111.886 E12.62883
G1 X119.308 Y114.585 E12.87328
G1 X117.267 Y122.197 E13.14064
G1 X116.4 Y123.696 E13.19939
G1 X114.719 Y122.284 E13.27387
G1 X112.461 Y120.369 E13.37431
G1 X110.2 Y118.43 E13.47536
G1 X107.51 Y116.096 E13.59618
G1 X104.453 Y113.41 E13.73423
G1 X102.056 Y111.276 E13.84311
G1 X99.4 Y108.883 E13.96439
G1 X96.747 Y106.471 E14.08604
G1 X94.258 Y104.181 E14.20078
G1 X92.454 Y102.502 E14.28438
G1 X88.946 Y99.211 E14.44757
G1 X89.128 Y98.893 E14.46
G0 F3600 X89.304 Y98.986
G1 F1500 E13.66
G0 F3600 X93.944 Y101.885
G1 F1500 E14.50157
G1 F1200 X93.371 Y102.875 E14.54038
G1 X93.762 Y103.108 E14.55582
G1 X94.334 Y102.114 E14.59473
G1 X93.944 Y101.885 E14.61007
G0 F3600 X93.844 Y102.058
G1 F1500 E13.81007
G0 F3600 X104.497 Y107.472
G1 F1500 E14.65165
G1 F1200 X102.402 Y111.097 E14.79369
G1 X102.79 Y111.333 E14.80909
G1 X104.885 Y107.705 E14.95122
G1 X104.497 Y107.472 E14.96657
G0 F3600 X104.397 Y107.645
G1 F1500 E14.16657
G0 F3600 X124.139 Y108.797
G1 F1500 E15.00815
G1 F1200 X124.068 Y108.946 E15.01375
G1 X124.023 Y109.103 E15.01929
G1 X124.005 Y109.27 E15.02499
G1 X124.018 Y109.436 E15.03064
G1 X124.058 Y109.594 E15.03617
G1 X124.126 Y109.747 E15.04185
G1 X124.22 Y109.884 E15.04748
G1 X124.333 Y110.002 E15.05303
G1 X124.468 Y110.1 E15.05868
G1 X124.618 Y110.171 E15.06431
G1 X124.775 Y110.216 E15.06986
G1 X124.941 Y110.234 E15.07552
G1 X125.107 Y110.221 E15.08117
G1 X125.267 Y110.181 E15.08676
G1 X125.418 Y110.113 E15.09238
G1 X125.556 Y110.02 E15.09803
G1 X125.674 Y109.906 E15.10359
G1 X125.772 Y109.771 E15.10925
G1 X125.843 Y109.621 E15.11488
G1 X125.888 Y109.463 E15.12046
G1 X125.905 Y109.298 E15.12608
G1 X125.893 Y109.132 E15.13173
G1 X125.853 Y108.972 E15.13733
G1 X125.785 Y108.821 E15.14294
G1 X125.692 Y108.684 E15.14856
G1 X125.578 Y108.565 E15.15415
G1 X125.441 Y108.467 E15.15987
G1 X125.293 Y108.396 E15.16544
G1 X125.135 Y108.351 E15.17101
G1 X124.969 Y108.334 E15.17667
G1 X124.804 Y108.346 E15.18228
G1 X124.645 Y108.386 E15.18784
G1 X124.492 Y108.454 E15.19352
G1 X124.355 Y108.548 E15.19916
G1 X124.237 Y108.663 E15.20475
G1 X124.139 Y108.797 E15.21038
G0 F3600 X124.068 Y108.946
G0 X124.059 Y108.979
G1 F1500 E14.41038
G0 F3600 X127.224 Y107.99
;TYPE:SKIN
G1 F1500 E15.25196
G1 F1200 X126.235 Y107.002 E15.29938
G1 X126.165 Y106.932
G1 F1500 E14.49938
G0 F3600 X125.372 Y106.705
G1 F1500 E15.34096
G1 F1200 X127.531 Y108.864 E15.44454
G1 X127.601 Y108.934
G0 F3600 X127.567 Y109.465
G1 F1200 X124.781 Y106.679 E15.57821
G1 X124.711 Y106.609
G0 F3600 X124.266 Y106.729
G1 F1200 X127.482 Y109.946 E15.73253
G1 X127.552 Y110.016
G0 F3600 X127.332 Y110.362
G1 F1200 X126.069 Y109.098 E15.79315
G1 X125.999 Y109.028
G0 F3600 X126.028 Y109.623
G1 F1200 X127.132 Y110.727 E15.84612
G1 X127.202 Y110.797
G0 F3600 X126.884 Y111.045
G1 F1200 X125.832 Y109.993 E15.89659
G1 X125.762 Y109.923
G0 F3600 X125.528 Y110.254
G1 F1200 X126.593 Y111.319 E15.94769
G1 X126.663 Y111.389
G0 F3600 X126.257 Y111.549
G1 F1200 X125.109 Y110.401 E16.00276
G1 X125.039 Y110.331
G0 F3600 X124.418 Y110.276
G1 F1200 X125.877 Y111.735 E16.07276
G1 X125.947 Y111.805
G0 F3600 X125.475 Y111.898
G1 F1200 X120.739 Y107.163 E16.29996
G1 X120.669 Y107.093
G0 F3600 X120.235 Y107.224
G1 F1200 X125.072 Y112.061 E16.53203
G1 X125.142 Y112.131
G0 F3600 X124.669 Y112.224
G1 F1200 X119.732 Y107.287 E16.76889
G1 X119.662 Y107.217
G0 F3600 X119.228 Y107.348
G1 F1200 X124.266 Y112.386 E17.01061
G1 X124.336 Y112.456
G0 F3600 X123.863 Y112.55
G1 F1200 X118.724 Y107.41 E17.25719
G1 X118.654 Y107.34
G0 F3600 X118.22 Y107.472
G1 F1200 X123.46 Y112.712 E17.50859
G1 X123.53 Y112.782
G0 F3600 X123.057 Y112.875
G1 F1200 X117.717 Y107.534 E17.76482
G1 X117.647 Y107.464
G0 F3600 X117.212 Y107.596
G1 F1200 X122.654 Y113.038 E18.02591
G1 X122.724 Y113.108
G0 F3600 X122.251 Y113.2
G1 F1200 X116.709 Y107.658 E18.2918
G1 X116.639 Y107.588
G0 F3600 X116.205 Y107.719
G1 F1200 X121.849 Y113.364 E18.56261
G1 X121.919 Y113.434
G0 F3600 X121.446 Y113.526
G1 F1200 X115.701 Y107.782 E18.83822
G1 X115.631 Y107.712
G0 F3600 X115.197 Y107.843
G1 F1200 X121.043 Y113.689 E19.1187
G1 X121.113 Y113.759
G0 F3600 X120.64 Y113.851
G1 F1200 X114.694 Y107.905 E19.40397
G1 X114.624 Y107.835
G0 F3600 X114.189 Y107.967
G1 F1200 X120.237 Y114.014 E19.69412
G1 X120.307 Y114.084
G0 F3600 X119.834 Y114.177
G1 F1200 X113.686 Y108.029 E19.98908
G1 X113.616 Y107.959
G0 F3600 X113.183 Y108.091
G1 F1200 X119.431 Y114.34 E20.28887
G1 X119.501 Y114.41
G0 F3600 X119.118 Y114.593
G1 F1200 X112.678 Y108.153 E20.59785
G1 X112.608 Y108.083
G0 F3600 X112.175 Y108.215
G1 F1200 X118.999 Y115.039 E20.92525
G1 X119.069 Y115.109
G0 F3600 X118.879 Y115.485
G1 F1200 X111.671 Y108.277 E21.27107
G1 X111.601 Y108.207
G0 F3600 X111.167 Y108.339
G1 F1200 X118.759 Y115.931 E21.63532
G1 X118.829 Y116.001
G0 F3600 X118.64 Y116.377
G1 F1200 X110.663 Y108.4 E22.01804
G1 X110.593 Y108.33
G0 F3600 X110.16 Y108.463
G1 F1200 X118.52 Y116.823 E22.41913
G1 X118.59 Y116.893
G0 F3600 X118.401 Y117.27
G1 F1200 X109.655 Y108.524 E22.83874
G1 X109.585 Y108.454
G0 F3600 X109.152 Y108.586
G1 F1200 X118.281 Y117.716 E23.27675
G1 X118.351 Y117.786
G0 F3600 X118.162 Y118.162
G1 F1200 X108.648 Y108.648 E23.73321
G1 X108.578 Y108.578
G0 F3600 X108.144 Y108.71
G1 F1200 X118.042 Y118.608 E24.2081
G1 X118.112 Y118.678
G0 F3600 X117.923 Y119.054
G1 F1200 X107.64 Y108.772 E24.70143
G1 X107.57 Y108.702
G1 F1500 E23.90143
G0 F3600 X106.704 Y108.401
G1 F1500 E24.743
G1 F1200 X117.803 Y119.501 E25.27553
G1 X117.873 Y119.571
G0 F3600 X117.684 Y119.947
G1 F1200 X105.503 Y107.765 E25.85997
G1 X105.433 Y107.695
G0 F3600 X105.013 Y107.841
G1 F1200 X117.564 Y120.393 E26.46216
G1 X117.634 Y120.463
G0 F3600 X117.445 Y120.839
G1 F1200 X104.806 Y108.2 E27.06855
G1 X104.736 Y108.13
G0 F3600 X104.599 Y108.559
G1 F1200 X117.325 Y121.285 E27.67912
G1 X117.395 Y121.355
G0 F3600 X117.206 Y121.731
G1 F1200 X104.392 Y108.917 E28.2939
G1 X104.322 Y108.847
G0 F3600 X104.185 Y109.276
G1 F1200 X117.076 Y122.167 E28.91238
G1 X117.146 Y122.237
G0 F3600 X116.869 Y122.526
G1 F1200 X103.977 Y109.634 E29.53091
G1 X103.907 Y109.564
G0 F3600 X103.77 Y109.993
G1 F1200 X116.662 Y122.884 E30.14941
G1 X116.732 Y122.954
G0 F3600 X116.454 Y123.242
G1 F1200 X103.563 Y110.351 E30.76789
G1 X103.493 Y110.281
G0 F3600 X103.356 Y110.71
G1 F1200 X114.546 Y121.9 E31.30476
G1 X114.616 Y121.97
G1 F1500 E30.50476
G0 F3600 X110.705 Y118.624
G1 F1500 E31.34634
G1 F1200 X103.149 Y111.068 E31.70886
G1 X103.079 Y110.998
G0 F3600 X102.942 Y111.427
G1 F1200 X106.356 Y114.841 E31.87266
G1 X106.426 Y114.911
G1 F1500 E31.07266
G0 F3600 X121.243 Y107.101
G1 F1500 E31.91423
G1 F1200 X123.96 Y109.818 E32.04459
G1 X124.03 Y109.888
G0 F3600 X123.838 Y109.13
G1 F1200 X121.747 Y107.039 E32.14491
G1 X121.677 Y106.969
G0 F3600 X122.25 Y106.977
G1 F1200 X123.982 Y108.709 E32.228
G1 X124.052 Y108.779
G0 F3600 X124.243 Y108.404
G1 F1200 X122.755 Y106.915 E32.29942
G1 X122.685 Y106.845
G0 F3600 X123.258 Y106.853
G1 F1200 X124.612 Y108.207 E32.36438
G1 X124.682 Y108.277
G0 F3600 X125.14 Y108.17
G1 F1200 X123.762 Y106.792 E32.43049
G1 X123.692 Y106.722
G1 F1500 E31.63049
G0 F3600 X104.359 Y107.187
G1 F1500 E32.47207
G1 F1200 X103.654 Y107.049 E32.50168
G1 X103.028 Y106.422
G1 F1500 E31.70168
G0 F3600 X101.896 Y105.856
G1 F1500 E32.54326
G1 F1200 X104.004 Y107.964 E32.64439
G1 X104.074 Y108.034
G0 F3600 X103.797 Y108.323
G1 F1200 X100.694 Y105.219 E32.79329
G1 X100.624 Y105.149
G1 F1500 E31.99329
G0 F3600 X99.492 Y104.583
G1 F1500 E32.83487
G1 F1200 X103.59 Y108.681 E33.03148
G1 X103.66 Y108.751
G0 F3600 X103.383 Y109.04
G1 F1200 X98.289 Y103.946 E33.27588
G1 X98.219 Y103.876
G1 F1500 E32.47588
G0 F3600 X97.087 Y103.31
G1 F1500 E33.31745
G1 F1200 X103.175 Y109.397 E33.60952
G1 X103.245 Y109.467
G0 F3600 X102.968 Y109.756
G1 F1200 X95.885 Y102.674 E33.94932
G1 X95.815 Y102.604
G1 F1500 E33.14932
G0 F3600 X94.683 Y102.037
G1 F1500 E33.99089
G1 F1200 X102.761 Y110.114 E34.37843
G1 X102.831 Y110.184
G0 F3600 X102.553 Y110.473
G1 F1200 X94.414 Y102.333 E34.76895
G1 X94.344 Y102.263
G0 F3600 X94.207 Y102.693
G1 F1200 X102.346 Y110.831 E35.15941
G1 X102.416 Y110.901
G1 F1500 E34.35941
G0 F3600 X101.301 Y110.352
G1 F1500 E35.20099
G1 F1200 X94.001 Y103.052 E35.55123
G1 X93.931 Y102.982
G0 F3600 X93.611 Y103.228
G1 F1200 X95.035 Y104.651 E35.61952
G1 X95.105 Y104.721
G1 F1500 E34.81952
G0 F3600 X93.821 Y101.74
G1 F1500 E35.6611
G1 F1200 X93.483 Y101.402 E35.67731
G0 F3600 X93.613 Y102.098
G1 F1200 X92.28 Y100.766 E35.74124
G1 X92.21 Y100.696
G1 F1500 E34.94124
G0 F3600 X91.078 Y100.129
G1 F1500 E35.78282
G1 F1200 X93.405 Y102.456 E35.89446
G1 X93.475 Y102.526
G0 F3600 X93.198 Y102.815
G1 F1200 X89.876 Y99.493 E36.05384
G1 X89.806 Y99.423
G1 F1500 E35.25384
G0 F3600 X89.137 Y98.898
;TIME_ELAPSED:53.422512
;LAYER:1
M140 S60
M106 S255
G0 F5400 X89.137 Y98.898 Z0.4
;TYPE:WALL-OUTER
G1 F1500 E36.09542
G1 F1800 X107.482 Y108.611 E36.79963
G1 X124.609 Y106.506 E37.38504
G1 X125.059 Y106.487 E37.40032
G1 X125.509 Y106.539 E37.41569
G1 X125.934 Y106.661 E37.43069
G1 X126.344 Y106.853 E37.44605
G1 X126.71 Y107.102 E37.46107
G1 X127.035 Y107.409 E37.47624
G1 X127.307 Y107.765 E37.49143
G1 X127.52 Y108.16 E37.50666
G1 X127.666 Y108.582 E37.52181
G1 X127.742 Y109.022 E37.53696
