;FLAVOR:Marlin
;TIME:7019
;Filament used: 6.69365m
;Layer height: 0.2
;Generated with Cura_SteamEngine 3.1.0
M190 S60
M104 S230
M109 S230
M82 ; absolute extrusion mode
G28 ;Home
G1 Z15.0 F6000 ;Move the platform down 15mm
;Prime the extruder
G92 E0
G1 F200 E3
G92 E0
;LAYER_COUNT:726
;LAYER:0
M107
G0 F3600 X51.289 Y96.386 Z0.2
;TYPE:SKIRT
G1 F1800 X51.651 Y96.218 E0.01354
G1 X52.04 Y96.126 E0.0271
G1 X52.306 Y96.109 E0.03614
G1 X97.323 Y96.163 E1.56336
G1 X97.54 Y96.175 E1.57073
G1 X99.572 Y96.399 E1.64009
G1 X105.123 Y96.8 E1.8289
G1 X110.676 Y96.886 E2.01731
G1 X116.209 Y96.658 E2.20518
G1 X120.999 Y96.211 E2.36838
G1 X121.186 Y96.202 E2.37474
G1 X130.959 Y96.209 E2.70629
G1 X130.992 Y96.209 E2.70741
G1 X139.151 Y96.347 E2.98424
G1 X139.197 Y96.349 E2.98581
G1 X145.616 Y96.607 E3.20375
G1 X145.673 Y96.61 E3.20569
G1 X151.138 Y96.985 E3.39152
G1 X151.191 Y96.989 E3.39333
G1 X155.217 Y97.373 E3.53053
G1 X155.356 Y97.391 E3.53528
G1 X159.46 Y98.076 E3.67644
G1 X159.615 Y98.109 E3.68182
G1 X161.806 Y98.656 E3.75843
G1 X161.979 Y98.707 E3.76455
G1 X162.813 Y98.997 E3.7945
G1 X163.054 Y99.099 E3.80338
G1 X163.774 Y99.461 E3.83072
G1 X164.08 Y99.651 E3.84294
G1 X164.864 Y100.242 E3.87625
G1 X165.22 Y100.588 E3.89309
G1 X165.94 Y101.486 E3.93214
G1 X166.158 Y101.821 E3.9457
G1 X166.266 Y102.07 E3.95491
G1 X166.509 Y102.757 E3.97963
G1 X166.619 Y103.299 E3.99839
G1 X166.638 Y103.602 E4.00869
G1 X166.623 Y104.001 E4.02223
G1 X166.568 Y104.265 E4.03138
G1 X166.347 Y105.057 E4.05928
G1 X166.202 Y105.429 E4.07282
G1 X166.065 Y105.659 E4.08191
G1 X165.398 Y106.621 E4.12162
G1 X165.207 Y106.856 E4.13189
G1 X164.606 Y107.491 E4.16155
G1 X164.488 Y107.605 E4.16712
G1 X162.936 Y108.996 E4.23783
G1 X162.768 Y109.131 E4.24514
G1 X161.096 Y110.332 E4.31498
G1 X160.914 Y110.448 E4.3223
G1 X159.386 Y111.313 E4.38187
G1 X159.231 Y111.392 E4.38777
G1 X157.2 Y112.319 E4.46351
G1 X157.101 Y112.362 E4.46717
G1 X155.567 Y112.964 E4.52308
G1 X155.475 Y112.997 E4.52639
G1 X152.861 Y113.878 E4.61997
G1 X152.766 Y113.908 E4.62335
G1 X149.014 Y114.968 E4.75562
G1 X148.915 Y114.993 E4.75909
G1 X145.269 Y115.825 E4.88596
G1 X145.188 Y115.842 E4.88877
G1 X141.673 Y116.492 E5.01004
G1 X141.593 Y116.505 E5.01279
G1 X137.21 Y117.134 E5.163
G1 X137.121 Y117.144 E5.16604
G1 X132.733 Y117.574 E5.31562
G1 X132.646 Y117.581 E5.31858
G1 X127.792 Y117.844 E5.4835
G1 X127.717 Y117.847 E5.48604
G1 X121.787 Y117.946 E5.68725
G1 X121.734 Y117.946 E5.68905
G1 X114.055 Y117.869 E5.94957
G1 X114.006 Y117.868 E5.95123
G1 X106.734 Y117.618 E6.19808
G1 X106.678 Y117.615 E6.19999
G1 X99.394 Y117.16 E6.44758
G1 X99.337 Y117.156 E6.44952
G1 X92.153 Y116.5 E6.69425
G1 X92.102 Y116.494 E6.696
G1 X83.665 Y115.504 E6.98419
G1 X83.615 Y115.498 E6.9859
G1 X75.031 Y114.272 E7.28007
G1 X74.984 Y114.265 E7.28168
G1 X66.62 Y112.864 E7.56938
G1 X66.576 Y112.856 E7.5709
G1 X56.959 Y111.023 E7.90303
G1 X56.925 Y111.016 E7.90421
G1 X51.523 Y109.89 E8.09141
G1 X51.142 Y109.77 E8.10497
G1 X50.792 Y109.576 E8.11854
G1 X50.488 Y109.317 E8.13209
G1 X50.242 Y109.003 E8.14562
G1 X50.063 Y108.646 E8.15917
G1 X49.958 Y108.26 E8.17274
G1 X49.932 Y107.856 E8.18648
G1 X50.305 Y98.033 E8.51997
G1 X50.36 Y97.637 E8.53353
G1 X50.493 Y97.261 E8.54706
G1 X50.698 Y96.917 E8.56064
G1 X50.967 Y96.622 E8.57419
G1 X51.289 Y96.386 E8.58773
G0 F3600 X51.351 Y96.824
G1 F1800 X51.66 Y96.644 E8.59986
G1 X52.001 Y96.538 E8.61198
G1 X52.306 Y96.509 E8.62237
G1 X97.323 Y96.563 E10.14959
G1 X97.497 Y96.573 E10.1555
G1 X99.529 Y96.797 E10.22486
G1 X105.105 Y97.2 E10.41452
G1 X110.669 Y97.286 E10.6033
G1 X116.243 Y97.056 E10.79256
G1 X121.036 Y96.609 E10.95587
G1 X121.186 Y96.602 E10.96097
G1 X130.959 Y96.609 E11.29252
G1 X130.985 Y96.609 E11.2934
G1 X139.144 Y96.747 E11.57024
G1 X139.181 Y96.748 E11.57149
G1 X145.6 Y97.006 E11.78944
G1 X145.646 Y97.009 E11.791
G1 X151.111 Y97.384 E11.97684
G1 X151.153 Y97.387 E11.97827
G1 X155.179 Y97.771 E12.11547
G1 X155.29 Y97.786 E12.11927
G1 X159.394 Y98.471 E12.26043
G1 X159.519 Y98.497 E12.26476
G1 X161.71 Y99.044 E12.34137
G1 X161.847 Y99.085 E12.34622
G1 X162.681 Y99.375 E12.37618
G1 X162.875 Y99.457 E12.38332
G1 X163.595 Y99.819 E12.41066
G1 X163.839 Y99.97 E12.4204
G1 X164.623 Y100.561 E12.4537
G1 X164.908 Y100.838 E12.46719
G1 X165.628 Y101.736 E12.50623
G1 X165.819 Y102.038 E12.51836
G1 X165.888 Y102.203 E12.52442
G1 X166.131 Y102.89 E12.54915
G1 X166.22 Y103.324 E12.56418
G1 X166.239 Y103.627 E12.57448
G1 X166.183 Y104.157 E12.59256
G1 X165.962 Y104.949 E12.62045
G1 X165.736 Y105.431 E12.63851
G1 X165.069 Y106.393 E12.67823
G1 X164.916 Y106.581 E12.68645
G1 X164.315 Y107.216 E12.71611
G1 X164.221 Y107.307 E12.72055
G1 X162.669 Y108.698 E12.79125
G1 X162.534 Y108.807 E12.79714
G1 X160.862 Y110.008 E12.86698
G1 X160.717 Y110.1 E12.87281
G1 X159.189 Y110.965 E12.93237
G1 X159.065 Y111.029 E12.93711
G1 X157.034 Y111.956 E13.01285
G1 X156.955 Y111.989 E13.01575
G1 X155.421 Y112.591 E13.07166
G1 X155.347 Y112.618 E13.07433
G1 X152.733 Y113.499 E13.16791
G1 X152.657 Y113.523 E13.17062
G1 X148.905 Y114.583 E13.30289
G1 X148.826 Y114.603 E13.30565
G1 X145.18 Y115.435 E13.43252
G1 X145.115 Y115.448 E13.43477
G1 X141.6 Y116.098 E13.55604
G1 X141.536 Y116.109 E13.55824
G1 X137.153 Y116.738 E13.70846
G1 X137.082 Y116.746 E13.71088
G1 X132.694 Y117.176 E13.86046
G1 X132.625 Y117.182 E13.86281
G1 X127.771 Y117.445 E14.02773
G1 X127.711 Y117.447 E14.02976
G1 X121.781 Y117.546 E14.23097
G1 X121.738 Y117.546 E14.23243
G1 X114.059 Y117.469 E14.49295
G1 X114.02 Y117.468 E14.49428
G1 X106.748 Y117.218 E14.74113
G1 X106.703 Y117.216 E14.74266
G1 X99.419 Y116.761 E14.99025
G1 X99.374 Y116.757 E14.99178
G1 X92.19 Y116.101 E15.23652
G1 X92.149 Y116.097 E15.23791
G1 X83.712 Y115.107 E15.52611
G1 X83.672 Y115.102 E15.52747
G1 X75.088 Y113.876 E15.82164
G1 X75.05 Y113.87 E15.82295
G1 X66.686 Y112.469 E16.11065
G1 X66.65 Y112.463 E16.11189
G1 X57.033 Y110.63 E16.44402
G1 X57.007 Y110.624 E16.44493
G1 X51.605 Y109.498 E16.63213
G1 X51.265 Y109.387 E16.64427
G1 X50.959 Y109.203 E16.65638
G1 X50.701 Y108.956 E16.6685
G1 X50.505 Y108.657 E16.68063
G1 X50.379 Y108.323 E16.69274
G1 X50.332 Y107.871 E16.70815
G1 X50.705 Y98.048 E17.04164
G1 X50.758 Y97.695 E17.05375
G1 X50.889 Y97.362 E17.06589
G1 X51.09 Y97.067 E17.078
G1 X51.351 Y96.824 E17.0901
G0 F3600 X51.729 Y97.056
G1 F1800 X52.018 Y96.944 E17.10062
G1 X52.305 Y96.909 E17.11042
G1 X97.322 Y96.963 E18.63764
G1 X97.453 Y96.97 E18.64209
G1 X99.509 Y97.197 E18.71227
G1 X105.087 Y97.6 E18.902
G1 X110.679 Y97.687 E19.09173
G1 X116.258 Y97.456 E19.28116
G1 X121.073 Y97.007 E19.44522
G1 X121.186 Y97.002 E19.44906
G1 X130.959 Y97.009 E19.78061
G1 X130.978 Y97.009 E19.78125
G1 X139.137 Y97.147 E20.05809
G1 X139.165 Y97.148 E20.05904
G1 X145.584 Y97.406 E20.27698
G1 X145.618 Y97.408 E20.27814
G1 X151.083 Y97.783 E20.46398
G1 X151.115 Y97.785 E20.46507
G1 X155.141 Y98.169 E20.60227
G1 X155.225 Y98.18 E20.60514
G1 X159.329 Y98.865 E20.7463
G1 X159.422 Y98.885 E20.74953
G1 X161.613 Y99.432 E20.82614
G1 X161.716 Y99.463 E20.82979
G1 X162.55 Y99.753 E20.85974
G1 X162.695 Y99.814 E20.86508
G1 X163.415 Y100.176 E20.89242
G1 X163.598 Y100.29 E20.89973
G1 X164.382 Y100.881 E20.93304
G1 X164.596 Y101.088 E20.94314
G1 X165.316 Y101.986 E20.98219
G1 X165.511 Y102.337 E20.99581
G1 X165.754 Y103.024 E21.02053
G1 X165.821 Y103.349 E21.03179
G1 X165.84 Y103.652 E21.04209
G1 X165.798 Y104.05 E21.05567
G1 X165.577 Y104.842 E21.08356
G1 X165.407 Y105.203 E21.0971
G1 X164.74 Y106.165 E21.13681
G1 X164.626 Y106.306 E21.14297
G1 X164.025 Y106.941 E21.17263
G1 X163.954 Y107.01 E21.17599
G1 X162.402 Y108.401 E21.24669
G1 X162.301 Y108.482 E21.25108
G1 X160.629 Y109.683 E21.32092
G1 X160.52 Y109.752 E21.3253
G1 X158.992 Y110.617 E21.38487
G1 X158.899 Y110.665 E21.38842
G1 X156.868 Y111.592 E21.46416
G1 X156.808 Y111.617 E21.46636
G1 X155.274 Y112.219 E21.52227
G1 X155.219 Y112.239 E21.52425
G1 X152.605 Y113.12 E21.61784
G1 X152.548 Y113.138 E21.61986
G1 X148.796 Y114.198 E21.75213
G1 X148.737 Y114.213 E21.7542
G1 X145.091 Y115.045 E21.88107
G1 X145.042 Y115.055 E21.88277
G1 X141.527 Y115.705 E22.00404
G1 X141.479 Y115.713 E22.00569
G1 X137.096 Y116.342 E22.1559
G1 X137.043 Y116.348 E22.15771
G1 X132.655 Y116.778 E22.30729
G1 X132.603 Y116.782 E22.30906
G1 X127.749 Y117.045 E22.47398
G1 X127.704 Y117.047 E22.4755
G1 X121.774 Y117.146 E22.67671
G1 X121.742 Y117.146 E22.6778
G1 X114.063 Y117.069 E22.93832
G1 X114.034 Y117.068 E22.93931
G1 X106.762 Y116.818 E23.18616
G1 X106.728 Y116.817 E23.18731
G1 X99.444 Y116.362 E23.4349
G1 X99.41 Y116.359 E23.43606
G1 X92.226 Y115.703 E23.6808
G1 X92.195 Y115.7 E23.68185
G1 X83.758 Y114.71 E23.97004
G1 X83.728 Y114.706 E23.97107
G1 X75.144 Y113.48 E24.26524
G1 X75.116 Y113.476 E24.2662
G1 X66.752 Y112.075 E24.55391
G1 X66.725 Y112.07 E24.55484
G1 X57.108 Y110.237 E24.88697
G1 X57.088 Y110.233 E24.88766
G1 X51.686 Y109.107 E25.07487
G1 X51.394 Y109.005 E25.08536
G1 X51.138 Y108.832 E25.09584
G1 X50.934 Y108.6 E25.10632
G1 X50.796 Y108.323 E25.11682
G1 X50.732 Y107.886 E25.1318
G1 X51.105 Y98.063 E25.46529
G1 X51.156 Y97.759 E25.47575
G1 X51.284 Y97.477 E25.48626
G1 X51.479 Y97.237 E25.49675
G1 X51.729 Y97.056 E25.50722
G1 F1500 E24.70722
G0 F3600 X52.488 Y98.294
;TYPE:WALL-OUTER
G1 F1500 E25.54879
G1 F1200 X97.096 Y98.351 E27.06214
G1 X97.078 Y104.531 E27.2718
G1 X97.113 Y105.205 E27.29469
G1 X97.22 Y105.864 E27.31734
G1 X97.402 Y106.519 E27.3404
G1 X97.653 Y107.149 E27.36341
G1 X97.973 Y107.751 E27.38654
G1 X98.355 Y108.312 E27.40957
G1 X98.797 Y108.828 E27.43262
G1 X99.294 Y109.292 E27.45568
G1 X99.838 Y109.701 E27.47877
G1 X100.423 Y110.046 E27.50181
G1 X101.042 Y110.326 E27.52486
G1 X101.689 Y110.536 E27.54794
G1 X102.354 Y110.674 E27.57098
G1 X103.029 Y110.738 E27.59398
G1 X114.078 Y110.775 E27.96882
G1 X114.618 Y110.768 E27.98715
G1 X114.983 Y110.742 E27.99956
G1 X115.329 Y110.7 E28.01138
G1 X115.687 Y110.636 E28.02372
G1 X116.028 Y110.561 E28.03557
G1 X116.378 Y110.462 E28.04791
G1 X116.708 Y110.354 E28.05969
G1 X117.049 Y110.222 E28.07209
G1 X117.367 Y110.081 E28.08389
G1 X117.692 Y109.915 E28.09627
G1 X117.995 Y109.744 E28.10808
G1 X118.291 Y109.554 E28.12001
G1 X118.497 Y109.411 E28.12852
G1 X118.862 Y109.13 E28.14414
G1 X119.084 Y108.94 E28.15406
G1 X119.39 Y108.65 E28.16836
G1 X119.631 Y108.395 E28.18026
G1 X119.852 Y108.138 E28.19176
G1 X120.071 Y107.856 E28.20388
G1 X120.265 Y107.578 E28.21538
G1 X120.458 Y107.277 E28.22751
G1 X120.626 Y106.979 E28.23911
G1 X120.85 Y106.524 E28.25632
G1 X121.052 Y106.026 E28.27455
G1 X121.122 Y105.818 E28.28199
G1 X121.259 Y105.355 E28.29837
G1 X121.319 Y105.093 E28.30749
G1 X121.399 Y104.663 E28.32233
G1 X121.44 Y104.349 E28.33307
G1 X121.471 Y103.961 E28.34628
G1 X121.481 Y103.599 E28.35857
G1 X121.496 Y98.379 E28.53566
G1 X125.524 Y98.381 E28.67231
G1 X131.218 Y98.41 E28.86548
G1 X135.62 Y98.465 E29.01483
G1 X139.478 Y98.556 E29.14575
G1 X142.684 Y98.667 E29.25458
G1 X145.799 Y98.818 E29.36038
G1 X148.78 Y99.005 E29.46171
G1 X151.254 Y99.2 E29.54591
G1 X154.044 Y99.453 E29.64095
G1 X155.732 Y99.647 E29.69859
G1 X157.019 Y99.833 E29.7427
G1 X158.267 Y100.063 E29.78576
G1 X159.53 Y100.341 E29.82963
G1 X160.804 Y100.651 E29.87411
G1 X161.425 Y100.825 E29.89599
G1 X161.953 Y101.01 E29.91497
G1 X162.364 Y101.189 E29.93018
G1 X162.808 Y101.427 E29.94727
G1 X163.223 Y101.718 E29.96446
G1 X163.553 Y101.998 E29.97915
G1 X163.739 Y102.186 E29.98812
G1 X163.981 Y102.47 E30.00078
G1 X164.156 Y102.728 E30.01135
G1 X164.31 Y103.017 E30.02246
G1 X164.396 Y103.257 E30.03111
G1 X164.443 Y103.489 E30.03914
G1 X164.451 Y103.739 E30.04763
G1 X164.42 Y103.97 E30.05553
G1 X164.344 Y104.225 E30.06456
G1 X164.229 Y104.481 E30.07408
G1 X164.095 Y104.72 E30.08338
G1 X163.848 Y105.075 E30.09805
G1 X163.549 Y105.43 E30.1138
G1 X163.134 Y105.865 E30.13419
G1 X162.502 Y106.466 E30.16378
G1 X161.699 Y107.173 E30.20008
G1 X160.996 Y107.74 E30.23072
G1 X160.198 Y108.308 E30.26395
G1 X159.501 Y108.745 E30.29186
G1 X158.657 Y109.22 E30.32471
G1 X157.736 Y109.686 E30.35973
G1 X156.81 Y110.105 E30.39421
G1 X155.554 Y110.625 E30.44033
G1 X154.271 Y111.1 E30.48674
G1 X152.818 Y111.591 E30.53877
G1 X150.905 Y112.178 E30.60666
G1 X149.075 Y112.686 E30.67109
G1 X147.131 Y113.171 E30.73906
G1 X145.296 Y113.577 E30.80282
G1 X143.126 Y114.008 E30.87788
G1 X140.704 Y114.426 E30.96126
G1 X138.585 Y114.743 E31.03395
G1 X136.294 Y115.032 E31.11229
G1 X134.147 Y115.254 E31.18551
G1 X132.006 Y115.427 E31.25838
G1 X129.687 Y115.566 E31.3372
G1 X127.178 Y115.667 E31.42238
G1 X124.553 Y115.727 E31.51146
G1 X121.459 Y115.748 E31.61643
G1 X117.542 Y115.726 E31.74932
G1 X113.685 Y115.662 E31.88018
G1 X109.846 Y115.548 E32.01048
G1 X106.494 Y115.406 E32.1243
G1 X102.917 Y115.206 E32.24584
G1 X99.226 Y114.943 E32.37138
G1 X95.734 Y114.643 E32.49028
G1 X92.075 Y114.281 E32.61502
G1 X87.936 Y113.82 E32.7563
G1 X83.586 Y113.278 E32.90502
G1 X79.3 Y112.689 E33.05179
G1 X74.993 Y112.042 E33.19955
G1 X70.837 Y111.367 E33.34239
G1 X66.744 Y110.651 E33.48335
G1 X62.209 Y109.81 E33.63983
G1 X57.157 Y108.819 E33.81449
G1 X52.127 Y107.778 E33.98875
G1 X52.488 Y98.294 E34.31073
G0 F3600 X52.688 Y98.294
G1 F1500 E33.51073
G0 F3600 X64.407 Y98.708
G1 F1500 E34.3523
G1 F1200 X64.319 Y101.098 E34.43344
G1 X64.768 Y101.125 E34.4487
G1 X64.861 Y98.717 E34.53045
G1 X64.407 Y98.708 E34.54586
G0 F3600 X64.4 Y98.907
G1 F1500 E33.74586
G0 F3600 X72.489 Y98.695
G1 F1500 E34.58743
G1 F1200 X72.014 Y111.203 E35.01208
G1 X74.312 Y111.29 E35.09009
G1 X74.787 Y98.782 E35.51474
G1 X72.489 Y98.695 E35.59275
G0 F3600 X72.482 Y98.894
G1 F1500 E34.79275
G0 F3600 X84.153 Y98.739
G1 F1500 E35.63433
G1 F1200 X84.061 Y101.128 E35.71544
G1 X84.514 Y101.153 E35.73083
G1 X84.605 Y98.739 E35.81278
G1 X84.153 Y98.739 E35.82812
G0 F3600 X84.146 Y98.938
G1 F1500 E35.02812
G0 F3600 X95.884 Y98.751
G1 F1500 E35.86969
G1 F1200 X95.797 Y101.081 E35.94879
G1 X96.247 Y101.134 E35.96416
G1 X96.338 Y98.751 E36.04507
G1 X95.884 Y98.751 E36.06047
G0 F3600 X95.877 Y98.95
G1 F1500 E35.26047
G0 F3600 X95.387 Y111.841
G1 F1500 E36.10204
G1 F1200 X95.298 Y114.203 E36.18223
G1 X95.75 Y114.237 E36.19761
G1 X95.84 Y111.875 E36.2778
G1 X95.387 Y111.841 E36.29321
G0 F3600 X95.38 Y112.04
G1 F1500 E35.49321
G0 F3600 X83.705 Y110.497
G1 F1500 E36.33479
G1 F1200 X83.606 Y113.099 E36.42312
G1 X84.061 Y113.108 E36.43856
G1 X84.157 Y110.514 E36.52663
G1 X83.705 Y110.497 E36.54197
G0 F3600 X83.698 Y110.696
G1 F1500 E35.74197
G0 F3600 X64.079 Y107.358
G1 F1500 E36.58355
G1 F1200 X63.988 Y109.765 E36.66526
G1 X64.44 Y109.799 E36.68064
G1 X64.53 Y107.401 E36.76205
G1 X64.079 Y107.358 E36.77742
G0 F3600 X64.072 Y107.557
G1 F1500 E35.97742
G0 F3600 X115.682 Y111.179
G1 F1500 E36.819
G1 F1200 X115.524 Y115.301 E36.95894
G1 X115.979 Y115.301 E36.97437
G1 X116.135 Y111.188 E37.11401
G1 X115.682 Y111.179 E37.12938
G0 F3600 X115.675 Y111.378
G1 F1500 E36.32938
G0 F3600 X126.853 Y112.851
G1 F1500 E37.17096
G1 F1200 X126.763 Y115.26 E37.25274
G1 X127.214 Y115.278 E37.26805
G1 X127.306 Y112.885 E37.34929
G1 X126.853 Y112.851 E37.36471
G0 F3600 X126.846 Y113.05
G1 F1500 E36.56471
G0 F3600 X127.387 Y98.789
G1 F1500 E37.40628
G1 F1200 X127.298 Y101.179 E37.48742
G1 X127.748 Y101.197 E37.5027
G1 X127.842 Y98.789 E37.58445
G1 X127.387 Y98.789 E37.59989
G0 F3600 X127.38 Y98.988
G1 F1500 E36.79989
G0 F3600 X136.529 Y98.858
G1 F1500 E37.64146
G1 F1200 X135.94 Y114.367 E38.16799
G1 X138.238 Y114.454 E38.24601
G1 X138.827 Y98.945 E38.77253
G1 X136.529 Y98.858 E38.85055
G0 F3600 X136.522 Y99.057
