;FLAVOR:Marlin
;TIME:7025
;Filament used: 6.69399m
;Layer height: 0.2
;Generated with Cura_SteamEngine 3.1.0
M190 S60
M104 S230
M109 S230
M82 ; absolute extrusion mode
G28 ;Home
G1 Z15.0 F6000 ;Move the platform down 15mm
;Prime the extruder
G92 E0
G1 F200 E3
G92 E0
;LAYER_COUNT:726
;LAYER:0
M107
G0 F3600 X51.19 Y104.4 Z0.2
;TYPE:SKIRT
G1 F1800 X51.577 Y104.277 E0.01378
G1 X57.05 Y103.134 E0.20346
G1 X57.082 Y103.128 E0.20456
G1 X66.175 Y101.384 E0.51867
G1 X66.217 Y101.376 E0.52012
G1 X74.493 Y99.972 E0.80489
G1 X74.541 Y99.965 E0.80654
G1 X82.903 Y98.751 E1.0932
G1 X82.951 Y98.744 E1.09484
G1 X91.449 Y97.723 E1.38521
G1 X91.5 Y97.718 E1.38695
G1 X98.762 Y97.032 E1.63441
G1 X98.819 Y97.027 E1.63636
G1 X106.153 Y96.546 E1.8857
G1 X106.209 Y96.543 E1.8876
G1 X113.26 Y96.28 E2.12698
G1 X113.309 Y96.279 E2.12864
G1 X121.17 Y96.178 E2.39535
G1 X121.22 Y96.178 E2.39704
G1 X126.875 Y96.245 E2.5889
G1 X126.943 Y96.247 E2.59121
G1 X131.642 Y96.463 E2.7508
G1 X131.721 Y96.468 E2.75348
G1 X135.933 Y96.829 E2.8969
G1 X136.021 Y96.839 E2.8999
G1 X140.493 Y97.423 E3.05291
G1 X140.586 Y97.437 E3.0561
G1 X145.258 Y98.273 E3.21711
G1 X145.341 Y98.29 E3.21999
G1 X148.275 Y98.944 E3.32197
G1 X148.364 Y98.966 E3.32508
G1 X152.17 Y100 E3.45888
G1 X152.274 Y100.031 E3.46256
G1 X155.565 Y101.119 E3.58015
G1 X155.695 Y101.167 E3.58485
G1 X158.113 Y102.158 E3.67351
G1 X158.279 Y102.235 E3.67971
G1 X160.78 Y103.537 E3.77537
G1 X160.982 Y103.658 E3.78336
G1 X162.192 Y104.482 E3.83302
G1 X162.317 Y104.575 E3.83831
G1 X163.328 Y105.386 E3.88228
G1 X163.438 Y105.48 E3.88719
G1 X164.801 Y106.745 E3.95027
G1 X164.971 Y106.924 E3.95865
G1 X165.744 Y107.843 E3.99939
G1 X165.976 Y108.186 E4.01344
G1 X166.352 Y108.888 E4.04045
G1 X166.505 Y109.257 E4.054
G1 X166.569 Y109.549 E4.06415
G1 X166.673 Y110.276 E4.08906
G1 X166.669 Y110.867 E4.10911
G1 X166.626 Y111.143 E4.11859
G1 X166.477 Y111.648 E4.13645
G1 X166.167 Y112.345 E4.16233
G1 X165.969 Y112.692 E4.17588
G1 X165.832 Y112.864 E4.18334
G1 X165.083 Y113.703 E4.2215
G1 X164.727 Y114.017 E4.2376
G1 X163.862 Y114.614 E4.27326
G1 X163.543 Y114.794 E4.28568
G1 X162.725 Y115.16 E4.31609
G1 X162.45 Y115.259 E4.326
G1 X160.678 Y115.758 E4.38846
G1 X160.521 Y115.796 E4.39394
G1 X156.741 Y116.537 E4.52461
G1 X156.568 Y116.563 E4.53055
G1 X151.885 Y117.063 E4.69033
G1 X151.818 Y117.069 E4.69261
G1 X146.343 Y117.466 E4.87884
G1 X146.284 Y117.469 E4.88084
G1 X139.849 Y117.747 E5.09935
G1 X139.801 Y117.749 E5.10098
G1 X131.675 Y117.904 E5.37671
G1 X131.645 Y117.904 E5.37773
G1 X122.034 Y117.944 E5.70379
G1 X121.877 Y117.938 E5.70912
G1 X113.65 Y117.322 E5.989
G1 X108.097 Y117.247 E6.17741
G1 X102.569 Y117.483 E6.36512
G1 X97.542 Y117.969 E6.53646
G1 X97.354 Y117.978 E6.54284
G1 X52.376 Y118.064 E8.06874
G1 X51.978 Y118.025 E8.0823
G1 X51.596 Y117.907 E8.09587
G1 X51.245 Y117.717 E8.10941
G1 X50.939 Y117.46 E8.12297
G1 X50.691 Y117.147 E8.13651
G1 X50.509 Y116.791 E8.15008
G1 X50.402 Y116.407 E8.1636
G1 X50.374 Y116.142 E8.17264
G1 X49.988 Y106.313 E8.50635
G1 X50.012 Y105.915 E8.51988
G1 X50.115 Y105.529 E8.53343
G1 X50.293 Y105.171 E8.54699
G1 X50.538 Y104.856 E8.56053
G1 X50.841 Y104.595 E8.5741
G1 X51.19 Y104.4 E8.58766
G0 F3600 X51.231 Y104.824
G1 F1800 X51.659 Y104.669 E8.60311
G1 X57.132 Y103.526 E8.79278
G1 X57.158 Y103.521 E8.79368
G1 X66.251 Y101.777 E9.10779
G1 X66.284 Y101.771 E9.10893
G1 X74.56 Y100.367 E9.3937
G1 X74.598 Y100.361 E9.39501
G1 X82.96 Y99.147 E9.68167
G1 X82.999 Y99.141 E9.68301
G1 X91.497 Y98.12 E9.97338
G1 X91.538 Y98.116 E9.97477
G1 X98.8 Y97.43 E10.22224
G1 X98.845 Y97.426 E10.22377
G1 X106.179 Y96.945 E10.47311
G1 X106.224 Y96.943 E10.47464
G1 X113.275 Y96.68 E10.71401
G1 X113.314 Y96.679 E10.71534
G1 X121.175 Y96.578 E10.98205
G1 X121.215 Y96.578 E10.9834
G1 X126.87 Y96.645 E11.17527
G1 X126.924 Y96.647 E11.1771
G1 X131.623 Y96.863 E11.33668
G1 X131.687 Y96.867 E11.33886
G1 X135.899 Y97.228 E11.48227
G1 X135.969 Y97.235 E11.48466
G1 X140.441 Y97.819 E11.63766
G1 X140.516 Y97.831 E11.64024
G1 X145.188 Y98.667 E11.80126
G1 X145.254 Y98.68 E11.80354
G1 X148.188 Y99.334 E11.90552
G1 X148.259 Y99.352 E11.908
G1 X152.065 Y100.386 E12.0418
G1 X152.148 Y100.411 E12.04474
G1 X155.439 Y101.499 E12.16234
G1 X155.544 Y101.538 E12.16614
G1 X157.962 Y102.529 E12.25479
G1 X158.094 Y102.59 E12.25972
G1 X160.595 Y103.892 E12.35538
G1 X160.757 Y103.989 E12.36178
G1 X161.967 Y104.813 E12.41145
G1 X162.067 Y104.887 E12.41567
G1 X163.078 Y105.698 E12.45964
G1 X163.165 Y105.773 E12.46354
G1 X164.528 Y107.038 E12.52662
G1 X164.664 Y107.181 E12.53332
G1 X165.437 Y108.1 E12.57406
G1 X165.623 Y108.375 E12.58532
G1 X165.999 Y109.077 E12.61234
G1 X166.132 Y109.408 E12.62444
G1 X166.173 Y109.605 E12.63127
G1 X166.277 Y110.332 E12.65618
G1 X166.274 Y110.805 E12.67223
G1 X166.231 Y111.081 E12.6817
G1 X166.112 Y111.485 E12.69599
G1 X165.802 Y112.182 E12.72187
G1 X165.534 Y112.598 E12.73866
G1 X164.785 Y113.437 E12.77681
G1 X164.5 Y113.688 E12.7897
G1 X163.635 Y114.285 E12.82535
G1 X163.379 Y114.428 E12.8353
G1 X162.561 Y114.794 E12.8657
G1 X162.342 Y114.874 E12.87361
G1 X160.57 Y115.373 E12.93607
G1 X160.444 Y115.403 E12.94046
G1 X156.664 Y116.144 E13.07114
G1 X156.526 Y116.165 E13.07588
G1 X151.843 Y116.665 E13.23565
G1 X151.789 Y116.67 E13.23749
G1 X146.314 Y117.067 E13.42372
G1 X146.267 Y117.07 E13.42532
G1 X139.832 Y117.348 E13.64383
G1 X139.794 Y117.349 E13.64512
G1 X131.668 Y117.504 E13.92085
G1 X131.644 Y117.504 E13.92166
G1 X122.033 Y117.544 E14.24772
G1 X121.907 Y117.54 E14.252
G1 X113.653 Y116.922 E14.5328
G1 X108.103 Y116.847 E14.72111
G1 X102.534 Y117.085 E14.91021
G1 X97.504 Y117.571 E15.08165
G1 X97.353 Y117.578 E15.08678
G1 X52.375 Y117.664 E16.61267
G1 X52.02 Y117.625 E16.62479
G1 X51.682 Y117.508 E16.63692
G1 X51.379 Y117.319 E16.64904
G1 X51.126 Y117.067 E16.66115
G1 X50.934 Y116.766 E16.67326
G1 X50.814 Y116.429 E16.6854
G1 X50.773 Y116.127 E16.69574
G1 X50.387 Y106.298 E17.02945
G1 X50.413 Y105.942 E17.04156
G1 X50.517 Y105.6 E17.05369
G1 X50.695 Y105.29 E17.06581
G1 X50.937 Y105.027 E17.07794
G1 X51.231 Y104.824 E17.09006
G0 F3600 X51.332 Y105.229
G1 F1800 X51.741 Y105.06 E17.10507
G1 X57.214 Y103.917 E17.29475
G1 X57.233 Y103.913 E17.29541
G1 X66.326 Y102.169 E17.60952
G1 X66.351 Y102.165 E17.61037
G1 X74.627 Y100.761 E17.89515
G1 X74.656 Y100.756 E17.89615
G1 X83.018 Y99.542 E18.18281
G1 X83.047 Y99.539 E18.1838
G1 X91.545 Y98.518 E18.47417
G1 X91.575 Y98.514 E18.47519
G1 X98.837 Y97.828 E18.72266
G1 X98.871 Y97.826 E18.72381
G1 X106.205 Y97.345 E18.97316
G1 X106.239 Y97.343 E18.97431
G1 X113.29 Y97.08 E19.21368
G1 X113.32 Y97.079 E19.2147
G1 X121.181 Y96.978 E19.48141
G1 X121.21 Y96.978 E19.4824
G1 X126.865 Y97.045 E19.67426
G1 X126.906 Y97.046 E19.67565
G1 X131.605 Y97.262 E19.83523
G1 X131.652 Y97.265 E19.83683
G1 X135.864 Y97.626 E19.98025
G1 X135.917 Y97.632 E19.98206
G1 X140.389 Y98.216 E20.13506
G1 X140.445 Y98.225 E20.13698
G1 X145.117 Y99.061 E20.298
G1 X145.167 Y99.071 E20.29973
G1 X148.101 Y99.725 E20.40171
G1 X148.155 Y99.738 E20.40359
G1 X151.961 Y100.772 E20.53739
G1 X152.023 Y100.791 E20.53959
G1 X155.314 Y101.879 E20.65719
G1 X155.392 Y101.908 E20.66001
G1 X157.81 Y102.899 E20.74866
G1 X157.909 Y102.945 E20.75237
G1 X160.41 Y104.247 E20.84802
G1 X160.531 Y104.319 E20.8528
G1 X161.741 Y105.143 E20.90246
G1 X161.817 Y105.199 E20.90567
G1 X162.828 Y106.01 E20.94964
G1 X162.893 Y106.066 E20.95255
G1 X164.256 Y107.331 E21.01563
G1 X164.358 Y107.439 E21.02067
G1 X165.131 Y108.358 E21.06141
G1 X165.271 Y108.563 E21.06983
G1 X165.647 Y109.265 E21.09685
G1 X165.777 Y109.662 E21.11102
G1 X165.881 Y110.389 E21.13594
G1 X165.879 Y110.744 E21.14798
G1 X165.836 Y111.02 E21.15746
G1 X165.746 Y111.323 E21.16818
G1 X165.436 Y112.02 E21.19406
G1 X165.235 Y112.331 E21.20662
G1 X164.486 Y113.17 E21.24478
G1 X164.273 Y113.359 E21.25444
G1 X163.408 Y113.956 E21.29009
G1 X163.216 Y114.063 E21.29755
G1 X162.398 Y114.429 E21.32795
G1 X162.233 Y114.489 E21.33391
G1 X160.461 Y114.988 E21.39636
G1 X160.367 Y115.011 E21.39965
G1 X156.587 Y115.752 E21.53033
G1 X156.483 Y115.767 E21.53389
G1 X151.8 Y116.267 E21.69367
G1 X151.76 Y116.271 E21.69503
G1 X146.285 Y116.668 E21.88126
G1 X146.25 Y116.67 E21.88245
G1 X139.815 Y116.948 E22.10096
G1 X139.786 Y116.949 E22.10195
G1 X131.66 Y117.104 E22.37767
G1 X131.642 Y117.104 E22.37828
G1 X122.031 Y117.144 E22.70434
G1 X121.936 Y117.141 E22.70757
G1 X113.671 Y116.522 E22.98875
G1 X108.091 Y116.446 E23.17807
G1 X102.496 Y116.686 E23.36805
G1 X97.465 Y117.172 E23.53953
G1 X97.352 Y117.178 E23.54336
G1 X52.374 Y117.264 E25.06926
G1 X52.068 Y117.225 E25.07973
G1 X51.781 Y117.108 E25.09024
G1 X51.534 Y116.923 E25.10071
G1 X51.342 Y116.68 E25.11122
G1 X51.219 Y116.397 E25.12169
G1 X51.173 Y116.111 E25.13151
G1 X50.787 Y106.282 E25.46522
G1 X50.815 Y105.974 E25.47571
G1 X50.92 Y105.684 E25.48618
G1 X51.097 Y105.43 E25.49668
G1 X51.332 Y105.229 E25.50717
G1 F1500 E24.70717
G0 F3600 X52.184 Y106.389
;TYPE:WALL-OUTER
G1 F1500 E25.54875
G1 F1200 X57.212 Y105.345 E25.72296
G1 X62.264 Y104.351 E25.89764
G1 X66.799 Y103.506 E26.05414
G1 X70.891 Y102.788 E26.19508
G1 X75.046 Y102.11 E26.3379
G1 X79.353 Y101.462 E26.48567
G1 X83.638 Y100.87 E26.63242
G1 X87.988 Y100.325 E26.78115
G1 X92.127 Y99.861 E26.92244
G1 X95.785 Y99.497 E27.04715
G1 X99.278 Y99.195 E27.1661
G1 X102.968 Y98.929 E27.29161
G1 X106.545 Y98.728 E27.41315
G1 X109.899 Y98.583 E27.52704
G1 X113.736 Y98.467 E27.65727
G1 X117.593 Y98.401 E27.78814
G1 X121.51 Y98.376 E27.92103
G1 X124.605 Y98.396 E28.02603
G1 X127.229 Y98.454 E28.11507
G1 X129.738 Y98.553 E28.20026
G1 X132.057 Y98.691 E28.27907
G1 X134.2 Y98.862 E28.352
G1 X136.347 Y99.083 E28.42522
G1 X138.637 Y99.371 E28.50353
G1 X140.757 Y99.686 E28.57624
G1 X143.178 Y100.103 E28.65958
G1 X145.348 Y100.533 E28.73463
G1 X147.184 Y100.939 E28.79842
G1 X149.128 Y101.422 E28.86638
G1 X150.958 Y101.929 E28.9308
G1 X152.867 Y102.514 E28.99853
G1 X154.343 Y103.011 E29.05137
G1 X155.593 Y103.472 E29.09657
G1 X156.746 Y103.944 E29.13884
G1 X157.768 Y104.409 E29.17693
G1 X158.733 Y104.893 E29.21355
G1 X159.556 Y105.356 E29.24559
G1 X160.253 Y105.793 E29.2735
G1 X161.052 Y106.36 E29.30674
G1 X161.755 Y106.927 E29.33738
G1 X162.558 Y107.634 E29.37367
G1 X163.191 Y108.234 E29.40326
G1 X163.599 Y108.66 E29.42327
G1 X163.901 Y109.019 E29.43919
G1 X164.153 Y109.38 E29.45412
G1 X164.286 Y109.618 E29.46337
G1 X164.403 Y109.876 E29.47298
G1 X164.478 Y110.128 E29.4819
G1 X164.509 Y110.359 E29.48981
G1 X164.501 Y110.61 E29.49833
G1 X164.455 Y110.841 E29.50632
G1 X164.369 Y111.081 E29.51497
G1 X164.215 Y111.371 E29.52611
G1 X164.04 Y111.629 E29.53669
G1 X163.798 Y111.912 E29.54932
G1 X163.617 Y112.095 E29.55805
G1 X163.278 Y112.385 E29.57318
G1 X162.868 Y112.672 E29.59016
G1 X162.424 Y112.912 E29.60729
G1 X162.013 Y113.09 E29.62248
G1 X161.485 Y113.275 E29.64146
G1 X160.864 Y113.449 E29.66334
G1 X159.586 Y113.762 E29.70798
G1 X158.328 Y114.039 E29.75168
G1 X157.08 Y114.269 E29.79473
G1 X155.793 Y114.456 E29.83885
G1 X154.105 Y114.651 E29.8965
G1 X151.316 Y114.906 E29.99151
G1 X148.842 Y115.104 E30.07571
G1 X145.86 Y115.292 E30.17708
G1 X142.746 Y115.444 E30.28285
G1 X139.54 Y115.557 E30.39168
G1 X135.682 Y115.651 E30.5226
G1 X131.279 Y115.709 E30.67199
G1 X125.585 Y115.741 E30.86516
G1 X121.558 Y115.745 E31.00178
G1 X121.54 Y110.526 E31.17884
G1 X121.529 Y110.164 E31.19112
G1 X121.498 Y109.775 E31.20436
G1 X121.457 Y109.461 E31.2151
G1 X121.377 Y109.032 E31.22991
G1 X121.315 Y108.77 E31.23904
G1 X121.18 Y108.305 E31.25547
G1 X121.108 Y108.098 E31.2629
G1 X120.907 Y107.601 E31.28109
G1 X120.682 Y107.147 E31.29828
G1 X120.515 Y106.848 E31.3099
G1 X120.322 Y106.547 E31.32203
G1 X120.127 Y106.269 E31.33355
G1 X119.908 Y105.988 E31.34564
G1 X119.686 Y105.731 E31.35716
G1 X119.444 Y105.475 E31.36911
G1 X119.139 Y105.187 E31.38334
G1 X118.918 Y104.996 E31.39325
G1 X118.552 Y104.714 E31.40893
G1 X118.346 Y104.571 E31.41743
G1 X118.05 Y104.383 E31.42933
G1 X117.747 Y104.212 E31.44113
G1 X117.422 Y104.046 E31.45351
G1 X117.103 Y103.905 E31.46534
G1 X116.762 Y103.773 E31.47775
G1 X116.433 Y103.666 E31.48949
G1 X116.082 Y103.566 E31.50187
G1 X115.741 Y103.492 E31.51371
G1 X115.382 Y103.428 E31.52608
G1 X115.037 Y103.387 E31.53786
G1 X114.674 Y103.36 E31.55021
G1 X114.317 Y103.352 E31.56233
G1 X103.095 Y103.396 E31.94304
G1 X102.42 Y103.459 E31.96604
G1 X101.755 Y103.596 E31.98907
G1 X101.108 Y103.805 E32.01214
G1 X100.488 Y104.084 E32.03521
G1 X99.902 Y104.429 E32.05828
G1 X99.358 Y104.836 E32.08132
G1 X98.86 Y105.3 E32.10442
G1 X98.418 Y105.816 E32.12747
G1 X98.034 Y106.377 E32.15053
G1 X97.714 Y106.977 E32.1736
G1 X97.461 Y107.608 E32.19666
G1 X97.279 Y108.263 E32.21972
G1 X97.171 Y108.934 E32.24278
G1 X97.136 Y109.608 E32.26568
G1 X97.158 Y115.788 E32.47534
G1 X52.55 Y115.872 E33.98868
G1 X52.184 Y106.389 E34.31064
G0 F3600 X52.379 Y106.349
G1 F1500 E33.51064
G0 F3600 X64.043 Y104.394
G1 F1500 E34.35221
G1 F1200 X64.135 Y106.801 E34.43393
G1 X64.587 Y106.758 E34.44933
G1 X64.495 Y104.36 E34.53075
G1 X64.043 Y104.394 E34.54612
G0 F3600 X64.05 Y104.593
G1 F1500 E33.74612
G0 F3600 X72.067 Y102.951
G1 F1500 E34.5877
G1 F1200 X72.551 Y115.46 E35.01239
G1 X74.849 Y115.371 E35.09041
G1 X74.366 Y102.862 E35.51509
G1 X72.067 Y102.951 E35.59315
G0 F3600 X72.074 Y103.15
G1 F1500 E34.79315
G0 F3600 X83.659 Y101.044
G1 F1500 E35.63472
G1 F1200 X83.759 Y103.65 E35.7232
G1 X84.211 Y103.633 E35.73854
G1 X84.114 Y101.044 E35.82644
G1 X83.659 Y101.044 E35.84187
G0 F3600 X83.666 Y101.243
G1 F1500 E35.04187
G0 F3600 X95.35 Y99.937
G1 F1500 E35.88345
G1 F1200 X95.44 Y102.299 E35.96364
G1 X95.893 Y102.265 E35.97905
G1 X95.802 Y99.903 E36.05924
G1 X95.35 Y99.937 E36.07462
G0 F3600 X95.357 Y100.136
G1 F1500 E35.27462
G0 F3600 X96.306 Y113.002
G1 F1500 E36.11619
G1 F1200 X95.857 Y113.064 E36.13157
G1 X95.947 Y115.393 E36.21064
G1 X96.399 Y115.384 E36.22598
G1 X96.306 Y113.002 E36.30685
G0 F3600 X96.108 Y113.029
G1 F1500 E35.50685
G0 F3600 X84.12 Y113.019
G1 F1500 E36.34843
G1 F1200 X84.214 Y115.408 E36.42954
G1 X84.666 Y115.408 E36.44487
G1 X84.574 Y112.994 E36.52682
G1 X84.12 Y113.019 E36.54225
G0 F3600 X84.127 Y113.218
G1 F1500 E35.74225
G0 F3600 X64.379 Y113.061
G1 F1500 E36.58383
G1 F1200 X64.47 Y115.451 E36.66497
G1 X64.922 Y115.442 E36.6803
G1 X64.828 Y113.034 E36.76206
G1 X64.379 Y113.061 E36.77732
G0 F3600 X64.386 Y113.26
G1 F1500 E35.97732
G0 F3600 X115.576 Y98.827
G1 F1500 E36.81889
G1 F1200 X115.736 Y102.949 E36.95884
G1 X116.188 Y102.94 E36.97418
G1 X116.031 Y98.827 E37.11381
G1 X115.576 Y98.827 E37.12925
G0 F3600 X115.583 Y99.026
G1 F1500 E36.32925
G0 F3600 X126.815 Y98.861
G1 F1500 E37.17082
G1 F1200 X126.906 Y101.27 E37.25261
G1 X127.359 Y101.236 E37.26802
G1 X127.266 Y98.843 E37.34926
G1 X126.815 Y98.861 E37.36458
G0 F3600 X126.822 Y99.06
G1 F1500 E36.56458
G0 F3600 X135.991 Y99.749
G1 F1500 E37.40615
G1 F1200 X136.59 Y115.258 E37.93269
G1 X138.889 Y115.169 E38.01074
G1 X138.29 Y99.66 E38.53728
G1 X135.991 Y99.749 E38.61534
G0 F3600 X135.998 Y99.948
G1 F1500 E37.81534
G0 F3600 X147.628 Y101.503
G1 F1500 E38.65691
G1 F1200 X147.723 Y103.942 E38.73972
G1 X148.176 Y103.942 E38.75509
G1 X148.083 Y101.528 E38.83704
G1 X147.628 Y101.503 E38.8525
G0 F3600 X147.635 Y101.702
G1 F1500 E38.0525
G0 F3600 X148.047 Y112.351
G1 F1500 E38.89408
G1 F1200 X148.14 Y114.738 E38.97512
G1 X148.592 Y114.729 E38.99046
G1 X148.498 Y112.317 E39.07235
G1 X148.047 Y112.351 E39.08769
G0 F3600 X148.054 Y112.55
G1 F1500 E38.28769
G0 F3600 X158.738 Y111.064
G1 F1500 E39.12927
