;FLAVOR:Marlin
;TIME:1437
;Filament used: 0.446236m
;Layer height: 0.2
;Generated with Cura_SteamEngine 3.1.0
M190 S60
M104 S215
M109 S215
M82 ; absolute extrusion mode
G28 ;Home
G1 Z15.0 F6000 ;Move the platform down 15mm
;Prime the extruder
G92 E0
G1 F200 E3
G92 E0
;LAYER_COUNT:136
;LAYER:0
M107
G0 F7200 X99.819 Y100.42 Z0.2
;TYPE:SKIRT
G1 F1800 X100.502 Y99.755 E0.03171
G1 X100.982 Y99.343 E0.05275
G1 X101.284 Y99.133 E0.06498
G1 X102.081 Y98.62 E0.0965
G1 X102.633 Y98.312 E0.11753
G1 X102.963 Y98.169 E0.12949
G1 X103.823 Y97.832 E0.16021
G1 X104.425 Y97.639 E0.18124
G1 X104.773 Y97.564 E0.19308
G1 X105.719 Y97.396 E0.22504
G1 X106.347 Y97.325 E0.24606
G1 X106.71 Y97.32 E0.25813
G1 X107.648 Y97.342 E0.28934
G1 X108.278 Y97.397 E0.31037
G1 X108.765 Y97.496 E0.3269
G1 X109.915 Y97.789 E0.36637
G1 X110.517 Y97.983 E0.38741
G1 X110.965 Y98.186 E0.40377
G1 X111.812 Y98.621 E0.43544
G1 X112.355 Y98.945 E0.45647
G1 X112.651 Y99.165 E0.46873
G1 X113.386 Y99.753 E0.50004
G1 X113.854 Y100.178 E0.52107
G1 X114.176 Y100.544 E0.53728
G1 X114.916 Y101.474 E0.57681
G1 X115.277 Y101.992 E0.59781
G1 X115.51 Y102.422 E0.61407
G1 X115.914 Y103.263 E0.64511
G1 X116.151 Y103.849 E0.66613
G1 X116.281 Y104.314 E0.68219
G1 X116.546 Y105.473 E0.72173
G1 X116.648 Y106.096 E0.74273
G1 X116.666 Y106.839 E0.76745
G1 X116.595 Y108.248 E0.81437
G1 X116.523 Y108.876 E0.8354
G1 X116.301 Y109.702 E0.86384
G1 X115.819 Y111.03 E0.91083
G1 X115.566 Y111.609 E0.93185
G1 X115.25 Y112.141 E0.95243
G1 X114.716 Y112.924 E0.98395
G1 X114.327 Y113.423 E1.005
G1 X114.073 Y113.689 E1.01723
G1 X113.388 Y114.356 E1.04903
G1 X112.908 Y114.768 E1.07007
G1 X112.605 Y114.979 E1.08235
G1 X111.809 Y115.491 E1.11383
G1 X111.257 Y115.799 E1.13485
G1 X110.927 Y115.942 E1.14681
G1 X110.056 Y116.283 E1.17792
G1 X109.454 Y116.476 E1.19895
G1 X109.105 Y116.55 E1.21082
G1 X108.173 Y116.715 E1.2423
G1 X107.294 Y116.792 E1.27164
G1 X106.574 Y116.791 E1.29559
G1 X105.836 Y116.735 E1.32021
G1 X105.139 Y116.63 E1.34365
G1 X104.288 Y116.425 E1.37277
G1 X103.403 Y116.127 E1.40383
G1 X102.818 Y115.887 E1.42486
G1 X102.399 Y115.659 E1.44072
G1 X101.387 Y115.043 E1.48013
G1 X100.869 Y114.681 E1.50115
G1 X100.499 Y114.354 E1.51757
G1 X99.816 Y113.689 E1.54928
G1 X99.392 Y113.221 E1.57028
G1 X99.173 Y112.924 E1.58255
G1 X98.639 Y112.141 E1.61408
G1 X98.317 Y111.597 E1.6351
G1 X98.16 Y111.259 E1.6475
G1 X97.799 Y110.399 E1.67852
G1 X97.591 Y109.802 E1.69954
G1 X97.51 Y109.462 E1.71117
G1 X97.318 Y108.519 E1.74318
G1 X97.231 Y107.892 E1.76423
G1 X97.217 Y107.521 E1.77658
G1 X97.217 Y106.586 E1.80768
G1 X97.257 Y105.955 E1.82871
G1 X97.318 Y105.588 E1.84108
G1 X97.509 Y104.65 E1.87292
G1 X97.674 Y104.04 E1.89394
G1 X97.799 Y103.709 E1.90571
G1 X98.163 Y102.844 E1.93692
G1 X98.445 Y102.278 E1.95795
G1 X98.647 Y101.957 E1.97057
G1 X99.182 Y101.176 E2.00205
G1 X99.572 Y100.678 E2.02309
G1 X99.819 Y100.42 E2.03497
G0 F7200 X100.098 Y100.706
G1 F1800 X100.781 Y100.041 E2.06668
G1 X101.242 Y99.648 E2.08682
G1 X101.5 Y99.469 E2.09727
G1 X102.297 Y98.956 E2.12879
G1 X102.828 Y98.662 E2.14898
G1 X103.109 Y98.541 E2.15916
G1 X103.969 Y98.204 E2.18988
G1 X104.843 Y97.958 E2.22008
G1 X105.789 Y97.79 E2.25203
G1 X106.391 Y97.723 E2.27218
G1 X106.701 Y97.72 E2.28249
G1 X107.639 Y97.742 E2.3137
G1 X108.243 Y97.796 E2.33387
G1 X108.667 Y97.883 E2.34826
G1 X109.817 Y98.176 E2.38773
G1 X110.393 Y98.364 E2.40789
G1 X110.783 Y98.542 E2.42214
G1 X111.63 Y98.977 E2.45381
G1 X112.149 Y99.289 E2.47395
G1 X112.402 Y99.477 E2.48444
G1 X113.137 Y100.065 E2.51574
G1 X113.584 Y100.474 E2.5359
G1 X113.863 Y100.793 E2.54999
G1 X114.603 Y101.723 E2.58952
G1 X114.948 Y102.221 E2.60967
G1 X115.149 Y102.595 E2.62379
G1 X115.553 Y103.436 E2.65483
G1 X115.779 Y103.999 E2.675
G1 X115.891 Y104.403 E2.68895
G1 X116.156 Y105.562 E2.72849
G1 X116.252 Y106.16 E2.74863
G1 X116.266 Y106.819 E2.77056
G1 X116.195 Y108.228 E2.81748
G1 X116.125 Y108.83 E2.83764
G1 X115.925 Y109.565 E2.86297
G1 X115.443 Y110.893 E2.90996
G1 X115.199 Y111.448 E2.93013
G1 X114.919 Y111.916 E2.94827
G1 X114.385 Y112.699 E2.97979
G1 X114.011 Y113.176 E2.99995
G1 X113.794 Y113.403 E3.01039
G1 X113.109 Y114.07 E3.04219
G1 X112.648 Y114.463 E3.06234
G1 X112.388 Y114.643 E3.07286
G1 X111.592 Y115.155 E3.10434
G1 X111.062 Y115.448 E3.12448
G1 X110.781 Y115.569 E3.13466
G1 X109.91 Y115.91 E3.16577
G1 X109.332 Y116.094 E3.18594
G1 X109.035 Y116.157 E3.19604
G1 X108.103 Y116.322 E3.22752
G1 X107.295 Y116.392 E3.2545
G1 X106.575 Y116.391 E3.27844
G1 X105.896 Y116.34 E3.30109
G1 X105.199 Y116.235 E3.32453
G1 X104.416 Y116.045 E3.35133
G1 X103.531 Y115.747 E3.38239
G1 X102.97 Y115.517 E3.40256
G1 X102.607 Y115.317 E3.41634
G1 X101.595 Y114.701 E3.45575
G1 X101.099 Y114.353 E3.4759
G1 X100.778 Y114.068 E3.49018
G1 X100.095 Y113.403 E3.52188
G1 X99.689 Y112.952 E3.54206
G1 X99.504 Y112.699 E3.55249
G1 X98.97 Y111.916 E3.58401
G1 X98.662 Y111.393 E3.6042
G1 X98.529 Y111.104 E3.61478
G1 X98.168 Y110.244 E3.6458
G1 X97.901 Y109.382 E3.67582
G1 X97.709 Y108.439 E3.70782
G1 X97.628 Y107.838 E3.72799
G1 X97.617 Y107.521 E3.73854
G1 X97.617 Y106.586 E3.76964
G1 X97.657 Y105.981 E3.78981
G1 X97.709 Y105.668 E3.80036
G1 X97.9 Y104.73 E3.8322
G1 X98.168 Y103.864 E3.86235
G1 X98.532 Y102.999 E3.89356
G1 X98.804 Y102.457 E3.91373
G1 X98.977 Y102.183 E3.92451
G1 X99.512 Y101.402 E3.956
G1 X99.887 Y100.926 E3.97615
G1 X100.098 Y100.706 E3.98629
G0 F7200 X100.377 Y100.993
G1 F1800 X101.06 Y100.328 E4.018
G1 X101.717 Y99.805 E4.04593
G1 X102.514 Y99.292 E4.07745
G1 X103.255 Y98.914 E4.10512
G1 X104.115 Y98.577 E4.13584
G1 X104.913 Y98.352 E4.16342
G1 X105.859 Y98.184 E4.19537
G1 X106.691 Y98.12 E4.22313
G1 X107.629 Y98.142 E4.25433
G1 X108.206 Y98.196 E4.27361
G1 X108.568 Y98.271 E4.28591
G1 X109.718 Y98.564 E4.32538
G1 X110.268 Y98.745 E4.34463
G1 X110.6 Y98.898 E4.35679
G1 X111.447 Y99.333 E4.38846
G1 X112.152 Y99.789 E4.41639
G1 X112.887 Y100.377 E4.44769
G1 X113.313 Y100.77 E4.46697
G1 X113.55 Y101.042 E4.47897
G1 X114.29 Y101.972 E4.5185
G1 X114.618 Y102.449 E4.53775
G1 X114.789 Y102.768 E4.54979
G1 X115.193 Y103.609 E4.58082
G1 X115.407 Y104.148 E4.60011
G1 X115.501 Y104.492 E4.61197
G1 X115.766 Y105.651 E4.65152
G1 X115.856 Y106.223 E4.67078
G1 X115.867 Y106.798 E4.6899
G1 X115.796 Y108.207 E4.73683
G1 X115.727 Y108.783 E4.75612
G1 X115.549 Y109.429 E4.77841
G1 X115.067 Y110.757 E4.8254
G1 X114.832 Y111.287 E4.84468
G1 X114.589 Y111.69 E4.86033
G1 X114.055 Y112.473 E4.89186
G1 X113.515 Y113.116 E4.91978
G1 X112.83 Y113.783 E4.95158
G1 X112.172 Y114.306 E4.97954
G1 X111.376 Y114.818 E5.01102
G1 X110.635 Y115.197 E5.0387
G1 X109.764 Y115.538 E5.06981
G1 X108.965 Y115.763 E5.09742
G1 X108.033 Y115.928 E5.1289
G1 X107.295 Y115.992 E5.15354
G1 X106.575 Y115.991 E5.17749
G1 X105.955 Y115.944 E5.19817
G1 X105.258 Y115.839 E5.22161
G1 X104.544 Y115.666 E5.24604
G1 X103.659 Y115.368 E5.2771
G1 X103.124 Y115.146 E5.29637
G1 X102.815 Y114.976 E5.3081
G1 X101.803 Y114.36 E5.3475
G1 X101.33 Y114.025 E5.36678
G1 X101.057 Y113.781 E5.37896
G1 X100.374 Y113.116 E5.41067
G1 X99.834 Y112.473 E5.43859
G1 X99.3 Y111.69 E5.47012
G1 X98.897 Y110.95 E5.49814
G1 X98.536 Y110.09 E5.52916
G1 X98.293 Y109.302 E5.55659
G1 X98.101 Y108.359 E5.5886
G1 X98.017 Y107.521 E5.61661
G1 X98.017 Y106.586 E5.64771
G1 X98.101 Y105.748 E5.67572
G1 X98.292 Y104.81 E5.70756
G1 X98.537 Y104.019 E5.7351
G1 X98.901 Y103.154 E5.76631
G1 X99.307 Y102.409 E5.79453
G1 X99.842 Y101.628 E5.82602
G1 X100.377 Y100.993 E5.85364
G0 F7200 X100.656 Y101.279
G1 F1800 X101.339 Y100.614 E5.88534
G1 X101.933 Y100.142 E5.91058
G1 X102.73 Y99.629 E5.9421
G1 X103.401 Y99.286 E5.96716
G1 X104.261 Y98.949 E5.99789
G1 X104.983 Y98.746 E6.02283
G1 X105.929 Y98.578 E6.05479
G1 X106.682 Y98.52 E6.07991
G1 X107.62 Y98.542 E6.11111
G1 X108.169 Y98.595 E6.12946
G1 X108.469 Y98.659 E6.13966
G1 X109.619 Y98.952 E6.17913
G1 X110.142 Y99.126 E6.19746
G1 X110.417 Y99.254 E6.20755
G1 X111.264 Y99.689 E6.23922
G1 X111.902 Y100.102 E6.2645
G1 X112.637 Y100.69 E6.29581
G1 X113.041 Y101.064 E6.31412
G1 X113.237 Y101.291 E6.32409
G1 X113.977 Y102.221 E6.36362
G1 X114.287 Y102.676 E6.38193
G1 X114.428 Y102.942 E6.39195
G1 X114.832 Y103.783 E6.42298
G1 X115.034 Y104.295 E6.44129
G1 X115.111 Y104.581 E6.45114
G1 X115.376 Y105.74 E6.49068
G1 X115.46 Y106.285 E6.50902
G1 X115.467 Y106.778 E6.52542
G1 X115.396 Y108.187 E6.57234
G1 X115.329 Y108.734 E6.59067
G1 X115.173 Y109.292 E6.60994
G1 X114.691 Y110.62 E6.65693
G1 X114.466 Y111.123 E6.67526
G1 X114.258 Y111.465 E6.68857
G1 X113.724 Y112.248 E6.72009
G1 X113.236 Y112.83 E6.74536
G1 X112.551 Y113.497 E6.77716
G1 X111.956 Y113.97 E6.80244
G1 X111.16 Y114.482 E6.83392
G1 X110.489 Y114.824 E6.85897
G1 X109.618 Y115.165 E6.89008
G1 X108.895 Y115.369 E6.91506
G1 X107.963 Y115.534 E6.94654
G1 X107.296 Y115.592 E6.96881
G1 X106.576 Y115.591 E6.99276
G1 X106.015 Y115.549 E7.01147
G1 X105.318 Y115.444 E7.03491
G1 X104.671 Y115.287 E7.05706
G1 X103.786 Y114.989 E7.08812
G1 X103.278 Y114.776 E7.10644
G1 X103.023 Y114.634 E7.11615
G1 X102.011 Y114.018 E7.15555
G1 X101.563 Y113.698 E7.17386
G1 X101.336 Y113.495 E7.18399
G1 X100.653 Y112.83 E7.2157
G1 X100.165 Y112.248 E7.24096
G1 X99.631 Y111.465 E7.27248
G1 X99.266 Y110.795 E7.29786
G1 X98.905 Y109.935 E7.32888
G1 X98.685 Y109.222 E7.3537
G1 X98.493 Y108.279 E7.3857
G1 X98.417 Y107.521 E7.41104
G1 X98.417 Y106.586 E7.44214
G1 X98.493 Y105.828 E7.46748
G1 X98.684 Y104.89 E7.49931
G1 X98.905 Y104.174 E7.52424
G1 X99.269 Y103.309 E7.55545
G1 X99.637 Y102.635 E7.58099
G1 X100.172 Y101.854 E7.61248
G1 X100.656 Y101.279 E7.63748
G0 F7200 X100.935 Y101.566
G1 F1800 X101.618 Y100.901 E7.66918
G1 X102.15 Y100.478 E7.69179
G1 X102.947 Y99.965 E7.72331
G1 X103.547 Y99.658 E7.74573
G1 X104.407 Y99.321 E7.77645
G1 X105.052 Y99.139 E7.79874
G1 X105.998 Y98.971 E7.8307
G1 X106.673 Y98.92 E7.85321
G1 X107.611 Y98.942 E7.88442
G1 X108.37 Y99.046 E7.9099
G1 X109.52 Y99.339 E7.94937
G1 X110.234 Y99.61 E7.97477
G1 X111.081 Y100.045 E8.00644
G1 X111.652 Y100.414 E8.02905
G1 X112.387 Y101.002 E8.06036
G1 X112.924 Y101.54 E8.08564
G1 X113.664 Y102.47 E8.12517
G1 X114.068 Y103.115 E8.15048
G1 X114.472 Y103.956 E8.18152
G1 X114.721 Y104.67 E8.20667
G1 X114.986 Y105.829 E8.24621
G1 X115.063 Y106.345 E8.26356
G1 X115.068 Y106.758 E8.2773
G1 X114.997 Y108.167 E8.32422
G1 X114.931 Y108.684 E8.34156
G1 X114.797 Y109.156 E8.35788
G1 X114.315 Y110.484 E8.40487
G1 X114.1 Y110.959 E8.42221
G1 X113.928 Y111.24 E8.43317
G1 X113.394 Y112.023 E8.46469
G1 X112.957 Y112.543 E8.48728
G1 X112.272 Y113.21 E8.51908
G1 X111.739 Y113.634 E8.54173
G1 X110.943 Y114.146 E8.57321
G1 X110.344 Y114.452 E8.59558
G1 X109.473 Y114.793 E8.62669
G1 X108.826 Y114.975 E8.64905
G1 X107.894 Y115.14 E8.68053
G1 X107.296 Y115.192 E8.70049
G1 X106.576 Y115.191 E8.72444
G1 X106.075 Y115.153 E8.74115
G1 X105.378 Y115.048 E8.7646
G1 X104.799 Y114.908 E8.78441
G1 X103.914 Y114.61 E8.81547
G1 X103.231 Y114.292 E8.84053
G1 X102.219 Y113.676 E8.87993
G1 X101.615 Y113.208 E8.90534
G1 X100.932 Y112.543 E8.93705
G1 X100.495 Y112.023 E8.95964
G1 X99.961 Y111.24 E8.99116
G1 X99.635 Y110.64 E9.01388
G1 X99.274 Y109.78 E9.0449
G1 X99.077 Y109.142 E9.06711
G1 X98.885 Y108.199 E9.09911
G1 X98.817 Y107.521 E9.12178
G1 X98.817 Y106.586 E9.15287
G1 X98.885 Y105.908 E9.17554
G1 X99.076 Y104.97 E9.20738
G1 X99.274 Y104.329 E9.22969
G1 X99.638 Y103.464 E9.2609
G1 X99.967 Y102.862 E9.28372
G1 X100.502 Y102.081 E9.31521
G1 X100.935 Y101.566 E9.33759
G0 F7200 X101.214 Y101.853
G1 F1800 X101.897 Y101.188 E9.36929
G1 X102.366 Y100.814 E9.38924
G1 X103.163 Y100.301 E9.42077
G1 X103.692 Y100.031 E9.44052
G1 X104.552 Y99.694 E9.47124
G1 X105.122 Y99.533 E9.49094
G1 X106.068 Y99.365 E9.5229
G1 X106.663 Y99.32 E9.54275
G1 X107.601 Y99.342 E9.57395
G1 X108.272 Y99.434 E9.59648
G1 X109.422 Y99.727 E9.63595
G1 X110.052 Y99.965 E9.65835
G1 X110.899 Y100.4 E9.69002
G1 X111.402 Y100.726 E9.70996
G1 X112.137 Y101.314 E9.74126
G1 X112.611 Y101.789 E9.76358
G1 X113.351 Y102.719 E9.80311
G1 X113.707 Y103.288 E9.82543
G1 X114.111 Y104.129 E9.85647
G1 X114.332 Y104.759 E9.87867
G1 X114.597 Y105.918 E9.91822
G1 X114.666 Y106.403 E9.93451
G1 X114.668 Y106.738 E9.94565
G1 X114.597 Y108.147 E9.99257
G1 X114.533 Y108.632 E10.00884
G1 X114.421 Y109.02 E10.02228
G1 X113.939 Y110.348 E10.06927
G1 X113.735 Y110.792 E10.08552
G1 X113.597 Y111.014 E10.09421
G1 X113.063 Y111.797 E10.12573
G1 X112.678 Y112.256 E10.14566
G1 X111.993 Y112.923 E10.17746
G1 X111.523 Y113.297 E10.19744
G1 X110.727 Y113.809 E10.22892
G1 X110.198 Y114.08 E10.24868
G1 X109.327 Y114.421 E10.2798
G1 X108.756 Y114.581 E10.29952
G1 X107.824 Y114.746 E10.331
G1 X107.297 Y114.792 E10.34859
G1 X106.577 Y114.791 E10.37254
G1 X106.134 Y114.758 E10.38732
G1 X105.437 Y114.653 E10.41076
G1 X104.927 Y114.529 E10.42822
G1 X104.042 Y114.231 E10.45928
G1 X103.439 Y113.951 E10.48139
G1 X102.427 Y113.335 E10.52079
G1 X101.894 Y112.921 E10.54324
G1 X101.211 Y112.256 E10.57495
G1 X100.826 Y111.797 E10.59487
G1 X100.292 Y111.014 E10.62639
G1 X100.004 Y110.485 E10.64643
G1 X99.643 Y109.625 E10.67745
G1 X99.469 Y109.063 E10.69702
G1 X99.277 Y108.12 E10.72902
G1 X99.217 Y107.521 E10.74905
G1 X99.217 Y106.586 E10.78015
G1 X99.277 Y105.987 E10.80017
G1 X99.468 Y105.049 E10.83201
G1 X99.643 Y104.484 E10.85168
G1 X100.007 Y103.619 E10.88289
G1 X100.297 Y103.088 E10.90302
G1 X100.832 Y102.307 E10.9345
G1 X101.214 Y101.853 E10.95424
G0 F7200 X101.493 Y102.139
G1 F1800 X102.176 Y101.474 E10.98594
G1 X102.583 Y101.151 E11.00322
G1 X103.38 Y100.638 E11.03475
G1 X103.838 Y100.403 E11.05187
G1 X104.698 Y100.066 E11.08259
G1 X105.192 Y99.927 E11.09966
G1 X106.138 Y99.759 E11.13162
G1 X106.654 Y99.72 E11.14883
G1 X107.592 Y99.742 E11.18003
G1 X108.173 Y99.821 E11.19954
G1 X109.323 Y100.114 E11.23901
G1 X109.869 Y100.321 E11.25843
G1 X110.716 Y100.756 E11.2901
G1 X111.152 Y101.039 E11.30739
G1 X111.887 Y101.627 E11.33869
G1 X112.298 Y102.038 E11.35802
G1 X113.038 Y102.968 E11.39755
G1 X113.347 Y103.461 E11.41691
G1 X113.751 Y104.302 E11.44794
G1 X113.942 Y104.848 E11.46718
G1 X114.207 Y106.007 E11.50672
G1 X114.269 Y106.459 E11.52189
G1 X114.269 Y106.718 E11.53051
G1 X114.198 Y108.127 E11.57743
G1 X114.135 Y108.578 E11.59258
G1 X114.045 Y108.883 E11.60315
G1 X113.563 Y110.211 E11.65014
G1 X113.267 Y110.789 E11.67174
G1 X112.733 Y111.572 E11.70326
G1 X112.399 Y111.97 E11.72055
G1 X111.714 Y112.637 E11.75235
G1 X111.307 Y112.961 E11.76965
G1 X110.511 Y113.473 E11.80113
G1 X110.052 Y113.707 E11.81826
G1 X109.181 Y114.048 E11.84937
G1 X108.686 Y114.187 E11.86647
G1 X107.754 Y114.352 E11.89795
G1 X107.297 Y114.392 E11.91321
G1 X106.577 Y114.391 E11.93716
G1 X106.194 Y114.362 E11.94993
G1 X105.497 Y114.257 E11.97338
G1 X105.054 Y114.15 E11.98854
G1 X104.169 Y113.852 E12.0196
G1 X103.647 Y113.609 E12.03875
G1 X102.635 Y112.993 E12.07815
G1 X102.173 Y112.635 E12.09759
G1 X101.49 Y111.97 E12.1293
G1 X101.156 Y111.572 E12.14658
G1 X100.622 Y110.789 E12.1781
G1 X100.373 Y110.33 E12.19547
G1 X100.012 Y109.47 E12.22649
G1 X99.861 Y108.983 E12.24345
G1 X99.669 Y108.04 E12.27546
G1 X99.617 Y107.521 E12.2928
G1 X99.617 Y106.586 E12.3239
G1 X99.669 Y106.067 E12.34125
G1 X99.86 Y105.129 E12.37309
G1 X100.012 Y104.64 E12.39012
G1 X100.376 Y103.775 E12.42133
G1 X100.627 Y103.314 E12.43879
G1 X101.162 Y102.533 E12.47028
G1 X101.493 Y102.139 E12.48739
G0 F7200 X101.772 Y102.426
G1 F1800 X102.455 Y101.761 E12.5191
G1 X102.799 Y101.487 E12.53373
G1 X103.596 Y100.974 E12.56525
G1 X103.984 Y100.776 E12.57974
G1 X104.844 Y100.439 E12.61046
