;FLAVOR:Marlin
;TIME:467
;Filament used: 0.153485m
;Layer height: 0.2
;Generated with Cura_SteamEngine 3.1.0
M190 S60
M104 S215
M109 S215
M82 ; absolute extrusion mode
G28 ;Home
G1 Z15.0 F6000 ;Move the platform down 15mm
;Prime the extruder
G92 E0
G1 F200 E3
G92 E0
;LAYER_COUNT:31
;LAYER:0
M107
G0 F7200 X96.097 Y103.193 Z0.2
;TYPE:SKIRT
G1 F1800 X96.616 Y102.752 E0.02265
G1 X97.1 Y102.434 E0.04191
G1 X97.516 Y102.209 E0.05764
G1 X97.875 Y102.08 E0.07033
G1 X99.207 Y101.703 E0.11637
G1 X99.396 Y101.656 E0.12285
G1 X110.684 Y99.293 E0.50643
G1 X111.246 Y99.234 E0.52523
G1 X112.171 Y99.23 E0.55599
G1 X112.68 Y99.274 E0.57298
G1 X113.567 Y99.434 E0.60296
G1 X114.02 Y99.556 E0.61857
G1 X114.785 Y99.832 E0.64562
G1 X115.352 Y100.113 E0.66666
G1 X116.537 Y100.877 E0.71356
G1 X116.996 Y101.246 E0.73315
G1 X117.478 Y101.726 E0.75577
G1 X117.778 Y102.079 E0.77118
G1 X118.324 Y102.841 E0.80236
G1 X118.582 Y103.28 E0.81929
G1 X118.986 Y104.139 E0.85087
G1 X119.175 Y104.678 E0.86986
G1 X119.408 Y105.65 E0.90311
G1 X119.483 Y106.206 E0.92177
G1 X119.521 Y107.302 E0.95824
G1 X119.483 Y107.869 E0.97714
G1 X119.337 Y108.726 E1.00606
G1 X119.239 Y109.123 E1.01966
G1 X119.042 Y109.728 E1.04082
G1 X118.88 Y110.122 E1.05499
G1 X118.5 Y110.875 E1.08304
G1 X118.164 Y111.391 E1.10352
G1 X117.314 Y112.426 E1.14807
G1 X116.833 Y112.886 E1.17021
G1 X116.005 Y113.509 E1.20467
G1 X115.54 Y113.793 E1.22279
G1 X114.679 Y114.209 E1.2546
G1 X114.256 Y114.373 E1.26969
G1 X113.668 Y114.547 E1.29008
G1 X113.077 Y114.655 E1.31006
G1 X111.554 Y114.766 E1.36085
G1 X111.081 Y114.76 E1.37659
G1 X110.768 Y114.712 E1.38712
G1 X98.25 Y112.053 E1.81276
G1 X97.798 Y111.916 E1.82847
G1 X97.294 Y111.654 E1.84736
G1 X96.459 Y111.105 E1.8806
G1 X96.087 Y110.812 E1.89635
G1 X95.809 Y110.512 E1.90995
G1 X95.452 Y110.065 E1.92898
G1 X95.189 Y109.672 E1.9447
G1 X95.079 Y109.449 E1.95298
G1 X94.795 Y108.806 E1.97635
G1 X94.598 Y108.159 E1.99885
G1 X94.509 Y107.652 E2.01597
G1 X94.467 Y107.181 E2.0317
G1 X94.484 Y106.856 E2.04252
G1 X94.583 Y105.972 E2.07211
G1 X94.676 Y105.509 E2.08781
G1 X94.853 Y105.05 E2.10418
G1 X95.208 Y104.327 E2.13097
G1 X95.451 Y103.922 E2.14668
G1 X95.664 Y103.662 E2.15785
G1 X96.097 Y103.193 E2.17908
G0 F7200 X96.391 Y103.464
G1 F1800 X96.836 Y103.086 E2.1985
G1 X97.32 Y102.768 E2.21777
G1 X97.706 Y102.562 E2.23232
G1 X97.984 Y102.465 E2.24211
G1 X99.316 Y102.088 E2.28815
G1 X99.478 Y102.048 E2.2937
G1 X110.766 Y99.685 E2.67728
G1 X111.248 Y99.634 E2.6934
G1 X112.173 Y99.63 E2.72417
G1 X112.609 Y99.668 E2.73873
G1 X113.496 Y99.828 E2.7687
G1 X113.884 Y99.932 E2.78206
G1 X114.649 Y100.208 E2.80911
G1 X115.135 Y100.449 E2.82716
G1 X116.32 Y101.213 E2.87405
G1 X116.714 Y101.529 E2.89085
G1 X117.196 Y102.009 E2.91347
G1 X117.453 Y102.312 E2.92669
G1 X117.999 Y103.074 E2.95787
G1 X118.22 Y103.451 E2.9724
G1 X118.624 Y104.31 E3.00398
G1 X118.786 Y104.772 E3.02026
G1 X119.019 Y105.744 E3.0535
G1 X119.084 Y106.22 E3.06948
G1 X119.122 Y107.316 E3.10596
G1 X119.089 Y107.802 E3.12216
G1 X118.943 Y108.659 E3.15107
G1 X118.859 Y108.999 E3.16272
G1 X118.662 Y109.604 E3.18388
G1 X118.523 Y109.942 E3.19604
G1 X118.143 Y110.695 E3.22409
G1 X117.855 Y111.137 E3.24164
G1 X117.005 Y112.172 E3.28618
G1 X116.593 Y112.567 E3.30517
G1 X115.765 Y113.19 E3.33963
G1 X115.366 Y113.433 E3.35517
G1 X114.505 Y113.849 E3.38698
G1 X114.142 Y113.989 E3.39992
G1 X113.554 Y114.163 E3.42031
G1 X113.047 Y114.256 E3.43745
G1 X111.524 Y114.367 E3.48824
G1 X111.087 Y114.359 E3.50278
G1 X110.851 Y114.321 E3.51073
G1 X98.333 Y111.662 E3.93637
G1 X97.915 Y111.532 E3.95093
G1 X97.513 Y111.319 E3.96606
G1 X96.678 Y110.77 E3.9993
G1 X96.336 Y110.498 E4.01383
G1 X96.122 Y110.263 E4.02441
G1 X95.765 Y109.816 E4.04343
G1 X95.445 Y109.288 E4.06397
G1 X95.161 Y108.645 E4.08735
G1 X94.992 Y108.09 E4.10664
G1 X94.903 Y107.583 E4.12376
G1 X94.867 Y107.147 E4.13831
G1 X94.882 Y106.901 E4.14651
G1 X94.981 Y106.017 E4.1761
G1 X95.069 Y105.588 E4.19066
G1 X95.212 Y105.226 E4.20361
G1 X95.567 Y104.503 E4.2304
G1 X95.795 Y104.13 E4.24494
G1 X95.958 Y103.933 E4.25344
G1 X96.391 Y103.464 E4.27467
G0 F7200 X96.685 Y103.735
G1 F1800 X97.056 Y103.42 E4.29086
G1 X97.54 Y103.102 E4.31012
G1 X97.894 Y102.918 E4.32339
G1 X98.093 Y102.85 E4.33039
G1 X99.425 Y102.473 E4.37643
G1 X99.56 Y102.439 E4.38106
G1 X110.848 Y100.076 E4.76464
G1 X111.249 Y100.034 E4.77805
G1 X112.174 Y100.03 E4.80881
G1 X112.538 Y100.062 E4.82097
G1 X113.425 Y100.222 E4.85094
G1 X113.749 Y100.309 E4.8621
G1 X114.514 Y100.585 E4.88915
G1 X114.919 Y100.785 E4.90418
G1 X116.104 Y101.549 E4.95107
G1 X116.431 Y101.813 E4.96505
G1 X116.913 Y102.293 E4.98767
G1 X117.128 Y102.545 E4.99869
G1 X117.674 Y103.307 E5.02987
G1 X117.858 Y103.621 E5.04197
G1 X118.262 Y104.48 E5.07355
G1 X118.397 Y104.865 E5.08712
G1 X118.63 Y105.837 E5.12036
G1 X118.684 Y106.234 E5.13369
G1 X118.722 Y107.33 E5.17016
G1 X118.695 Y107.735 E5.18366
G1 X118.549 Y108.592 E5.21258
G1 X118.479 Y108.875 E5.22227
G1 X118.282 Y109.48 E5.24344
G1 X118.166 Y109.762 E5.25358
G1 X117.786 Y110.515 E5.28163
G1 X117.546 Y110.883 E5.29624
G1 X116.696 Y111.918 E5.34079
G1 X116.352 Y112.247 E5.35662
G1 X115.524 Y112.87 E5.39108
G1 X115.192 Y113.073 E5.40403
G1 X114.331 Y113.489 E5.43583
G1 X114.029 Y113.606 E5.4466
G1 X113.441 Y113.78 E5.467
G1 X113.018 Y113.857 E5.4813
G1 X111.495 Y113.968 E5.53209
G1 X110.934 Y113.929 E5.55079
G1 X98.416 Y111.27 E5.97643
G1 X98.036 Y111.149 E5.9897
G1 X97.733 Y110.985 E6.00116
G1 X96.898 Y110.436 E6.03439
G1 X96.588 Y110.184 E6.04768
G1 X96.434 Y110.013 E6.05533
G1 X96.077 Y109.566 E6.07436
G1 X95.811 Y109.126 E6.09146
G1 X95.527 Y108.483 E6.11484
G1 X95.386 Y108.021 E6.13091
G1 X95.297 Y107.514 E6.14803
G1 X95.279 Y106.945 E6.16696
G1 X95.378 Y106.061 E6.19655
G1 X95.462 Y105.671 E6.20982
G1 X95.571 Y105.403 E6.21944
G1 X95.926 Y104.68 E6.24623
G1 X96.252 Y104.204 E6.26542
G1 X96.685 Y103.735 E6.28665
G0 F7200 X96.978 Y104.007
G1 F1800 X97.275 Y103.755 E6.2996
G1 X97.759 Y103.437 E6.31887
G1 X98.202 Y103.234 E6.33507
G1 X99.534 Y102.857 E6.38112
G1 X99.642 Y102.831 E6.38481
G1 X110.93 Y100.468 E6.76839
G1 X111.251 Y100.434 E6.77913
G1 X112.176 Y100.43 E6.80989
G1 X112.467 Y100.455 E6.81961
G1 X113.354 Y100.615 E6.84958
G1 X113.613 Y100.685 E6.85851
G1 X114.378 Y100.961 E6.88556
G1 X114.702 Y101.121 E6.89758
G1 X115.887 Y101.885 E6.94447
G1 X116.149 Y102.096 E6.95566
G1 X116.631 Y102.576 E6.97828
G1 X116.803 Y102.778 E6.98711
G1 X117.349 Y103.54 E7.01829
G1 X117.496 Y103.791 E7.02796
G1 X117.9 Y104.65 E7.05953
G1 X118.008 Y104.958 E7.07039
G1 X118.241 Y105.93 E7.10363
G1 X118.284 Y106.248 E7.11431
G1 X118.322 Y107.344 E7.15078
G1 X118.3 Y107.668 E7.16158
G1 X118.154 Y108.525 E7.1905
G1 X118.098 Y108.751 E7.19824
G1 X117.901 Y109.356 E7.2194
G1 X117.808 Y109.582 E7.22753
G1 X117.428 Y110.335 E7.25559
G1 X117.236 Y110.629 E7.26726
G1 X116.386 Y111.664 E7.31181
G1 X116.112 Y111.928 E7.32447
G1 X115.284 Y112.551 E7.35893
G1 X115.018 Y112.713 E7.36929
G1 X114.157 Y113.129 E7.40109
G1 X113.915 Y113.222 E7.40972
G1 X113.327 Y113.396 E7.43011
G1 X112.989 Y113.458 E7.44154
G1 X111.466 Y113.569 E7.49233
G1 X111.018 Y113.538 E7.50727
G1 X98.5 Y110.879 E7.93291
G1 X98.161 Y110.766 E7.94479
G1 X97.953 Y110.651 E7.9527
G1 X97.118 Y110.102 E7.98593
G1 X96.747 Y109.763 E8.00265
G1 X96.39 Y109.316 E8.02167
G1 X96.176 Y108.964 E8.03538
G1 X95.892 Y108.321 E8.05876
G1 X95.78 Y107.952 E8.07158
G1 X95.691 Y107.445 E8.0887
G1 X95.677 Y106.99 E8.10384
G1 X95.776 Y106.106 E8.13343
G1 X95.855 Y105.758 E8.1453
G1 X95.93 Y105.579 E8.15175
G1 X96.285 Y104.856 E8.17854
G1 X96.545 Y104.476 E8.19386
G1 X96.978 Y104.007 E8.21509
G0 F7200 X97.272 Y104.278
G1 F1800 X97.495 Y104.089 E8.22481
G1 X97.979 Y103.771 E8.24407
G1 X98.311 Y103.619 E8.25622
G1 X99.643 Y103.242 E8.30226
G1 X99.724 Y103.222 E8.30503
G1 X111.012 Y100.859 E8.68861
G1 X111.253 Y100.834 E8.69667
G1 X112.178 Y100.83 E8.72744
G1 X112.396 Y100.849 E8.73471
G1 X113.283 Y101.009 E8.76469
G1 X113.477 Y101.061 E8.77137
G1 X114.242 Y101.337 E8.79842
G1 X114.485 Y101.457 E8.80744
G1 X115.67 Y102.221 E8.85433
G1 X115.867 Y102.38 E8.86275
G1 X116.349 Y102.86 E8.88538
G1 X116.477 Y103.011 E8.89196
G1 X117.023 Y103.773 E8.92314
G1 X117.134 Y103.961 E8.9304
G1 X117.538 Y104.82 E8.96197
G1 X117.619 Y105.051 E8.97011
G1 X117.852 Y106.023 E9.00336
G1 X117.884 Y106.261 E9.01135
G1 X117.922 Y107.357 E9.04782
G1 X117.906 Y107.601 E9.05595
G1 X117.76 Y108.458 E9.08487
G1 X117.718 Y108.628 E9.09069
G1 X117.521 Y109.233 E9.11185
G1 X117.451 Y109.402 E9.11794
G1 X117.071 Y110.155 E9.14599
G1 X116.927 Y110.376 E9.15477
G1 X116.077 Y111.411 E9.19931
G1 X115.871 Y111.608 E9.20879
G1 X115.043 Y112.231 E9.24326
G1 X114.844 Y112.352 E9.251
G1 X113.983 Y112.768 E9.28281
G1 X113.802 Y112.839 E9.28927
G1 X113.214 Y113.013 E9.30967
G1 X112.96 Y113.059 E9.31825
G1 X111.437 Y113.17 E9.36904
G1 X111.101 Y113.147 E9.38024
G1 X98.583 Y110.488 E9.80588
G1 X98.173 Y110.317 E9.82066
G1 X97.338 Y109.768 E9.8539
G1 X97.059 Y109.514 E9.86645
G1 X96.702 Y109.067 E9.88547
G1 X96.542 Y108.803 E9.89574
G1 X96.258 Y108.16 E9.91912
G1 X96.174 Y107.882 E9.92878
G1 X96.085 Y107.375 E9.9459
G1 X96.074 Y107.034 E9.95725
G1 X96.173 Y106.15 E9.98683
G1 X96.289 Y105.755 E10.00053
G1 X96.644 Y105.032 E10.02731
G1 X96.839 Y104.747 E10.0388
G1 X97.272 Y104.278 E10.06003
G1 F1500 E9.36003
G0 F7200 X111.827 Y106.616
;TYPE:WALL-INNER
G1 F1500 E10.06003
G1 F600 X111.931 Y106.652 E10.06369
G1 X111.976 Y106.678 E10.06542
G1 X112.03 Y106.722 E10.06774
G1 X112.07 Y106.77 E10.06981
G1 X112.121 Y106.875 E10.0737
G1 X112.139 Y106.942 E10.076
G1 X112.138 Y107.073 E10.08036
G1 X112.095 Y107.19 E10.08451
G1 X112.075 Y107.222 E10.08576
G1 X112.005 Y107.298 E10.0892
G1 X111.934 Y107.347 E10.09207
G1 X111.879 Y107.372 E10.09408
G1 X111.821 Y107.388 E10.09608
G1 X111.749 Y107.393 E10.09848
G1 X111.623 Y107.38 E10.10269
G1 X109.837 Y107 E10.16343
G1 X111.643 Y106.616 E10.22484
G1 X111.713 Y106.608 E10.22718
G1 X111.827 Y106.616 E10.23098
G0 F7200 X111.908 Y106.221
G1 F600 X112.102 Y106.288 E10.23781
G1 X112.198 Y106.344 E10.2415
G1 X112.312 Y106.436 E10.24638
G1 X112.402 Y106.544 E10.25105
G1 X112.459 Y106.644 E10.25488
G1 X112.501 Y106.748 E10.25861
G1 X112.535 Y106.872 E10.26289
G1 X112.544 Y106.981 E10.26652
G1 X112.535 Y107.128 E10.27142
G1 X112.514 Y107.222 E10.27463
G1 X112.453 Y107.37 E10.27995
G1 X112.39 Y107.472 E10.28394
G1 X112.269 Y107.601 E10.28982
G1 X112.133 Y107.697 E10.29536
G1 X112.02 Y107.748 E10.29948
G1 X111.885 Y107.784 E10.30413
G1 X111.743 Y107.794 E10.30886
G1 X111.564 Y107.776 E10.31485
G1 X107.915 Y106.999 E10.43893
G1 X111.579 Y106.221 E10.56352
G1 X111.706 Y106.206 E10.56777
G1 X111.908 Y106.221 E10.57451
G0 F7200 X111.975 Y105.825
G1 F600 X112.092 Y105.856 E10.57853
G1 X112.276 Y105.926 E10.58508
G1 X112.427 Y106.014 E10.59089
G1 X112.581 Y106.139 E10.59749
G1 X112.649 Y106.208 E10.60071
G1 X112.738 Y106.325 E10.6056
G1 X112.821 Y106.472 E10.61122
G1 X112.881 Y106.62 E10.61653
G1 X112.931 Y106.802 E10.6228
G1 X112.945 Y106.974 E10.62854
G1 X112.932 Y107.185 E10.63558
G1 X112.898 Y107.341 E10.64089
G1 X112.809 Y107.555 E10.64859
G1 X112.708 Y107.718 E10.65497
G1 X112.544 Y107.893 E10.66295
G1 X112.462 Y107.96 E10.66647
G1 X112.326 Y108.049 E10.67188
G1 X112.153 Y108.127 E10.67819
G1 X111.954 Y108.18 E10.68504
G1 X111.75 Y108.194 E10.69184
G1 X111.657 Y108.192 E10.69493
G1 X111.493 Y108.17 E10.70044
G1 X105.994 Y106.999 E10.88744
G1 X111.515 Y105.826 E11.07516
G1 X111.698 Y105.804 E11.08129
G1 X111.975 Y105.825 E11.09053
G0 F7200 X111.795 Y105.405
G1 F600 X112.044 Y105.43 E11.09886
G1 X112.22 Y105.477 E11.10492
G1 X112.436 Y105.559 E11.1126
G1 X112.529 Y105.606 E11.11607
G1 X112.654 Y105.684 E11.12097
G1 X112.755 Y105.758 E11.12513
G1 X112.859 Y105.851 E11.12977
G1 X112.95 Y105.944 E11.1341
G1 X113.068 Y106.097 E11.14053
G1 X113.142 Y106.218 E11.14524
G1 X113.186 Y106.306 E11.14851
G1 X113.258 Y106.484 E11.1549
G1 X113.314 Y106.671 E11.16139
G1 X113.328 Y106.748 E11.164
G1 X113.346 Y106.965 E11.17124
G1 X113.329 Y107.244 E11.18054
G1 X113.284 Y107.449 E11.18752
G1 X113.236 Y107.582 E11.19222
G1 X113.164 Y107.741 E11.19802
G1 X113.114 Y107.831 E11.20145
G1 X113.028 Y107.959 E11.20658
G1 X112.973 Y108.027 E11.20949
G1 X112.809 Y108.194 E11.21727
G1 X112.698 Y108.284 E11.22202
G1 X112.525 Y108.397 E11.2289
G1 X112.423 Y108.448 E11.23269
G1 X112.283 Y108.505 E11.23772
G1 X112.075 Y108.565 E11.24492
G1 X111.999 Y108.578 E11.24748
G1 X111.756 Y108.595 E11.25558
G1 X111.623 Y108.591 E11.26001
G1 X111.434 Y108.566 E11.26635
G1 X104.073 Y106.998 E11.51667
G1 X111.45 Y105.431 E11.76751
G1 X111.678 Y105.404 E11.77514
G1 X111.795 Y105.405 E11.77903
G0 F7200 X111.817 Y105.005
G1 F600 X112.045 Y105.024 E11.78664
G1 X112.136 Y105.04 E11.78972
G1 X112.343 Y105.095 E11.79684
G1 X112.592 Y105.19 E11.8057
G1 X112.725 Y105.257 E11.81066
G1 X112.882 Y105.355 E11.81681
G1 X113.008 Y105.447 E11.822
G1 X113.131 Y105.557 E11.82749
G1 X113.254 Y105.684 E11.83337
G1 X113.401 Y105.874 E11.84136
G1 X113.489 Y106.017 E11.84695
G1 X113.553 Y106.146 E11.85174
G1 X113.635 Y106.348 E11.85899
G1 X113.704 Y106.578 E11.86697
G1 X113.726 Y106.707 E11.87133
G1 X113.746 Y106.943 E11.8792
G1 X113.746 Y107.06 E11.88309
G1 X113.726 Y107.304 E11.89124
G1 X113.67 Y107.557 E11.89986
G1 X113.607 Y107.731 E11.90601
G1 X113.519 Y107.925 E11.9131
G1 X113.457 Y108.038 E11.91738
G1 X113.352 Y108.194 E11.92364
G1 X113.268 Y108.298 E11.92808
G1 X113.078 Y108.491 E11.93709
G1 X112.932 Y108.608 E11.94331
G1 X112.726 Y108.744 E11.95152
G1 X112.583 Y108.815 E11.95683
G1 X112.418 Y108.882 E11.96276
G1 X112.158 Y108.957 E11.97176
G1 X112.049 Y108.975 E11.97543
G1 X111.763 Y108.995 E11.98497
G1 X111.587 Y108.99 E11.99082
G1 X111.376 Y108.962 E11.9979
G1 X103.496 Y107.284 E12.26587
G1 X103.496 Y106.712 E12.28489
G1 X111.386 Y105.036 E12.55317
G1 X111.658 Y105.004 E12.56228
G1 X111.817 Y105.005 E12.56757
G1 F1500 E11.86757
G0 F7200 X103.096 Y107.364
G1 F1500 E12.56757
G1 F600 X103.096 Y106.634 E12.59185
G1 X103.043 Y106.4 E12.59983
G1 X111.322 Y104.641 E12.88134
G1 X111.637 Y104.604 E12.89189
G1 X111.839 Y104.605 E12.8986
G1 X112.09 Y104.626 E12.90698
G1 X112.229 Y104.65 E12.91167
G1 X112.462 Y104.712 E12.91969
G1 X112.756 Y104.824 E12.93016
G1 X112.92 Y104.907 E12.93627
G1 X113.103 Y105.021 E12.94344
G1 X113.263 Y105.139 E12.95005
G1 X113.409 Y105.269 E12.95656
G1 X113.554 Y105.419 E12.96349
G1 X113.734 Y105.651 E12.97326
G1 X113.838 Y105.82 E12.97986
G1 X113.918 Y105.98 E12.98581
G1 X114.011 Y106.21 E12.99406
G1 X114.094 Y106.488 E13.00371
G1 X114.124 Y106.663 E13.00962
G1 X114.146 Y106.921 E13.01823
G1 X114.146 Y107.081 E13.02355
G1 X114.124 Y107.346 E13.0324
G1 X114.098 Y107.498 E13.03752
G1 X114.051 Y107.68 E13.04378
G1 X113.978 Y107.881 E13.05089
G1 X113.88 Y108.099 E13.05884
G1 X113.794 Y108.255 E13.06476
G1 X113.68 Y108.424 E13.07154
G1 X113.563 Y108.569 E13.07774
G1 X113.345 Y108.79 E13.08807
G1 X113.172 Y108.929 E13.09545
G1 X112.927 Y109.09 E13.1052
G1 X112.744 Y109.182 E13.11201
G1 X112.546 Y109.262 E13.11911
G1 X112.253 Y109.346 E13.12925
G1 X112.093 Y109.373 E13.13465
G1 X111.769 Y109.396 E13.14545
G1 X111.551 Y109.389 E13.15271
G1 X111.318 Y109.358 E13.16052
G1 X103.044 Y107.596 E13.44189
G1 X103.096 Y107.364 E13.4498
G0 F7200 X102.696 Y107.32
G1 F600 X102.696 Y106.678 E13.47115
G1 X102.565 Y106.093 E13.49109
G1 X111.257 Y104.246 E13.78664
G1 X111.617 Y104.204 E13.79869
G1 X111.861 Y104.205 E13.80681
G1 X112.137 Y104.228 E13.81602
G1 X112.32 Y104.26 E13.8222
