;FLAVOR:Marlin
;TIME:5805
;Filament used: 5.40635m
;Layer height: 0.2
;Generated with Cura_SteamEngine 3.5.1
M82 ;absolute extrusion mode
G21 ; set units to millimeters
G90 ; use absolute positioning
M82 ; absolute extrusion mode
M104 S215 ; set extruder temp
M140 S60 ; set bed temp
M190 S60 ; wait for bed temp
M109 S215 ; wait for extruder temp
G28 W ; home all without mesh bed level
G80 ; mesh bed leveling
G92 E0.0 ; reset extruder distance position
G1 Y-3.0 F1000.0 ; go outside print area
G1 X60.0 E9.0 F1000.0 ; intro line
G1 X100.0 E21.5 F1000.0 ; intro line
G92 E0.0 ; reset extruder distance position
G92 E0
G1 F2100 E-0.7
;LAYER_COUNT:304
;LAYER:0
M107
G0 F5400 X106.296 Y96.428 Z0.2
;TYPE:SKIRT
G1 F2100 E0
G1 F1800 X106.525 Y96.199 E0.01077
G1 X106.834 Y95.946 E0.02405
G1 X107.187 Y95.76 E0.03733
G1 X107.571 Y95.647 E0.05064
G1 X107.939 Y95.613 E0.06293
G1 X115.375 Y95.613 E0.31025
G1 X115.432 Y95.614 E0.31215
G1 X118.209 Y95.693 E0.40455
G1 X124.466 Y95.603 E0.61268
G1 X124.505 Y95.603 E0.61398
G1 X141.681 Y95.691 E1.18526
G1 X152.046 Y95.613 E1.53001
G1 X152.444 Y95.65 E1.54331
G1 X152.826 Y95.765 E1.55657
G1 X153.178 Y95.954 E1.56986
G1 X153.472 Y96.196 E1.58253
G1 X153.702 Y96.425 E1.59332
G1 X153.956 Y96.733 E1.6066
G1 X154.143 Y97.086 E1.61989
G1 X154.256 Y97.47 E1.6332
G1 X154.291 Y97.842 E1.64563
G1 X154.29 Y109.04 E2.01808
G1 X154.25 Y109.438 E2.03138
G1 X154.132 Y109.819 E2.04465
G1 X153.926 Y110.191 E2.05879
G1 X153.767 Y110.417 E2.06798
G1 X153.505 Y110.719 E2.08128
G1 X153.189 Y110.963 E2.09456
G1 X152.734 Y111.173 E2.11122
G1 X149.779 Y112.108 E2.21431
G1 X149.659 Y112.142 E2.21846
G1 X146.828 Y112.846 E2.31549
G1 X146.704 Y112.873 E2.31971
G1 X143.872 Y113.389 E2.41545
G1 X143.761 Y113.406 E2.41919
G1 X138.916 Y114.011 E2.58158
G1 X138.809 Y114.021 E2.58516
G1 X135.359 Y114.264 E2.70019
G1 X135.26 Y114.269 E2.70348
G1 X129.894 Y114.383 E2.882
G1 X129.822 Y114.383 E2.88439
G1 X125.878 Y114.324 E3.01559
G1 X125.794 Y114.321 E3.01838
G1 X122.541 Y114.135 E3.12675
G1 X122.468 Y114.129 E3.12919
G1 X119.174 Y113.82 E3.23923
G1 X119.055 Y113.806 E3.24322
G1 X114.766 Y113.143 E3.38756
G1 X114.661 Y113.123 E3.39112
G1 X112.482 Y112.665 E3.46517
G1 X112.381 Y112.641 E3.46863
G1 X109.365 Y111.843 E3.57239
G1 X109.272 Y111.816 E3.57561
G1 X107.26 Y111.177 E3.64583
G1 X106.893 Y111.019 E3.65912
G1 X106.565 Y110.791 E3.6724
G1 X106.263 Y110.468 E3.68711
G1 X106.112 Y110.266 E3.6955
G1 X105.906 Y109.924 E3.70878
G1 X105.772 Y109.548 E3.72205
G1 X105.714 Y109.07 E3.73807
G1 X105.71 Y97.843 E4.11148
G1 X105.75 Y97.445 E4.12478
G1 X105.868 Y97.064 E4.13805
G1 X106.059 Y96.713 E4.15134
G1 X106.296 Y96.428 E4.16367
G0 F5400 X106.579 Y96.711
G1 F1800 X106.808 Y96.482 E4.17444
G1 X107.087 Y96.259 E4.18632
G1 X107.409 Y96.104 E4.19821
G1 X107.757 Y96.023 E4.21009
G1 X107.939 Y96.013 E4.21615
G1 X115.375 Y96.013 E4.46347
G1 X115.42 Y96.014 E4.46497
G1 X118.203 Y96.093 E4.55757
G1 X124.472 Y96.003 E4.7661
G1 X124.503 Y96.003 E4.76713
G1 X141.682 Y96.091 E5.33852
G1 X152.049 Y96.013 E5.68333
G1 X152.404 Y96.05 E5.6952
G1 X152.742 Y96.165 E5.70708
G1 X153.047 Y96.353 E5.719
G1 X153.19 Y96.479 E5.72534
G1 X153.42 Y96.708 E5.73613
G1 X153.643 Y96.987 E5.74801
G1 X153.799 Y97.308 E5.75988
G1 X153.88 Y97.656 E5.77176
G1 X153.891 Y97.842 E5.77796
G1 X153.89 Y109.04 E6.15041
G1 X153.85 Y109.395 E6.16229
G1 X153.732 Y109.732 E6.17417
G1 X153.599 Y109.961 E6.18297
G1 X153.44 Y110.187 E6.19216
G1 X153.203 Y110.454 E6.20404
G1 X152.912 Y110.662 E6.21594
G1 X152.614 Y110.791 E6.22674
G1 X149.659 Y111.726 E6.32982
G1 X149.562 Y111.754 E6.33318
G1 X146.731 Y112.458 E6.43021
G1 X146.632 Y112.479 E6.43357
G1 X143.8 Y112.995 E6.52932
G1 X143.711 Y113.009 E6.53231
G1 X138.866 Y113.614 E6.69471
G1 X138.78 Y113.622 E6.69758
G1 X135.33 Y113.865 E6.81262
G1 X135.252 Y113.869 E6.81521
G1 X129.886 Y113.983 E6.99373
G1 X129.828 Y113.983 E6.99566
G1 X125.884 Y113.924 E7.12685
G1 X125.817 Y113.921 E7.12908
G1 X122.564 Y113.735 E7.23745
G1 X122.506 Y113.731 E7.23939
G1 X119.212 Y113.422 E7.34942
G1 X119.117 Y113.41 E7.35261
G1 X114.828 Y112.747 E7.49696
G1 X114.743 Y112.732 E7.49983
G1 X112.564 Y112.274 E7.57389
G1 X112.484 Y112.255 E7.57662
G1 X109.468 Y111.457 E7.68038
G1 X109.393 Y111.435 E7.68298
G1 X107.381 Y110.796 E7.7532
G1 X107.054 Y110.65 E7.76511
G1 X106.769 Y110.436 E7.77696
G1 X106.583 Y110.229 E7.78622
G1 X106.432 Y110.027 E7.79461
G1 X106.252 Y109.719 E7.80647
G1 X106.144 Y109.378 E7.81837
G1 X106.114 Y109.07 E7.82866
G1 X106.11 Y97.843 E8.20207
G1 X106.15 Y97.488 E8.21395
G1 X106.267 Y97.15 E8.22585
G1 X106.457 Y96.847 E8.23775
G1 X106.579 Y96.711 E8.24382
G0 F5400 X106.861 Y96.993
G1 F1800 X107.09 Y96.764 E8.25459
G1 X107.335 Y96.576 E8.26487
G1 X107.62 Y96.456 E8.27515
G1 X107.939 Y96.413 E8.28586
G1 X115.409 Y96.413 E8.53431
G1 X118.221 Y96.493 E8.62788
G1 X124.478 Y96.403 E8.83601
G1 X124.501 Y96.403 E8.83677
G1 X141.683 Y96.491 E9.40825
G1 X152.052 Y96.413 E9.75314
G1 X152.359 Y96.451 E9.76343
G1 X152.646 Y96.565 E9.7737
G1 X152.908 Y96.763 E9.78462
G1 X153.138 Y96.992 E9.79542
G1 X153.327 Y97.236 E9.80568
G1 X153.447 Y97.521 E9.81597
G1 X153.491 Y97.842 E9.82674
G1 X153.49 Y109.04 E10.19919
G1 X153.45 Y109.347 E10.20949
G1 X153.271 Y109.73 E10.22355
G1 X153.112 Y109.956 E10.23274
G1 X152.903 Y110.184 E10.24303
G1 X152.643 Y110.351 E10.2533
G1 X152.493 Y110.41 E10.25866
G1 X149.538 Y111.345 E10.36175
G1 X149.466 Y111.366 E10.36425
G1 X146.635 Y112.07 E10.46127
G1 X146.56 Y112.086 E10.46382
G1 X143.728 Y112.602 E10.55957
G1 X143.662 Y112.612 E10.56179
G1 X138.817 Y113.217 E10.72418
G1 X138.752 Y113.223 E10.72635
G1 X135.302 Y113.466 E10.84139
G1 X135.243 Y113.469 E10.84335
G1 X129.877 Y113.583 E11.02187
G1 X129.834 Y113.583 E11.0233
G1 X125.89 Y113.524 E11.15449
G1 X125.839 Y113.522 E11.15619
G1 X122.586 Y113.336 E11.26456
G1 X122.543 Y113.333 E11.26599
G1 X119.249 Y113.024 E11.37603
G1 X119.178 Y113.015 E11.37841
G1 X114.889 Y112.352 E11.52276
G1 X114.825 Y112.34 E11.52492
G1 X112.646 Y111.882 E11.59898
G1 X112.586 Y111.868 E11.60103
G1 X109.57 Y111.07 E11.7048
G1 X109.514 Y111.054 E11.70673
G1 X107.502 Y110.415 E11.77695
G1 X107.222 Y110.284 E11.78723
G1 X106.904 Y109.989 E11.80165
G1 X106.753 Y109.787 E11.81004
G1 X106.601 Y109.518 E11.82032
G1 X106.514 Y109.069 E11.83553
G1 X106.51 Y97.842 E12.20894
G1 X106.55 Y97.536 E12.21921
G1 X106.666 Y97.249 E12.2295
G1 X106.861 Y96.993 E12.24021
G1 F2100 E11.54021
G0 F5400 X107.9 Y97.919
;TYPE:SUPPORT
G1 F2100 E12.24021
G1 F1800 X108.016 Y97.803 E12.24566
G1 X115.249 Y97.803 E12.48623
G1 X115.276 Y97.865 E12.48848
G1 X115.1 Y98.04 E12.49674
G1 X115.1 Y100.767 E12.58744
G1 X114.744 Y100.767 E12.59928
G1 X114.1 Y101.411 E12.62957
G1 X114.1 Y104.059 E12.71764
G1 X114.744 Y104.703 E12.74793
G1 X145.256 Y104.703 E13.76277
G1 X145.9 Y104.059 E13.79306
G1 X145.9 Y101.41 E13.88117
G1 X145.256 Y100.766 E13.91146
G1 X144.9 Y100.766 E13.9233
G1 X144.9 Y98.295 E14.00548
G1 X144.722 Y97.871 E14.02078
G1 X144.751 Y97.803 E14.02324
G1 X151.984 Y97.803 E14.26381
G1 X152.1 Y97.919 E14.26926
G1 X152.1 Y108.998 E14.63775
G1 X152.022 Y109.104 E14.64213
G1 X150.058 Y109.739 E14.71078
G1 X149.536 Y109.896 E14.72891
G1 X148.656 Y110.141 E14.75929
G1 X147.106 Y110.532 E14.81246
G1 X146.695 Y110.63 E14.82652
G1 X145.07 Y110.956 E14.88164
G1 X144.112 Y111.127 E14.91401
G1 X142.742 Y111.344 E14.96014
G1 X141.681 Y111.498 E14.9958
G1 X140.713 Y111.623 E15.02826
G1 X139.714 Y111.73 E15.06168
G1 X137.883 Y111.903 E15.12285
G1 X136.012 Y112.031 E15.18523
G1 X134.71 Y112.092 E15.22858
G1 X131.752 Y112.173 E15.327
G1 X129.558 Y112.185 E15.39997
G1 X127.124 Y112.166 E15.48093
G1 X126.394 Y112.146 E15.50522
G1 X124.323 Y112.05 E15.57418
G1 X122.989 Y111.964 E15.61864
G1 X121.248 Y111.825 E15.67673
G1 X120.129 Y111.713 E15.71413
G1 X120.066 Y111.713 E15.71623
G1 X119.435 Y111.641 E15.73735
G1 X117.966 Y111.457 E15.78659
G1 X116.606 Y111.244 E15.83238
G1 X114.68 Y110.89 E15.89751
G1 X113.807 Y110.715 E15.92712
G1 X112.112 Y110.321 E15.985
G1 X110.58 Y109.911 E16.03775
G1 X108.826 Y109.387 E16.09863
G1 X107.979 Y109.108 E16.12829
G1 X107.9 Y108.999 E16.13277
G1 X107.9 Y97.919 E16.50129
G0 F5400 X108.06 Y98
G1 F1800 X114.94 Y98 E16.73012
G1 F2100 E16.03012
G0 F5400 X114 Y97.963
G1 F2100 E16.73012
G1 F1800 X114 Y101.284 E16.84058
G0 F5400 X113.94 Y102
G1 F1800 X108.06 Y102 E17.03615
G1 F2100 E16.33615
G0 F5400 X108.06 Y100
G1 F2100 E17.03615
G1 F1800 X114.94 Y100 E17.26498
G1 F2100 E16.56498
G0 F5400 X112 Y97.963
G1 F2100 E17.26498
G1 F1800 X112 Y110.125 E17.66949
G0 F5400 X111.531 Y110
G1 F1800 X148.557 Y110 E18.90098
G0 F5400 X148 Y110.142
G1 F1800 X148 Y97.963 E19.30605
G1 F2100 E18.60605
G0 F5400 X146 Y97.963
G1 F2100 E19.30605
G1 F1800 X146 Y101.283 E19.41648
G0 F5400 X146.06 Y102
G1 F1800 X151.939 Y102 E19.61201
G1 F2100 E18.91201
G0 F5400 X151.939 Y100
G1 F2100 E19.61201
G1 F1800 X145.06 Y100 E19.84081
G1 F2100 E19.14081
G0 F5400 X144.949 Y98
G1 F2100 E19.84081
G1 F1800 X151.939 Y98 E20.0733
G1 F2100 E19.3733
G0 F5400 X150 Y97.963
G1 F2100 E20.0733
G1 F1800 X150 Y109.59 E20.46001
G1 F2100 E19.76001
G0 F5400 X151.939 Y108
G1 F2100 E20.46001
G1 F1800 X108.06 Y108 E21.91944
G1 F2100 E21.21944
G0 F5400 X108.06 Y106
G1 F2100 E21.91944
G1 F1800 X151.939 Y106 E23.37886
G1 F2100 E22.67886
G0 F5400 X151.939 Y104
G1 F2100 E23.37886
G1 F1800 X146.06 Y104 E23.57439
G0 F5400 X146 Y104.186
G1 F1800 X146 Y110.607 E23.78796
G1 F2100 E23.08796
G0 F5400 X144 Y110.982
G1 F2100 E23.78796
G1 F1800 X144 Y104.863 E23.99148
G1 F2100 E23.29148
G0 F5400 X142 Y104.863
G1 F2100 E23.99148
G1 F1800 X142 Y111.291 E24.20527
G1 F2100 E23.50527
G0 F5400 X140 Y111.539
G1 F2100 E24.20527
G1 F1800 X140 Y104.863 E24.42732
G1 F2100 E23.72732
G0 F5400 X138 Y104.863
G1 F2100 E24.42732
G1 F1800 X138 Y111.731 E24.65575
G1 F2100 E23.95575
G0 F5400 X136 Y111.872
G1 F2100 E24.65575
G1 F1800 X136 Y104.863 E24.88887
G1 F2100 E24.18887
G0 F5400 X134 Y104.863
G1 F2100 E24.88887
G1 F1800 X134 Y111.952 E25.12465
G1 F2100 E24.42465
G0 F5400 X132.185 Y112
G1 F2100 E25.12465
G1 F1800 X126.947 Y112 E25.29887
G1 F2100 E24.59887
G0 F5400 X126 Y111.967
G1 F2100 E25.29887
G1 F1800 X126 Y104.863 E25.53515
G1 F2100 E24.83515
G0 F5400 X124 Y104.863
G1 F2100 E25.53515
G1 F1800 X124 Y111.868 E25.76813
G1 F2100 E25.06813
G0 F5400 X122 Y111.724
G1 F2100 E25.76813
G1 F1800 X122 Y104.863 E25.99633
G1 F2100 E25.29633
G0 F5400 X120 Y104.863
G1 F2100 E25.99633
G1 F1800 X120 Y111.544 E26.21854
G1 F2100 E25.51854
G0 F5400 X118 Y111.3
G1 F2100 E26.21854
G1 F1800 X118 Y104.863 E26.43264
G1 F2100 E25.73264
G0 F5400 X116 Y104.863
G1 F2100 E26.43264
G1 F1800 X116 Y110.969 E26.63572
G1 F2100 E25.93572
G0 F5400 X114 Y110.59
G1 F2100 E26.63572
G1 F1800 X114 Y104.186 E26.84872
G0 F5400 X113.94 Y104
G1 F1800 X108.06 Y104 E27.04429
G1 F2100 E26.34429
G0 F5400 X110 Y109.57
G1 F2100 E27.04429
G1 F1800 X110 Y97.963 E27.43034
G1 F2100 E26.73034
G0 F5400 X128 Y104.863
G1 F2100 E27.43034
G1 F1800 X128 Y112.012 E27.66812
G1 F2100 E26.96812
G0 F5400 X130 Y112.023
G1 F2100 E27.66812
G1 F1800 X130 Y104.863 E27.90626
G1 F2100 E27.20626
G0 F5400 X132 Y104.863
G1 F2100 E27.90626
G1 F1800 X132 Y112.007 E28.14387
G1 F2100 E27.44387
G0 F5400 X136.068 Y100.766
G1 F2100 E28.14387
G1 F1800 X124.103 Y100.767 E28.54183
G1 X124.199 Y100.376 E28.55522
G1 X124.017 Y99.887 E28.57257
G1 X123.961 Y99.847 E28.57486
G1 X124.163 Y99.153 E28.5989
G1 X123.981 Y98.655 E28.61654
G1 X123.88 Y98.588 E28.62057
G1 X124.054 Y97.803 E28.64731
G1 X135.937 Y97.803 E29.04254
G1 X136.166 Y98.864 E29.07864
G1 X136.1 Y99.206 E29.09023
G1 X136.199 Y99.701 E29.10702
G1 X136.138 Y99.744 E29.1095
G1 X135.949 Y100.229 E29.12681
G1 X136.068 Y100.766 E29.14511
G0 F5400 X135.866 Y100
G1 F1800 X124.229 Y100 E29.53216
G1 F2100 E28.83216
G0 F5400 X126 Y100.607
G1 F2100 E29.53216
G1 F1800 X126 Y97.963 E29.6201
G1 F2100 E28.9201
G0 F5400 X124.174 Y98
G1 F2100 E29.6201
G1 F1800 X135.817 Y98 E30.00734
G1 F2100 E29.30734
G0 F5400 X136 Y99.54
G1 F2100 E30.00734
G1 F1800 X136 Y99.658 E30.01127
G1 F2100 E29.31127
G0 F5400 X134 Y100.607
G1 F2100 E30.01127
G1 F1800 X134 Y97.963 E30.09921
G1 F2100 E29.39921
G0 F5400 X132 Y97.963
G1 F2100 E30.09921
G1 F1800 X132 Y100.607 E30.18715
G1 F2100 E29.48715
G0 F5400 X130 Y100.607
G1 F2100 E30.18715
G1 F1800 X130 Y97.963 E30.27509
G1 F2100 E29.57509
G0 F5400 X128 Y97.963
G1 F2100 E30.27509
G1 F1800 X128 Y100.607 E30.36303
G1 F2100 E29.66303
G0 F5400 X144 Y102.803
;TYPE:WALL-INNER
G1 F2100 E30.36303
G1 F1800 X116 Y102.803 E31.29431
G1 X116 Y102.667 E31.29883
G1 X144 Y102.666 E32.23012
G1 X144 Y102.803 E32.23467
G0 F5400 X144.4 Y103.203
G1 F1800 X115.6 Y103.203 E33.19257
G1 X115.6 Y102.267 E33.2237
G1 X144.4 Y102.266 E34.18159
G1 X144.4 Y103.203 E34.21275
G0 F5400 X144.8 Y103.603
;TYPE:WALL-OUTER
G1 F1800 X115.2 Y103.603 E35.19725
G1 X115.2 Y101.867 E35.25499
G1 X144.8 Y101.866 E36.23949
G1 X144.8 Y103.603 E36.29727
M104 S215
G0 F5400 X144.6 Y103.603
G1 F2100 E35.59727
G0 F5400 X108 Y97.603
;TIME_ELAPSED:49.911075
;LAYER:1
M140 S60
M106 S255
G0 F6300 X108 Y97.603 Z0.4
;TYPE:SUPPORT
G1 F2100 E36.29727
G1 X108 Y109.325 E36.68714
G1 F2100 E35.98714
G0 F6300 X110 Y109.946
G1 F2100 E36.68714
G1 X110 Y97.603 E37.09767
G1 F2100 E36.39767
G0 F6300 X112 Y97.603
G1 F2100 E37.09767
G1 X112 Y110.498 E37.52656
G1 F2100 E36.82656
G0 F6300 X114 Y110.957
G1 F2100 E37.52656
G1 X114 Y97.603 E37.97072
G1 F2100 E37.27072
G0 F6300 X116 Y104.503
G1 F2100 E37.97072
G1 X116 Y111.338 E38.19805
G1 F2100 E37.49805
G0 F6300 X118 Y111.661
G1 F2100 E38.19805
G1 X118 Y104.503 E38.43613
G1 F2100 E37.73613
G0 F6300 X120 Y104.503
G1 F2100 E38.43613
G1 X120 Y111.906 E38.68235
G1 F2100 E37.98235
G0 F6300 X122 Y112.086
G1 F2100 E38.68235
G1 X122 Y104.503 E38.93456
G1 F2100 E38.23456
G0 F6300 X124 Y104.503
G1 F2100 E38.93456
G1 X124 Y112.23 E39.19156
G1 F2100 E38.49156
G0 F6300 X126 Y112.328
G1 F2100 E39.19156
G1 X126 Y104.503 E39.45182
G1 F2100 E38.75182
G0 F6300 X128 Y104.503
G1 F2100 E39.45182
G1 X128 Y112.372 E39.71355
G1 F2100 E39.01355
G0 F6300 X130 Y112.383
G1 F2100 E39.71355
G1 X130 Y104.503 E39.97564
G1 F2100 E39.27564
G0 F6300 X132 Y104.503
G1 F2100 E39.97564
G1 X132 Y112.367 E40.2372
G1 F2100 E39.5372
G0 F6300 X134 Y112.317
G1 F2100 E40.2372
G1 X134 Y104.503 E40.49709
G1 F2100 E39.79709
G0 F6300 X136 Y104.503
G1 F2100 E40.49709
G1 X136 Y112.233 E40.75419
G1 F2100 E40.05419
G0 F6300 X138 Y112.093
G1 F2100 E40.75419
G1 X138 Y104.503 E41.00664
G1 F2100 E40.30664
G0 F6300 X140 Y104.503
G1 F2100 E41.00664
G1 X140 Y111.901 E41.25269
G1 F2100 E40.55269
G0 F6300 X142 Y111.654
G1 F2100 E41.25269
G1 X142 Y104.503 E41.49054
G1 F2100 E40.79054
G0 F6300 X144 Y104.503
G1 F2100 E41.49054
G1 X144 Y111.348 E41.7182
G1 F2100 E41.0182
G0 F6300 X146 Y110.974
G1 F2100 E41.7182
G1 X146 Y97.603 E42.16292
G1 F2100 E41.46292
G0 F6300 X148 Y97.603
G1 F2100 E42.16292
G1 X148 Y110.516 E42.59241
G1 F2100 E41.89241
G0 F6300 X150 Y109.966
G1 F2100 E42.59241
G1 X150 Y97.603 E43.00361
G1 F2100 E42.30361
G0 F6300 X152 Y97.603
G1 F2100 E43.00361
G1 X152 Y109.321 E43.39335
G1 F2100 E42.69335
G0 F6300 X136 Y100.809
G1 F2100 E43.39335
G1 X136 Y97.603 E43.49998
G1 F2100 E42.79998
G0 F6300 X134 Y97.603
G1 F2100 E43.49998
G1 X134 Y100.809 E43.60661
G1 F2100 E42.90661
G0 F6300 X132 Y100.809
G1 F2100 E43.60661
G1 X132 Y97.603 E43.71325
G1 F2100 E43.01325
G0 F6300 X130 Y97.603
G1 F2100 E43.71325
G1 X130 Y100.809 E43.81988
G1 F2100 E43.11988
G0 F6300 X128 Y100.809
G1 F2100 E43.81988
