; Postprocessed by [ArcWelder](https://github.com/FormerLurker/ArcWelderLib)
; Copyright(C) 2021 - Brad Hochgesang
; Version: 1.2.0, Branch: master, BuildDate: 2021-11-21T20:04:00Z
; resolution=0.05mm
; path_tolerance=5.0%
; max_radius=9999.00mm
; default_xyz_precision=3
; default_e_precision=5
; extrusion_rate_variance=5.0%

; generated by AnycubicSlicer 1.4.4 on 2025-02-22 at 17:24:50 UTC




; 

; external perimeters extrusion width = 0.42mm
; perimeters extrusion width = 0.45mm
; infill extrusion width = 0.45mm
; solid infill extrusion width = 0.50mm
; top infill extrusion width = 0.42mm
; first layer extrusion width = 0.56mm

M201 X2500 Y2500 Z800 E2500 ; sets maximum accelerations, mm/sec^2
M203 X250 Y250 Z8 E80 ; sets maximum feedrates, mm / sec
M204 S2500 T2500 ; sets acceleration (S) and retract acceleration (R), mm/sec^2
M205 X10.00 Y10.00 Z2.00 E10.00 ; sets the jerk limits, mm/sec
M205 S0 T0 ; sets the minimum extruding and travel feed rate, mm/sec
;TYPE:Custom
G90 ; use absolute coordinates
M83 ; extruder relative mode
M104 S215 ; set extruder temp
M140 S70 ; set bed temp
M190 S70 ; wait for bed temp
M109 S215 ; wait for extruder temp
G28                                        ; move X/Y/Z to min endstops
G1 Z0.28                                   ; lift nozzle a bit 
G92 E0 
G1 Y3 F1800                                    ; zero the extruded length 
G1 X60  E25 F500                       ; Extrude 25mm of filament in a 5cm line. 
G92 E0                                     ; zero the extruded length again 
G1 E-2 F500                                ; Retract a little 
G1 X70 F4000                              ; Quickly wipe away from the filament line
M117
G21 ; set units to millimeters
G90 ; use absolute coordinates
M82 ; use absolute distances for extrusion
G92 E0
M107
;LAYER_CHANGE
;Z:0.28
;HEIGHT:0.28
; BEFORE_LAYER_CHANGE 0 @ 0.28mm
G1 E-2 F4800
G92 E0
G1 Z.28 F7200
; AFTER_LAYER_CHANGE 0 @ 0.28mm
G1 X104.78 Y110.84
G1 E2 F4800
;TYPE:External perimeter
;WIDTH:0.56
G1 F3000
G1 X98.737 Y110.866 E2.35168
G1 X93.5 Y110.846 E2.65645
G1 X82.5 Y110.846 E3.29659
G1 X77.263 Y110.866 E3.60136
G1 X71.78 Y110.842 E3.92045
G1 X71.78 Y109.158 E4.01845
G3 X104.780 Y109.160 I16.298 J3341.194 E5.93890
G1 X104.78 Y97.012 E6.64585
G3 X107.512 Y94.280 I2.722 J-0.010 E6.89549
G1 X144.341 Y94.28 E9.03875
G1 X144.341 Y97.72 E9.23894
G1 X114.488 Y97.72 E10.97623
G2 X111.220 Y100.988 I0.010 J3.278 E11.27438
G1 X111.22 Y119.012 E12.32329
G2 X114.488 Y122.280 I3.278 J-0.010 E12.62144
G1 X144.341 Y122.28 E14.35873
G1 X144.341 Y125.72 E14.55892
G1 X107.512 Y125.72 E16.70218
G3 X104.780 Y122.988 I-0.010 J-2.722 E16.95183
G1 X104.78 Y110.9 E17.65529
G1 X104.778 Y110.44 F7200
G1 X105.28 Y110.338
;TYPE:Perimeter
G1 F3000
G3 X93.501 Y110.346 I-6.363 J-697.551 E18.34077
G2 X77.263 Y110.367 I-5.501 J2024.348 E19.28574
G1 X72.28 Y110.345 E19.57573
G1 X72.28 Y109.656 E19.61583
G3 X105.280 Y109.662 I15.888 J3368.057 E21.53627
G1 X105.28 Y97.034 E22.27116
G3 X107.534 Y94.780 I2.228 J-0.026 E22.47753
G1 X143.841 Y94.78 E24.59041
G1 X143.841 Y97.22 E24.73241
G1 X114.466 Y97.22 E26.44189
G2 X110.720 Y100.966 I0.026 J3.772 E26.78330
G1 X110.72 Y119.034 E27.83477
G2 X114.466 Y122.780 I3.772 J-0.026 E28.17618
G1 X143.841 Y122.78 E29.88566
G1 X143.841 Y125.22 E30.02766
G1 X107.534 Y125.22 E32.14054
G3 X105.280 Y122.966 I-0.026 J-2.228 E32.34689
G1 X105.28 Y110.398 E33.07828
G1 X105.78 Y109.834 F7200
G1 F3000
G1 X105.78 Y97.056 E33.82189
G3 X107.556 Y95.280 I1.732 J-0.044 E33.98503
G1 X143.341 Y95.28 E36.06754
G1 X143.341 Y96.72 E36.15134
G1 X114.444 Y96.72 E37.833
G2 X110.220 Y100.944 I0.046 J4.270 E38.21761
G1 X110.22 Y119.056 E39.27164
G2 X114.444 Y123.280 I4.270 J-0.046 E39.65625
G1 X143.341 Y123.28 E41.33791
G1 X143.341 Y124.72 E41.42171
G1 X107.556 Y124.72 E43.50422
G3 X105.780 Y122.944 I-0.044 J-1.732 E43.66739
G1 X105.78 Y109.894 E44.42683
G1 X105.53 Y110 F7200
;TYPE:Gap fill
;WIDTH:0.261985
G1 F3000
G2 X72.530 Y110.000 I-16.500 J8199.385 E45.20243
G1 E43.80243 F4800
;WIPE_START
G1 F5760
G1 X73.288 Y110 E43.20243
;WIPE_END
G92 E0
G1 X142.125 Y95.48 F7200
G1 E2 F4800
;TYPE:Solid infill
;WIDTH:0.5626
G1 F3000
G1 X142.916 Y96.271 E2.06544
G1 X142.916 Y96.295 E2.06684
G1 X142.23 Y96.295 E2.10697
G1 X141.64 Y95.705 E2.15578
G1 X140.929 Y95.705 E2.19737
G1 X141.519 Y96.295 E2.24618
G1 X140.809 Y96.295 E2.28771
G1 X140.218 Y95.705 E2.33656
G1 X139.508 Y95.705 E2.37809
G1 X140.098 Y96.295 E2.4269
G1 X139.388 Y96.295 E2.46843
G1 X138.797 Y95.705 E2.51728
G1 X138.086 Y95.705 E2.55887
G1 X138.677 Y96.295 E2.60772
G1 X137.966 Y96.295 E2.64931
G1 X137.376 Y95.705 E2.69812
G1 X136.665 Y95.705 E2.73971
G1 X137.256 Y96.295 E2.78856
G1 X136.545 Y96.295 E2.83015
G1 X135.954 Y95.705 E2.879
G1 X135.244 Y95.705 E2.92053
G1 X135.834 Y96.295 E2.96934
G1 X135.124 Y96.295 E3.01087
G1 X134.533 Y95.705 E3.05972
G1 X133.822 Y95.705 E3.10131
G1 X134.413 Y96.295 E3.15016
G1 X133.702 Y96.295 E3.19175
G1 X133.112 Y95.705 E3.24056
G1 X132.401 Y95.705 E3.28215
G1 X132.992 Y96.295 E3.331
G1 X132.281 Y96.295 E3.37259
G1 X131.69 Y95.705 E3.42144
G1 X130.98 Y95.705 E3.46297
G1 X131.57 Y96.295 E3.51178
G1 X130.86 Y96.295 E3.55331
G1 X130.269 Y95.705 E3.60216
G1 X129.558 Y95.705 E3.64375
G1 X130.149 Y96.295 E3.6926
G1 X129.438 Y96.295 E3.73419
G1 X128.848 Y95.705 E3.783
G1 X128.137 Y95.705 E3.82459
G1 X128.728 Y96.295 E3.87344
G1 X128.017 Y96.295 E3.91503
G1 X127.426 Y95.705 E3.96388
G1 X126.716 Y95.705 E4.00541
G1 X127.306 Y96.295 E4.05422
G1 X126.596 Y96.295 E4.09575
G1 X126.005 Y95.705 E4.1446
G1 X125.294 Y95.705 E4.18619
G1 X125.885 Y96.295 E4.23504
G1 X125.174 Y96.295 E4.27663
G1 X124.584 Y95.705 E4.32544
G1 X123.873 Y95.705 E4.36703
G1 X124.464 Y96.295 E4.41588
G1 X123.753 Y96.295 E4.45747
G1 X123.162 Y95.705 E4.50632
G1 X122.452 Y95.705 E4.54785
G1 X123.042 Y96.295 E4.59666
G1 X122.332 Y96.295 E4.63819
G1 X121.741 Y95.705 E4.68704
G1 X121.031 Y95.705 E4.72857
G1 X121.621 Y96.295 E4.77738
G1 X120.91 Y96.295 E4.81897
G1 X120.32 Y95.705 E4.86778
G1 X119.609 Y95.705 E4.90937
G1 X120.2 Y96.295 E4.95822
G1 X119.489 Y96.295 E4.99981
G1 X118.899 Y95.705 E5.04862
G1 X118.188 Y95.705 E5.09021
G1 X118.778 Y96.295 E5.13902
G1 X118.068 Y96.295 E5.18055
G1 X117.477 Y95.705 E5.2294
G1 X116.767 Y95.705 E5.27093
G1 X117.357 Y96.295 E5.31974
G1 X116.646 Y96.295 E5.36133
G1 X116.056 Y95.705 E5.41014
G1 X115.345 Y95.705 E5.45173
G1 X115.936 Y96.295 E5.50058
G1 X115.225 Y96.295 E5.54217
G1 X114.635 Y95.705 E5.59098
G1 X113.924 Y95.705 E5.63257
G1 X114.514 Y96.295 E5.68138
G1 X113.854 Y96.345 E5.7201
G1 X113.213 Y95.705 E5.77309
G1 X112.503 Y95.705 E5.81462
G1 X113.269 Y96.471 E5.87799
G2 X112.733 Y96.646 I0.226 J1.599 E5.91109
G1 X111.792 Y95.705 E5.98894
G1 X111.081 Y95.705 E6.03053
G1 X112.248 Y96.872 E6.12707
G2 X111.816 Y97.150 I0.552 J1.332 E6.15720
G1 X110.371 Y95.705 E6.27674
G1 X109.66 Y95.705 E6.31833
G1 X111.409 Y97.454 E6.46302
G1 X111.054 Y97.809 E6.49239
G1 X108.949 Y95.705 E6.66649
G1 X108.239 Y95.705 E6.70802
G1 X110.732 Y98.198 E6.91426
G1 X110.44 Y98.616 E6.94409
G1 X107.532 Y95.708 E7.18466
G2 X106.952 Y95.839 I-0.051 J1.123 E7.21975
G1 X110.209 Y99.097 E7.48924
G2 X110.013 Y99.611 I1.382 J0.821 E7.52153
G1 X106.543 Y96.141 E7.8086
G2 X106.282 Y96.590 I0.847 J0.793 E7.83917
G1 X109.863 Y100.172 E8.13546
G1 X109.804 Y100.824 E8.17376
G1 X106.205 Y97.224 E8.47154
G1 X106.205 Y97.935 E8.51313
G1 X109.795 Y101.525 E8.81012
G1 X109.795 Y102.236 E8.85171
G1 X106.205 Y98.645 E9.14875
G1 X106.205 Y99.356 E9.19034
G1 X109.795 Y102.947 E9.48738
G1 X109.795 Y103.657 E9.52891
G1 X106.205 Y100.067 E9.8259
G1 X106.205 Y100.777 E9.86743
G1 X109.795 Y104.368 E10.16447
G1 X109.795 Y105.079 E10.20606
G1 X106.205 Y101.488 E10.5031
G1 X106.205 Y102.199 E10.54469
G1 X109.795 Y105.789 E10.84168
G1 X109.795 Y106.5 E10.88327
G1 X106.205 Y102.909 E11.18031
G1 X106.205 Y103.62 E11.2219
G1 X109.795 Y107.211 E11.51894
G1 X109.795 Y107.921 E11.56047
G1 X106.205 Y104.331 E11.85746
G1 X106.205 Y105.041 E11.89899
G1 X109.795 Y108.632 E12.19603
G1 X109.795 Y109.343 E12.23762
G1 X106.205 Y105.752 E12.53466
G1 X106.205 Y106.463 E12.57625
G1 X109.795 Y110.053 E12.87324
G1 X109.795 Y110.764 E12.91483
G1 X106.205 Y107.173 E13.21187
G1 X106.205 Y107.884 E13.25346
G1 X109.795 Y111.475 E13.5505
G1 X109.795 Y112.185 E13.59203
G1 X106.205 Y108.595 E13.88902
G1 X106.205 Y109.305 E13.93055
G1 X109.795 Y112.896 E14.22759
G1 X109.795 Y113.607 E14.26918
G1 X106.205 Y110.016 E14.56622
G1 X106.205 Y110.727 E14.60781
G1 X109.795 Y114.317 E14.9048
G1 X109.795 Y115.028 E14.94639
G1 X106.205 Y111.437 E15.24343
G1 X106.205 Y112.148 E15.28502
G1 X109.795 Y115.738 E15.58201
G1 X109.795 Y116.449 E15.6236
G1 X106.205 Y112.859 E15.92059
G1 X106.205 Y113.569 E15.96212
G1 X109.795 Y117.16 E16.25916
G1 X109.795 Y117.87 E16.30069
G1 X106.205 Y114.28 E16.59768
G1 X106.205 Y114.991 E16.63927
G1 X109.795 Y118.581 E16.93626
G2 X109.816 Y119.313 I4.176 J0.246 E16.97913
G1 X106.205 Y115.701 E17.2779
G1 X106.205 Y116.412 E17.31949
G1 X110.27 Y120.477 E17.65578
G1 E16.25578 F4800
;WIPE_START
G1 F5760
G1 X109.734 Y119.941 E15.65578
;WIPE_END
G92 E0
G1 X142.41 Y123.48 F7200
G1 E2 F4800
G1 F3000
G1 X142.916 Y123.987 E2.0419
G1 X142.916 Y124.295 E2.05992
G1 X142.514 Y124.295 E2.08344
G1 X141.924 Y123.705 E2.13225
G1 X141.213 Y123.705 E2.17384
G1 X141.804 Y124.295 E2.22269
G1 X141.093 Y124.295 E2.26428
G1 X140.503 Y123.705 E2.31309
G1 X139.792 Y123.705 E2.35468
G1 X140.382 Y124.295 E2.40349
G1 X139.672 Y124.295 E2.44502
G1 X139.081 Y123.705 E2.49387
G1 X138.371 Y123.705 E2.5354
G1 X138.961 Y124.295 E2.58421
G1 X138.25 Y124.295 E2.6258
G1 X137.66 Y123.705 E2.67461
G1 X136.949 Y123.705 E2.7162
G1 X137.54 Y124.295 E2.76505
G1 X136.829 Y124.295 E2.80664
G1 X136.239 Y123.705 E2.85545
G1 X135.528 Y123.705 E2.89704
G1 X136.118 Y124.295 E2.94585
G1 X135.408 Y124.295 E2.98738
G1 X134.817 Y123.705 E3.03623
G1 X134.107 Y123.705 E3.07776
G1 X134.697 Y124.295 E3.12657
G1 X133.987 Y124.295 E3.1681
G1 X133.396 Y123.705 E3.21695
G1 X132.685 Y123.705 E3.25854
G1 X133.276 Y124.295 E3.30739
G1 X132.565 Y124.295 E3.34898
G1 X131.975 Y123.705 E3.39779
G1 X131.264 Y123.705 E3.43938
G1 X131.855 Y124.295 E3.48823
G1 X131.144 Y124.295 E3.52982
G1 X130.553 Y123.705 E3.57867
G1 X129.843 Y123.705 E3.6202
G1 X130.433 Y124.295 E3.66901
G1 X129.723 Y124.295 E3.71054
G1 X129.132 Y123.705 E3.75939
G1 X128.421 Y123.705 E3.80098
G1 X129.012 Y124.295 E3.84983
G1 X128.301 Y124.295 E3.89142
G1 X127.711 Y123.705 E3.94023
G1 X127 Y123.705 E3.98182
G1 X127.591 Y124.295 E4.03067
G1 X126.88 Y124.295 E4.07226
G1 X126.289 Y123.705 E4.12111
G1 X125.579 Y123.705 E4.16264
G1 X126.169 Y124.295 E4.21145
G1 X125.459 Y124.295 E4.25298
G1 X124.868 Y123.705 E4.30183
G1 X124.157 Y123.705 E4.34342
G1 X124.748 Y124.295 E4.39227
G1 X124.037 Y124.295 E4.43386
G1 X123.447 Y123.705 E4.48267
G1 X122.736 Y123.705 E4.52426
G1 X123.327 Y124.295 E4.57311
G1 X122.616 Y124.295 E4.6147
G1 X122.025 Y123.705 E4.66355
G1 X121.315 Y123.705 E4.70508
G1 X121.905 Y124.295 E4.75389
G1 X121.195 Y124.295 E4.79542
G1 X120.604 Y123.705 E4.84427
G1 X119.893 Y123.705 E4.88586
G1 X120.484 Y124.295 E4.93471
G1 X119.773 Y124.295 E4.9763
G1 X119.183 Y123.705 E5.02511
G1 X118.472 Y123.705 E5.0667
G1 X119.063 Y124.295 E5.11555
G1 X118.352 Y124.295 E5.15714
G1 X117.762 Y123.705 E5.20595
G1 X117.051 Y123.705 E5.24754
G1 X117.641 Y124.295 E5.29635
G1 X116.931 Y124.295 E5.33788
G1 X116.34 Y123.705 E5.38673
G1 X115.63 Y123.705 E5.42826
G1 X116.22 Y124.295 E5.47707
G1 X115.509 Y124.295 E5.51866
G1 X114.919 Y123.705 E5.56747
G3 X114.187 Y123.684 I-0.246 J-4.176 E5.61034
G1 X114.799 Y124.295 E5.66093
G1 X114.088 Y124.295 E5.70252
G1 X113.023 Y123.23 E5.79063
G1 X113.602 Y124.52 F7200
G1 F3000
G1 X106.205 Y117.123 E6.40257
G1 X106.205 Y117.833 E6.4441
G1 X112.667 Y124.295 E6.97869
G1 X111.956 Y124.295 E7.02028
G1 X106.205 Y118.544 E7.49605
G1 X106.205 Y119.255 E7.53764
G1 X111.245 Y124.295 E7.95459
G1 X110.535 Y124.295 E7.99612
G1 X106.205 Y119.965 E8.35433
G1 X106.205 Y120.676 E8.39592
G1 X109.824 Y124.295 E8.69531
G1 X109.113 Y124.295 E8.7369
G1 X106.205 Y121.387 E8.97747
G1 X106.205 Y122.097 E9.019
G1 X108.403 Y124.295 E9.20084
G1 X107.692 Y124.295 E9.24243
G1 X106.205 Y122.808 E9.36545
G2 X106.508 Y123.822 I1.386 J0.138 E9.42877
G1 X107.156 Y124.47 E9.48238
;LAYER_CHANGE
;Z:0.48
;HEIGHT:0.2
; BEFORE_LAYER_CHANGE 1 @ 0.48mm
G1 E8.08238 F4800
;WIPE_START
G1 F5760
G1 X106.62 Y123.934 E7.48238
;WIPE_END
G92 E0
G1 Z.48 F7200
; AFTER_LAYER_CHANGE 1 @ 0.48mm
G1 X104.71 Y111.674
G1 E2 F4800
;TYPE:External perimeter
;WIDTH:0.42
G1 F4500
G1 X104.3 Y111.675 E2.01286
;TYPE:Overhang perimeter
;WIDTH:0.388938
G1 F2400
G1 X71.71 Y111.675 E2.95052
G1 X71.71 Y111.322 E2.96068
;TYPE:External perimeter
;WIDTH:0.42
G1 F4500
G1 X71.71 Y108.678 E3.04358
;TYPE:Overhang perimeter
;WIDTH:0.388938
G1 F2400
G1 X71.71 Y108.325 E3.05374
G3 X104.300 Y108.325 I16.295 J5864.727 E3.99141
;TYPE:External perimeter
;WIDTH:0.42
G1 F4500
G1 X104.71 Y108.326 E4.00427
G1 X104.71 Y97.009 E4.35911
G3 X107.509 Y94.210 I2.791 J-0.008 E4.49688
G1 X144.821 Y94.21 E5.66677
;TYPE:Overhang perimeter
;WIDTH:0.388938
G1 F2400
G1 X145.174 Y94.21 E5.67693
G1 X145.174 Y97.79 E5.77993
G1 X144.821 Y97.79 E5.79009
;TYPE:External perimeter
;WIDTH:0.42
G1 F4500
G1 X114.491 Y97.79 E6.74107
G2 X111.290 Y100.991 I0.006 J3.207 E6.89843
G1 X111.29 Y119.009 E7.46337
G2 X114.491 Y122.210 I3.207 J-0.006 E7.62073
G1 X144.821 Y122.21 E8.57171
;TYPE:Overhang perimeter
;WIDTH:0.388938
G1 F2400
G1 X145.174 Y122.21 E8.58187
G1 X145.174 Y125.79 E8.68487
G1 X144.821 Y125.79 E8.69503
;TYPE:External perimeter
;WIDTH:0.42
G1 F4500
G1 X107.509 Y125.79 E9.86492
G3 X104.710 Y122.991 I-0.008 J-2.791 E10.00271
G1 X104.71 Y111.734 E10.35567
G1 X104.709 Y111.274 F7200
G1 X105.102 Y111.281
;TYPE:Perimeter
;WIDTH:0.45
G1 F9000
G3 X93.500 Y111.276 I-5.333 J-1086.448 E10.74838
G1 X72.102 Y111.284 E11.47268
G1 X72.102 Y108.716 E11.5596
G3 X105.102 Y108.718 I16.139 J5962.617 E12.67661
G1 X105.102 Y97.026 E13.07237
G3 X107.526 Y94.602 I2.404 J-0.020 E13.20132
G1 X144.782 Y94.602 E14.46239
G1 X144.782 Y97.398 E14.55703
G1 X114.474 Y97.398 E15.58292
G2 X110.898 Y100.974 I0.020 J3.596 E15.77255
G1 X110.898 Y119.026 E16.38359
G2 X114.474 Y122.602 I3.596 J-0.020 E16.57322
G1 X144.782 Y122.602 E17.59911
G1 X144.782 Y125.398 E17.69375
G1 X107.526 Y125.398 E18.95482
G3 X105.102 Y122.974 I-0.020 J-2.404 E19.08378
G1 X105.102 Y111.341 E19.47754
G1 X105.509 Y110.872 F7200
G1 F9000
G3 X93.500 Y110.869 I-5.732 J-1089.195 E19.88403
G1 X72.509 Y110.878 E20.59455
G1 X72.509 Y109.123 E20.65395
G3 X105.509 Y109.126 I15.979 J5726.108 E21.77097
G1 X105.509 Y97.044 E22.17993
G3 X107.544 Y95.009 I2.002 J-0.033 E22.28842
G1 X144.375 Y95.009 E23.53511
G1 X144.375 Y96.991 E23.6022
G1 X114.456 Y96.991 E24.61492
G2 X110.491 Y100.956 I0.034 J3.999 E24.82503
G1 X110.491 Y119.044 E25.43729
G2 X114.456 Y123.009 I3.999 J-0.034 E25.64740
G1 X144.375 Y123.009 E26.66012
G1 X144.375 Y124.991 E26.72721
G1 X107.544 Y124.991 E27.9739
G3 X105.509 Y122.956 I-0.033 J-2.002 E28.08241
G1 X105.509 Y110.932 E28.48941
G1 E27.08941 F4800
;WIPE_START
G1 F5760
G1 X104.751 Y110.926 E26.48941
;WIPE_END
G92 E0
G1 X106.398 Y95.686 F7200
G1 E2 F4800
;TYPE:Solid infill
;WIDTH:0.38292
G1 F9000
G1 X105.99 Y96.133 E2.01711
;WIDTH:0.499999
G1 F8860.613
G1 X105.918 Y96.676 E2.03793
G1 X107.176 Y95.418 E2.10555
G1 X107.864 Y95.376 E2.13175
G1 X105.876 Y97.364 E2.2386
G1 X105.876 Y98.01 E2.26315
G1 X108.51 Y95.376 E2.40472
G1 X109.157 Y95.376 E2.42931
G1 X105.876 Y98.657 E2.60566
G1 X105.876 Y99.303 E2.63021
G1 X109.803 Y95.376 E2.84128
G1 X110.45 Y95.376 E2.86587
G1 X105.876 Y99.95 E3.11172
G1 X105.876 Y100.596 E3.13627
G1 X111.096 Y95.376 E3.41684
G1 X111.742 Y95.376 E3.44139
G1 X105.876 Y101.242 E3.75668
G1 X105.876 Y101.889 E3.78127
G1 X112.389 Y95.376 E4.13134
G1 X113.035 Y95.376 E4.15589
G1 X105.876 Y102.535 E4.54068
G1 X105.784 Y103.494 F7200
;WIDTH:0.38292
G1 F9000
G1 X105.712 Y103.475 E4.54279
G1 X105.732 Y103.546 E4.54488
G1 X105.773 Y103.535 E4.54608
