; Postprocessed by [ArcWelder](https://github.com/FormerLurker/ArcWelderLib)
; Copyright(C) 2021 - Brad Hochgesang
; Version: 1.2.0, Branch: master, BuildDate: 2021-11-21T20:04:00Z
; resolution=0.05mm
; path_tolerance=5.0%
; max_radius=9999.00mm
; default_xyz_precision=3
; default_e_precision=5
; extrusion_rate_variance=5.0%

; generated by AnycubicSlicer 1.4.4 on 2025-02-22 at 17:25:32 UTC




; 

; external perimeters extrusion width = 0.42mm
; perimeters extrusion width = 0.45mm
; infill extrusion width = 0.45mm
; solid infill extrusion width = 0.50mm
; top infill extrusion width = 0.42mm
; first layer extrusion width = 0.56mm

M201 X2500 Y2500 Z800 E2500 ; sets maximum accelerations, mm/sec^2
M203 X250 Y250 Z8 E80 ; sets maximum feedrates, mm / sec
M204 S2500 T2500 ; sets acceleration (S) and retract acceleration (R), mm/sec^2
M205 X10.00 Y10.00 Z2.00 E10.00 ; sets the jerk limits, mm/sec
M205 S0 T0 ; sets the minimum extruding and travel feed rate, mm/sec
;TYPE:Custom
G90 ; use absolute coordinates
M83 ; extruder relative mode
M104 S215 ; set extruder temp
M140 S70 ; set bed temp
M190 S70 ; wait for bed temp
M109 S215 ; wait for extruder temp
G28                                        ; move X/Y/Z to min endstops
G1 Z0.28                                   ; lift nozzle a bit 
G92 E0 
G1 Y3 F1800                                    ; zero the extruded length 
G1 X60  E25 F500                       ; Extrude 25mm of filament in a 5cm line. 
G92 E0                                     ; zero the extruded length again 
G1 E-2 F500                                ; Retract a little 
G1 X70 F4000                              ; Quickly wipe away from the filament line
M117
G21 ; set units to millimeters
G90 ; use absolute coordinates
M82 ; use absolute distances for extrusion
G92 E0
M107
;LAYER_CHANGE
;Z:0.28
;HEIGHT:0.28
; BEFORE_LAYER_CHANGE 0 @ 0.28mm
G1 E-2 F4800
G92 E0
G1 Z.28 F7200
; AFTER_LAYER_CHANGE 0 @ 0.28mm
G1 X101.748 Y120.297
G1 E2 F4800
;TYPE:External perimeter
;WIDTH:0.56
G1 F3000
G1 X130.912 Y120.297 E3.6972
G1 X130.912 Y123.737 E3.89739
G1 X91.308 Y123.737 E6.20214
G1 X91.308 Y112.737 E6.84228
G1 X80.058 Y112.737 E7.49697
G1 X80.058 Y110.297 E7.63897
G1 X91.308 Y110.297 E8.29366
G1 X91.308 Y105.737 E8.55903
G1 X80.058 Y105.737 E9.21372
G1 X80.058 Y103.297 E9.35572
G1 X91.308 Y103.297 E10.01041
G1 X91.308 Y92.297 E10.65055
G1 X130.912 Y92.297 E12.9553
G1 X130.912 Y95.737 E13.15549
G1 X101.748 Y95.737 E14.85269
G1 X101.748 Y120.237 E16.27847
G1 X101.634 Y120.68 F7200
G1 X101.248 Y120.797
;TYPE:Perimeter
G1 F3000
G1 X130.412 Y120.797 E17.97567
G1 X130.412 Y123.237 E18.11767
G1 X91.808 Y123.237 E20.36423
G1 X91.808 Y112.237 E21.00437
G1 X80.558 Y112.237 E21.65906
G1 X80.558 Y110.797 E21.74286
G1 X91.808 Y110.797 E22.39755
G1 X91.808 Y105.237 E22.72111
G1 X80.558 Y105.237 E23.3758
G1 X80.558 Y103.797 E23.4596
G1 X91.808 Y103.797 E24.11429
G1 X91.808 Y92.797 E24.75443
G1 X130.412 Y92.797 E27.00099
G1 X130.412 Y95.237 E27.14299
G1 X101.248 Y95.237 E28.84019
G1 X101.248 Y120.737 E30.32416
G1 X100.748 Y121.297 F7200
G1 F3000
G1 X129.912 Y121.297 E32.02136
G1 X129.912 Y122.737 E32.10516
G1 X92.308 Y122.737 E34.29352
G1 X92.308 Y111.737 E34.93366
G1 X81.058 Y111.737 E35.58835
G1 X81.058 Y111.297 E35.61396
G1 X92.308 Y111.297 E36.26865
G1 X92.308 Y104.737 E36.65041
G1 X81.058 Y104.737 E37.3051
G1 X81.058 Y104.297 E37.33071
G1 X92.308 Y104.297 E37.9854
G1 X92.308 Y93.297 E38.62554
G1 X129.912 Y93.297 E40.8139
G1 X129.912 Y94.737 E40.8977
G1 X100.748 Y94.737 E42.5949
G1 X100.748 Y121.237 E44.13707
G1 E42.73707 F4800
;WIPE_START
G1 F5760
G1 X101.506 Y121.239 E42.13707
;WIPE_END
G92 E0
G1 X128.692 Y93.497 F7200
G1 E2 F4800
;TYPE:Solid infill
;WIDTH:0.564524
G1 F3000
G1 X129.487 Y94.292 E2.06602
G1 X129.487 Y94.312 E2.06719
G1 X128.794 Y94.312 E2.10788
G1 X128.203 Y93.722 E2.15692
G1 X127.49 Y93.722 E2.19879
G1 X128.08 Y94.312 E2.24779
G1 X127.367 Y94.312 E2.28966
G1 X126.776 Y93.722 E2.3387
G1 X126.063 Y93.722 E2.38057
G1 X126.654 Y94.312 E2.42961
G1 X125.94 Y94.312 E2.47154
G1 X125.35 Y93.722 E2.52054
G1 X124.636 Y93.722 E2.56247
G1 X125.227 Y94.312 E2.61151
G1 X124.513 Y94.312 E2.65344
G1 X123.923 Y93.722 E2.70244
G1 X123.21 Y93.722 E2.74431
G1 X123.8 Y94.312 E2.79331
G1 X123.087 Y94.312 E2.83518
G1 X122.496 Y93.722 E2.88422
G1 X121.783 Y93.722 E2.92609
G1 X122.373 Y94.312 E2.97509
G1 X121.66 Y94.312 E3.01696
G1 X121.069 Y93.722 E3.066
G1 X120.356 Y93.722 E3.10787
G1 X120.947 Y94.312 E3.15691
G1 X120.233 Y94.312 E3.19884
G1 X119.643 Y93.722 E3.24784
G1 X118.929 Y93.722 E3.28977
G1 X119.52 Y94.312 E3.33881
G1 X118.806 Y94.312 E3.38074
G1 X118.216 Y93.722 E3.42974
G1 X117.502 Y93.722 E3.47167
G1 X118.093 Y94.312 E3.52071
G1 X117.38 Y94.312 E3.56258
G1 X116.789 Y93.722 E3.61162
G1 X116.076 Y93.722 E3.65349
G1 X116.666 Y94.312 E3.70249
G1 X115.953 Y94.312 E3.74436
G1 X115.362 Y93.722 E3.7934
G1 X114.649 Y93.722 E3.83527
G1 X115.239 Y94.312 E3.88427
G1 X114.526 Y94.312 E3.92614
G1 X113.936 Y93.722 E3.97514
G1 X113.222 Y93.722 E4.01707
G1 X113.813 Y94.312 E4.06611
G1 X113.099 Y94.312 E4.10804
G1 X112.509 Y93.722 E4.15704
G1 X111.795 Y93.722 E4.19897
G1 X112.386 Y94.312 E4.24801
G1 X111.673 Y94.312 E4.28988
G1 X111.082 Y93.722 E4.33892
G1 X110.369 Y93.722 E4.38079
G1 X110.959 Y94.312 E4.42979
G1 X110.246 Y94.312 E4.47166
G1 X109.655 Y93.722 E4.5207
G1 X108.942 Y93.722 E4.56257
G1 X109.532 Y94.312 E4.61157
G1 X108.819 Y94.312 E4.65344
G1 X108.229 Y93.722 E4.70244
G1 X107.515 Y93.722 E4.74437
G1 X108.106 Y94.312 E4.79341
G1 X107.392 Y94.312 E4.83534
G1 X106.802 Y93.722 E4.88434
G1 X106.088 Y93.722 E4.92627
G1 X106.679 Y94.312 E4.97531
G1 X105.966 Y94.312 E5.01718
G1 X105.375 Y93.722 E5.06622
G1 X104.662 Y93.722 E5.10809
G1 X105.252 Y94.312 E5.15709
G1 X104.539 Y94.312 E5.19896
G1 X103.948 Y93.722 E5.248
G1 X103.235 Y93.722 E5.28987
G1 X103.825 Y94.312 E5.33887
G1 X103.112 Y94.312 E5.38074
G1 X102.522 Y93.722 E5.42974
G1 X101.808 Y93.722 E5.47167
G1 X102.399 Y94.312 E5.52071
G1 X101.685 Y94.312 E5.56264
G1 X101.095 Y93.722 E5.61164
G1 X100.381 Y93.722 E5.65357
G1 X100.972 Y94.312 E5.70261
G1 X100.323 Y94.312 E5.74072
G1 X100.323 Y94.377 E5.74454
G1 X99.668 Y93.722 E5.79893
G1 X98.955 Y93.722 E5.8408
G1 X100.323 Y95.09 E5.95441
G1 X100.323 Y95.804 E5.99634
G1 X98.241 Y93.722 E6.16924
G1 X97.528 Y93.722 E6.21111
G1 X100.323 Y96.517 E6.44322
G1 X100.323 Y97.23 E6.48509
G1 X96.814 Y93.722 E6.77645
G1 X96.101 Y93.722 E6.81832
G1 X100.323 Y97.944 E7.16894
G1 X100.323 Y98.657 E7.21081
G1 X95.388 Y93.722 E7.62064
G1 X94.674 Y93.722 E7.66257
G1 X100.323 Y99.371 E8.13169
G1 X100.323 Y100.084 E8.17356
G1 X93.961 Y93.722 E8.70189
G1 X93.248 Y93.722 E8.74376
G1 X100.323 Y100.797 E9.3313
G1 X100.323 Y101.511 E9.37323
G1 X92.733 Y93.92 E10.00358
G1 X92.733 Y94.634 E10.04551
G1 X100.323 Y102.224 E10.67582
G1 X100.323 Y102.937 E10.71769
G1 X92.733 Y95.347 E11.348
G1 X92.733 Y96.06 E11.38987
G1 X100.323 Y103.651 E12.02022
G1 X100.323 Y104.364 E12.06209
G1 X92.733 Y96.774 E12.6924
G1 X92.733 Y97.487 E12.73427
G1 X100.323 Y105.078 E13.36462
G1 X100.323 Y105.791 E13.40649
G1 X92.733 Y98.2 E14.03684
G1 X92.733 Y98.914 E14.07877
G1 X100.323 Y106.504 E14.70908
G1 X100.323 Y107.218 E14.75101
G1 X92.733 Y99.627 E15.38136
G1 X92.733 Y100.341 E15.42329
G1 X100.323 Y107.931 E16.0536
G1 X100.323 Y108.644 E16.09547
G1 X92.733 Y101.054 E16.72578
G1 X92.733 Y101.767 E16.76765
G1 X100.323 Y109.358 E17.398
G1 X100.323 Y110.071 E17.43987
G1 X92.733 Y102.481 E18.07018
G1 X92.733 Y103.194 E18.11205
G1 X100.323 Y110.785 E18.7424
G1 X100.323 Y111.498 E18.78427
G1 X92.733 Y103.908 E19.41458
G1 X92.733 Y104.621 E19.45645
G1 X100.323 Y112.211 E20.08676
G1 X100.323 Y112.925 E20.12869
G1 X92.733 Y105.334 E20.75904
G1 X92.733 Y106.048 E20.80097
G1 X100.323 Y113.638 E21.43128
G1 X100.323 Y114.352 E21.47321
G1 X92.733 Y106.761 E22.10356
G1 X92.733 Y107.474 E22.14543
G1 X100.323 Y115.065 E22.77578
G1 X100.323 Y115.778 E22.81765
G1 X92.733 Y108.188 E23.44796
G1 X92.733 Y108.901 E23.48983
G1 X100.323 Y116.492 E24.12018
G1 X100.323 Y117.205 E24.16205
G1 X92.733 Y109.615 E24.79236
G1 X92.733 Y110.328 E24.83423
G1 X100.323 Y117.918 E25.46454
G1 X100.323 Y118.632 E25.50647
G1 X92.733 Y111.041 E26.13682
G1 X92.733 Y111.755 E26.17875
G1 X100.323 Y119.345 E26.80906
G1 X100.323 Y120.059 E26.85099
G1 X92.733 Y112.468 E27.48134
G1 X92.733 Y113.181 E27.52321
G1 X100.548 Y120.997 E28.17225
G1 E26.77225 F4800
;WIPE_START
G1 F5760
G1 X100.012 Y120.461 E26.17225
;WIPE_END
G92 E0
G1 X128.87 Y121.497 F7200
G1 E2 F4800
G1 F3000
G1 X129.487 Y122.114 E2.05124
G1 X129.487 Y122.312 E2.06287
G1 X128.972 Y122.312 E2.09311
G1 X128.381 Y121.722 E2.14215
G1 X127.668 Y121.722 E2.18402
G1 X128.259 Y122.312 E2.23306
G1 X127.545 Y122.312 E2.27499
G1 X126.955 Y121.722 E2.32399
G1 X126.241 Y121.722 E2.36592
G1 X126.832 Y122.312 E2.41496
G1 X126.118 Y122.312 E2.45689
G1 X125.528 Y121.722 E2.50589
G1 X124.814 Y121.722 E2.54782
G1 X125.405 Y122.312 E2.59686
G1 X124.692 Y122.312 E2.63873
G1 X124.101 Y121.722 E2.68777
G1 X123.388 Y121.722 E2.72964
G1 X123.978 Y122.312 E2.77864
G1 X123.265 Y122.312 E2.82051
G1 X122.674 Y121.722 E2.86955
G1 X121.961 Y121.722 E2.91142
G1 X122.551 Y122.312 E2.96042
G1 X121.838 Y122.312 E3.00229
G1 X121.248 Y121.722 E3.05129
G1 X120.534 Y121.722 E3.09322
G1 X121.125 Y122.312 E3.14226
G1 X120.411 Y122.312 E3.18419
G1 X119.821 Y121.722 E3.23319
G1 X119.107 Y121.722 E3.27512
G1 X119.698 Y122.312 E3.32416
G1 X118.985 Y122.312 E3.36603
G1 X118.394 Y121.722 E3.41507
G1 X117.681 Y121.722 E3.45694
G1 X118.271 Y122.312 E3.50594
G1 X117.558 Y122.312 E3.54781
G1 X116.967 Y121.722 E3.59685
G1 X116.254 Y121.722 E3.63872
G1 X116.844 Y122.312 E3.68772
G1 X116.131 Y122.312 E3.72959
G1 X115.541 Y121.722 E3.77859
G1 X114.827 Y121.722 E3.82052
G1 X115.418 Y122.312 E3.86956
G1 X114.704 Y122.312 E3.91149
G1 X114.114 Y121.722 E3.96049
G1 X113.4 Y121.722 E4.00242
G1 X113.991 Y122.312 E4.05146
G1 X113.278 Y122.312 E4.09333
G1 X112.687 Y121.722 E4.14237
G1 X111.974 Y121.722 E4.18424
G1 X112.564 Y122.312 E4.23324
G1 X111.851 Y122.312 E4.27511
G1 X111.26 Y121.722 E4.32415
G1 X110.547 Y121.722 E4.36602
G1 X111.137 Y122.312 E4.41502
G1 X110.424 Y122.312 E4.45689
G1 X109.834 Y121.722 E4.50589
G1 X109.12 Y121.722 E4.54782
G1 X109.711 Y122.312 E4.59686
G1 X108.997 Y122.312 E4.63879
G1 X108.407 Y121.722 E4.68779
G1 X107.693 Y121.722 E4.72972
G1 X108.284 Y122.312 E4.77876
G1 X107.571 Y122.312 E4.82063
G1 X106.98 Y121.722 E4.86967
G1 X106.267 Y121.722 E4.91154
G1 X106.857 Y122.312 E4.96054
G1 X106.144 Y122.312 E5.00241
G1 X105.553 Y121.722 E5.05145
G1 X104.84 Y121.722 E5.09332
G1 X105.43 Y122.312 E5.14232
G1 X104.717 Y122.312 E5.18419
G1 X104.127 Y121.722 E5.23319
G1 X103.413 Y121.722 E5.27512
G1 X104.004 Y122.312 E5.32416
G1 X103.29 Y122.312 E5.36609
G1 X102.7 Y121.722 E5.41509
G1 X101.986 Y121.722 E5.45702
G1 X102.577 Y122.312 E5.50606
G1 X101.863 Y122.312 E5.54799
G1 X101.048 Y121.497 E5.61567
G1 X101.375 Y122.537 F7200
G1 F3000
G1 X92.733 Y113.895 E6.33334
G1 X92.733 Y114.608 E6.37521
G1 X100.437 Y122.312 E7.01499
G1 X99.723 Y122.312 E7.05692
G1 X92.733 Y115.322 E7.6374
G1 X92.733 Y116.035 E7.67927
G1 X99.01 Y122.312 E8.20054
G1 X98.297 Y122.312 E8.24241
G1 X92.733 Y116.748 E8.70447
G1 X92.733 Y117.462 E8.7464
G1 X97.583 Y122.312 E9.14917
G1 X96.87 Y122.312 E9.19104
G1 X92.733 Y118.175 E9.5346
G1 X92.733 Y118.888 E9.57647
G1 X96.156 Y122.312 E9.86077
G1 X95.443 Y122.312 E9.90264
G1 X92.733 Y119.602 E10.12769
G1 X92.733 Y120.315 E10.16956
G1 X94.73 Y122.312 E10.3354
G1 X94.016 Y122.312 E10.37733
G1 X92.733 Y121.029 E10.48388
G1 X92.733 Y121.742 E10.52575
G1 X93.528 Y122.537 E10.59177
;LAYER_CHANGE
;Z:0.48
;HEIGHT:0.2
; BEFORE_LAYER_CHANGE 1 @ 0.48mm
G1 E9.19177 F4800
;WIPE_START
G1 F5760
G1 X92.992 Y122.001 E8.59177
;WIPE_END
G92 E0
G1 Z.48 F7200
; AFTER_LAYER_CHANGE 1 @ 0.48mm
G1 X101.818 Y120.227
G1 E2 F4800
;TYPE:External perimeter
;WIDTH:0.42
G1 F4500
G1 X131.392 Y120.227 E2.92727
;TYPE:Overhang perimeter
;WIDTH:0.388938
G1 F2400
G1 X131.71 Y120.227 E2.93642
G1 X131.71 Y123.807 E3.03942
G1 X131.392 Y123.807 E3.04857
;TYPE:External perimeter
;WIDTH:0.42
G1 F4500
G1 X91.238 Y123.807 E4.30757
G1 X91.238 Y112.807 E4.65247
G1 X79.988 Y112.807 E5.00521
G1 X79.988 Y110.227 E5.0861
G1 X91.238 Y110.227 E5.43884
G1 X91.238 Y105.807 E5.57743
G1 X79.988 Y105.807 E5.93017
G1 X79.988 Y103.227 E6.01106
G1 X91.238 Y103.227 E6.3638
G1 X91.238 Y92.227 E6.7087
G1 X131.392 Y92.227 E7.9677
;TYPE:Overhang perimeter
;WIDTH:0.388938
G1 F2400
G1 X131.71 Y92.227 E7.97685
G1 X131.71 Y95.807 E8.07985
G1 X131.392 Y95.807 E8.089
;TYPE:External perimeter
;WIDTH:0.42
G1 F4500
G1 X101.818 Y95.807 E9.01627
G1 X101.818 Y120.167 E9.78006
G1 X101.702 Y120.61 F7200
G1 X101.426 Y120.619
;TYPE:Perimeter
;WIDTH:0.45
G1 F9000
G1 X131.317 Y120.619 E10.79183
G1 X131.317 Y123.415 E10.88647
G1 X91.63 Y123.415 E12.22983
G1 X91.63 Y112.415 E12.60217
G1 X80.38 Y112.415 E12.98297
G1 X80.38 Y110.619 E13.04376
G1 X91.63 Y110.619 E13.42456
G1 X91.63 Y105.415 E13.60071
G1 X80.38 Y105.415 E13.98151
G1 X80.38 Y103.619 E14.0423
G1 X91.63 Y103.619 E14.4231
G1 X91.63 Y92.619 E14.79544
G1 X131.317 Y92.619 E16.1388
G1 X131.317 Y95.415 E16.23344
G1 X101.426 Y95.415 E17.24521
G1 X101.426 Y120.559 E18.0963
G1 X101.019 Y121.026 F7200
G1 F9000
G1 X130.91 Y121.026 E19.10807
G1 X130.91 Y123.008 E19.17516
G1 X92.037 Y123.008 E20.49096
G1 X92.037 Y112.008 E20.8633
G1 X80.787 Y112.008 E21.2441
G1 X80.787 Y111.026 E21.27734
G1 X92.037 Y111.026 E21.65814
G1 X92.037 Y105.008 E21.86184
G1 X80.787 Y105.008 E22.24264
G1 X80.787 Y104.026 E22.27588
G1 X92.037 Y104.026 E22.65668
G1 X92.037 Y93.026 E23.02902
G1 X130.91 Y93.026 E24.34482
G1 X130.91 Y95.008 E24.41191
G1 X101.019 Y95.008 E25.42368
G1 X101.019 Y120.966 E26.30233
G1 E24.90233 F4800
;WIPE_START
G1 F5760
G1 X101.777 Y120.968 E24.30233
;WIPE_END
G92 E0
G1 X92.241 Y111.517 F7200
G1 E2 F4800
;TYPE:Gap fill
;WIDTH:0.617526
G1 F6000
G1 X80.991 Y111.517 E2.53751
G1 E1.13751 F4800
;WIPE_START
G1 F5760
G1 X81.749 Y111.517 E.53751
;WIPE_END
G92 E0
G1 X80.991 Y104.517 F7200
G1 E2 F4800
G1 F6000
G1 X92.241 Y104.517 E2.53751
G1 E1.13751 F4800
;WIPE_START
G1 F5760
G1 X91.483 Y104.517 E.53751
;WIPE_END
G92 E0
G1 X92.529 Y93.43 F7200
G1 E2 F4800
;TYPE:Solid infill
;WIDTH:0.610898
G1 F7130.558
G2 X92.442 Y93.517 I-0.068 J0.019 E2.01340
G1 X92.51 Y93.499 E2.01672
;WIDTH:0.499999
G1 F8860.613
G1 X92.405 Y94.229 E2.04475
G1 X93.24 Y93.393 E2.08966
G1 X93.887 Y93.393 E2.11425
G1 X92.405 Y94.875 E2.19391
G1 X92.405 Y95.522 E2.2185
G1 X94.533 Y93.393 E2.3329
G1 X95.179 Y93.393 E2.35745
G1 X92.405 Y96.168 E2.50658
G1 X92.405 Y96.815 E2.53117
G1 X95.826 Y93.393 E2.71507
G1 X96.472 Y93.393 E2.73962
G1 X92.405 Y97.461 E2.95824
G1 X92.405 Y98.107 E2.98279
G1 X97.119 Y93.393 E3.23616
G1 X97.765 Y93.393 E3.26071
G1 X92.405 Y98.754 E3.54883
G1 X92.405 Y99.4 E3.57338
G1 X98.412 Y93.393 E3.89625
G1 X99.058 Y93.393 E3.9208
G1 X92.405 Y100.047 E4.27842
G1 X92.405 Y100.693 E4.30297
G1 X99.704 Y93.393 E4.69531
G1 X100.351 Y93.393 E4.7199
G1 X92.405 Y101.339 E5.14699
G1 X92.405 Y101.986 E5.17158
G1 X100.997 Y93.393 E5.63342
G1 X101.426 Y93.393 E5.64972
G1 X101.517 Y93.69 E5.66153
G3 X101.594 Y94.090 I-0.159 J0.238 E5.67893
G1 X101.043 Y94.64 E5.70852
G1 X130.543 Y94.64 E6.82971
G1 X130.543 Y93.393 E6.8771
G1 X101.654 Y93.393 E7.97506
G1 X102.02 Y93.819 E7.99641
;WIDTH:0.437955
G1 F9000
G1 X102.083 Y93.996 E8.00258
G1 X101.979 Y94.214 E8.01051
G1 X130.117 Y94.214 E8.93477
G1 X130.117 Y93.819 E8.94774
G1 X102.249 Y93.819 E9.86313
G1 X101.109 Y93.928 F7200
;WIDTH:0.499999
G1 F8860.613
G1 X92.405 Y102.632 E10.33096
G1 X92.405 Y103.279 E10.35555
G1 X100.652 Y95.032 E10.79882
G1 X100.652 Y95.678 E10.82337
G1 X92.489 Y103.841 E11.26212
G1 X92.608 Y104.368 E11.28265
G1 X100.652 Y96.324 E11.71501
G1 X100.652 Y96.971 E11.7396
G1 X92.608 Y105.014 E12.17193
G1 X92.405 Y105.864 E12.20514
G1 X100.652 Y97.617 E12.64841
G1 X100.652 Y98.264 E12.673
G1 X92.405 Y106.511 E13.11627
G1 X92.405 Y107.157 E13.14082
G1 X100.652 Y98.91 E13.58409
