;FLAVOR:Marlin
;TIME:1125
;Filament used: 0.394687m
;Layer height: 0.2
;Generated with Cura_SteamEngine 3.1.0
M190 S60
M104 S230
M109 S230
M82 ; absolute extrusion mode
G28 ;Home
G1 Z15.0 F6000 ;Move the platform down 15mm
;Prime the extruder
G92 E0
G1 F200 E3
G92 E0
;LAYER_COUNT:214
;LAYER:0
M107
G0 F3600 X110.424 Y99.51 Z0.2
;TYPE:SKIRT
G1 F1800 X110.879 Y99.071 E0.02103
G1 X111.387 Y98.694 E0.04207
G1 X111.937 Y98.383 E0.06308
G1 X112.523 Y98.145 E0.08412
G1 X113.133 Y97.982 E0.10512
G1 X113.76 Y97.897 E0.12617
G1 X114.392 Y97.893 E0.14719
G1 X115.02 Y97.968 E0.16822
G1 X115.633 Y98.122 E0.18925
G1 X116.222 Y98.351 E0.21026
G1 X116.777 Y98.654 E0.2313
G1 X117.289 Y99.024 E0.25231
G1 X117.751 Y99.455 E0.27332
G1 X118.155 Y99.942 E0.29437
G1 X118.494 Y100.475 E0.31538
G1 X118.763 Y101.047 E0.3364
G1 X118.997 Y101.812 E0.36301
G1 X119.488 Y104.047 E0.43912
G1 X119.584 Y104.672 E0.46015
G1 X119.601 Y105.304 E0.48118
G1 X119.537 Y105.933 E0.5022
G1 X119.396 Y106.549 E0.52322
G1 X119.177 Y107.142 E0.54425
G1 X118.885 Y107.703 E0.56528
G1 X118.525 Y108.222 E0.58629
G1 X118.102 Y108.692 E0.60732
G1 X117.624 Y109.105 E0.62833
G1 X117.097 Y109.454 E0.64936
G1 X116.53 Y109.734 E0.67039
G1 X115.932 Y109.94 E0.69142
G1 X115.314 Y110.069 E0.71242
G1 X114.973 Y110.106 E0.72383
G1 X113.528 Y110.213 E0.77202
G1 X112.896 Y110.22 E0.79304
G1 X112.268 Y110.147 E0.81407
G1 X111.655 Y109.995 E0.83508
G1 X111.065 Y109.767 E0.85612
G1 X110.509 Y109.467 E0.87713
G1 X109.995 Y109.099 E0.89816
G1 X109.532 Y108.668 E0.91919
G1 X109.127 Y108.183 E0.94021
G1 X108.786 Y107.651 E0.96123
G1 X108.515 Y107.08 E0.98225
G1 X108.318 Y106.479 E1.00328
G1 X108.199 Y105.858 E1.02432
G1 X108.159 Y105.227 E1.04534
G1 X108.199 Y104.596 E1.06637
G1 X108.318 Y103.976 E1.08737
G1 X108.515 Y103.375 E1.10841
G1 X108.875 Y102.648 E1.13539
G1 X109.129 Y102.226 E1.15177
G1 X109.25 Y101.721 E1.16904
G1 X109.436 Y101.117 E1.19006
G1 X109.697 Y100.541 E1.2111
G1 X110.028 Y100.002 E1.23213
G1 X110.424 Y99.51 E1.25314
G0 F3600 X110.787 Y99.707
G1 F1800 X111.234 Y99.298 E1.27329
G1 X111.731 Y98.95 E1.29347
G1 X112.269 Y98.671 E1.31363
G1 X112.839 Y98.465 E1.33379
G1 X113.431 Y98.336 E1.35394
G1 X114.036 Y98.286 E1.37413
G1 X114.641 Y98.315 E1.39428
G1 X115.238 Y98.425 E1.41447
G1 X115.814 Y98.611 E1.4346
G1 X116.362 Y98.872 E1.45479
G1 X116.87 Y99.203 E1.47495
G1 X117.33 Y99.597 E1.4951
G1 X117.735 Y100.049 E1.51528
G1 X118.076 Y100.55 E1.53544
G1 X118.349 Y101.092 E1.55562
G1 X118.606 Y101.898 E1.58376
G1 X119.097 Y104.133 E1.65987
G1 X119.188 Y104.732 E1.68002
G1 X119.199 Y105.339 E1.70021
G1 X119.13 Y105.941 E1.72037
G1 X118.983 Y106.529 E1.74053
G1 X118.759 Y107.093 E1.76071
G1 X118.464 Y107.622 E1.78086
G1 X118.101 Y108.108 E1.80103
G1 X117.678 Y108.542 E1.82119
G1 X117.201 Y108.917 E1.84137
G1 X116.679 Y109.225 E1.86153
G1 X116.121 Y109.463 E1.88171
G1 X115.537 Y109.624 E1.90185
G1 X114.944 Y109.707 E1.92177
G1 X113.499 Y109.814 E1.96996
G1 X112.892 Y109.819 E1.99015
G1 X112.291 Y109.744 E2.0103
G1 X111.704 Y109.591 E2.03047
G1 X111.143 Y109.362 E2.05063
G1 X110.617 Y109.061 E2.07078
G1 X110.135 Y108.693 E2.09095
G1 X109.705 Y108.265 E2.11113
G1 X109.335 Y107.784 E2.13131
G1 X109.032 Y107.259 E2.15148
G1 X108.801 Y106.699 E2.17162
G1 X108.645 Y106.113 E2.19179
G1 X108.568 Y105.512 E2.21195
G1 X108.57 Y104.905 E2.23213
G1 X108.652 Y104.305 E2.25228
G1 X108.813 Y103.72 E2.27246
G1 X109.049 Y103.161 E2.29264
G1 X109.218 Y102.855 E2.30427
G1 X109.503 Y102.381 E2.32266
G1 X109.639 Y101.814 E2.34205
G1 X109.819 Y101.235 E2.36222
G1 X110.073 Y100.685 E2.38237
G1 X110.398 Y100.172 E2.40257
G1 X110.787 Y99.707 E2.42273
G0 F3600 X111.148 Y99.91
G1 F1800 X111.586 Y99.53 E2.44202
G1 X112.072 Y99.215 E2.46128
G1 X112.596 Y98.969 E2.48054
G1 X113.149 Y98.797 E2.4998
G1 X113.721 Y98.703 E2.51908
G1 X114.3 Y98.689 E2.53834
G1 X114.876 Y98.755 E2.55762
G1 X115.437 Y98.899 E2.57689
G1 X115.973 Y99.119 E2.59616
G1 X116.473 Y99.411 E2.61542
G1 X116.929 Y99.769 E2.6347
G1 X117.331 Y100.186 E2.65396
G1 X117.672 Y100.654 E2.67322
G1 X117.945 Y101.165 E2.69249
G1 X118.215 Y101.984 E2.72117
G1 X118.706 Y104.219 E2.79728
G1 X118.791 Y104.792 E2.81655
G1 X118.796 Y105.371 E2.83581
G1 X118.722 Y105.946 E2.85509
G1 X118.569 Y106.504 E2.87434
G1 X118.341 Y107.037 E2.89362
G1 X118.042 Y107.533 E2.91288
G1 X117.677 Y107.983 E2.93215
G1 X117.254 Y108.379 E2.95142
G1 X116.78 Y108.712 E2.97069
G1 X116.265 Y108.978 E2.98997
G1 X115.719 Y109.169 E3.00921
G1 X114.914 Y109.309 E3.03638
G1 X113.469 Y109.416 E3.08458
G1 X112.89 Y109.418 E3.10383
G1 X112.316 Y109.341 E3.1231
G1 X111.758 Y109.186 E3.14236
G1 X111.226 Y108.956 E3.16164
G1 X110.731 Y108.654 E3.18092
G1 X110.283 Y108.288 E3.20016
G1 X109.889 Y107.863 E3.21944
G1 X109.557 Y107.388 E3.23871
G1 X109.294 Y106.872 E3.25798
G1 X109.105 Y106.324 E3.27726
G1 X108.992 Y105.756 E3.29652
G1 X108.959 Y105.178 E3.31577
G1 X109.006 Y104.6 E3.33506
G1 X109.132 Y104.035 E3.35432
G1 X109.334 Y103.492 E3.37358
G1 X109.561 Y103.061 E3.38979
G1 X109.875 Y102.539 E3.41005
G1 X109.879 Y102.53 E3.41038
G1 X110.028 Y101.907 E3.43168
G1 X110.202 Y101.354 E3.45096
G1 X110.45 Y100.831 E3.47021
G1 X110.767 Y100.346 E3.48949
G1 X111.148 Y99.91 E3.50874
G0 F3600 X111.135 Y100.524
G1 F1800 X111.508 Y100.118 E3.52708
G1 X111.936 Y99.771 E3.54541
G1 X112.409 Y99.489 E3.56372
G1 X112.918 Y99.278 E3.58205
G1 X113.452 Y99.143 E3.60037
G1 X114 Y99.087 E3.61869
G1 X114.551 Y99.11 E3.63703
G1 X115.092 Y99.213 E3.65535
G1 X115.613 Y99.393 E3.67368
G1 X116.102 Y99.647 E3.69201
G1 X116.549 Y99.969 E3.71033
G1 X116.945 Y100.352 E3.72866
G1 X117.282 Y100.788 E3.74699
G1 X117.552 Y101.268 E3.7653
G1 X117.75 Y101.783 E3.78365
G1 X117.824 Y102.07 E3.79351
G1 X118.315 Y104.305 E3.86962
G1 X118.394 Y104.85 E3.88794
G1 X118.394 Y105.401 E3.90626
G1 X118.313 Y105.946 E3.92459
G1 X118.155 Y106.474 E3.94292
G1 X117.922 Y106.973 E3.96124
G1 X117.619 Y107.433 E3.97956
G1 X117.252 Y107.845 E3.99791
G1 X116.831 Y108.199 E4.0162
G1 X116.362 Y108.489 E4.03454
G1 X115.856 Y108.708 E4.05288
G1 X115.324 Y108.851 E4.0712
G1 X114.885 Y108.91 E4.08594
G1 X113.44 Y109.017 E4.13413
G1 X112.889 Y109.017 E4.15246
G1 X112.343 Y108.938 E4.1708
G1 X111.815 Y108.781 E4.18913
G1 X111.315 Y108.55 E4.20745
G1 X110.854 Y108.248 E4.22578
G1 X110.441 Y107.883 E4.24411
G1 X110.086 Y107.462 E4.26242
G1 X109.795 Y106.994 E4.28075
G1 X109.575 Y106.489 E4.29907
G1 X109.43 Y105.957 E4.31741
G1 X109.363 Y105.411 E4.33571
G1 X109.377 Y104.86 E4.35404
G1 X109.47 Y104.317 E4.37237
G1 X109.64 Y103.793 E4.39069
G1 X109.903 Y103.267 E4.41025
G1 X110.236 Y102.713 E4.43175
G1 X110.26 Y102.657 E4.43377
G1 X110.417 Y102 E4.45624
G1 X110.584 Y101.475 E4.47456
G1 X110.825 Y100.98 E4.49288
G1 X111.135 Y100.524 E4.51121
G0 F3600 X111.502 Y100.707
G1 F1800 X111.866 Y100.334 E4.52855
G1 X112.282 Y100.02 E4.54588
G1 X112.741 Y99.774 E4.56321
G1 X113.233 Y99.601 E4.58055
G1 X113.745 Y99.505 E4.59788
G1 X114.266 Y99.488 E4.61522
G1 X114.783 Y99.552 E4.63254
G1 X115.285 Y99.693 E4.64988
G1 X115.759 Y99.91 E4.66722
G1 X116.194 Y100.196 E4.68454
G1 X116.581 Y100.546 E4.70189
G1 X116.909 Y100.951 E4.71923
G1 X117.172 Y101.401 E4.73656
G1 X117.363 Y101.886 E4.7539
G1 X117.434 Y102.155 E4.76315
G1 X117.925 Y104.39 E4.83926
G1 X117.997 Y104.907 E4.85662
G1 X117.99 Y105.428 E4.87395
G1 X117.903 Y105.942 E4.89129
G1 X117.739 Y106.436 E4.90861
G1 X117.501 Y106.9 E4.92595
G1 X117.195 Y107.322 E4.94329
G1 X116.828 Y107.692 E4.96062
G1 X116.409 Y108.001 E4.97794
G1 X115.947 Y108.243 E4.99528
G1 X115.454 Y108.412 E5.01262
G1 X114.855 Y108.511 E5.03281
G1 X113.41 Y108.618 E5.081
G1 X112.889 Y108.616 E5.09833
G1 X112.374 Y108.535 E5.11567
G1 X111.878 Y108.376 E5.13299
G1 X111.411 Y108.144 E5.15034
G1 X110.986 Y107.842 E5.16768
G1 X110.612 Y107.479 E5.18501
G1 X110.298 Y107.064 E5.20232
G1 X110.051 Y106.605 E5.21966
G1 X109.877 Y106.114 E5.23699
G1 X109.78 Y105.602 E5.25432
G1 X109.762 Y105.081 E5.27166
G1 X109.824 Y104.563 E5.28901
G1 X109.965 Y104.062 E5.30632
G1 X110.246 Y103.474 E5.32799
G1 X110.591 Y102.901 E5.35024
G1 X110.642 Y102.778 E5.35467
G1 X110.806 Y102.093 E5.3781
G1 X110.966 Y101.597 E5.39543
G1 X111.2 Y101.132 E5.41274
G1 X111.502 Y100.707 E5.43008
G0 F3600 X111.868 Y100.896
G1 F1800 X112.221 Y100.557 E5.44636
G1 X112.625 Y100.28 E5.46265
G1 X113.068 Y100.073 E5.47892
G1 X113.539 Y99.94 E5.4952
G1 X114.026 Y99.886 E5.51149
G1 X114.515 Y99.912 E5.52778
G1 X114.993 Y100.017 E5.54406
G1 X115.447 Y100.198 E5.56031
G1 X115.867 Y100.451 E5.57662
G1 X116.239 Y100.769 E5.5929
G1 X116.555 Y101.142 E5.60916
G1 X116.806 Y101.563 E5.62546
G1 X117.043 Y102.241 E5.64935
G1 X117.534 Y104.476 E5.72546
G1 X117.6 Y104.961 E5.74174
G1 X117.586 Y105.451 E5.75804
G1 X117.492 Y105.931 E5.77431
G1 X117.322 Y106.39 E5.79059
G1 X117.079 Y106.815 E5.80687
G1 X116.771 Y107.195 E5.82314
G1 X116.404 Y107.52 E5.83945
G1 X115.99 Y107.781 E5.85572
G1 X115.539 Y107.971 E5.872
G1 X114.826 Y108.112 E5.89618
G1 X113.381 Y108.219 E5.94437
G1 X112.891 Y108.215 E5.96067
G1 X112.409 Y108.132 E5.97693
G1 X111.946 Y107.971 E5.99324
G1 X111.516 Y107.737 E6.00952
G1 X111.13 Y107.437 E6.02578
G1 X110.798 Y107.077 E6.04207
G1 X110.528 Y106.669 E6.05834
G1 X110.329 Y106.222 E6.07461
G1 X110.205 Y105.748 E6.09091
G1 X110.159 Y105.261 E6.10718
G1 X110.194 Y104.773 E6.12345
G1 X110.307 Y104.296 E6.13976
G1 X110.589 Y103.68 E6.16229
G1 X110.95 Y103.08 E6.18558
G1 X111.024 Y102.903 E6.19196
G1 X111.195 Y102.187 E6.21644
G1 X111.348 Y101.721 E6.23276
G1 X111.574 Y101.287 E6.24903
G1 X111.868 Y100.896 E6.2653
G0 F3600 X112.231 Y101.091
G1 F1800 X112.573 Y100.79 E6.28046
G1 X112.962 Y100.554 E6.29559
G1 X113.387 Y100.388 E6.31077
G1 X113.834 Y100.3 E6.32592
G1 X114.289 Y100.291 E6.34105
G1 X114.74 Y100.362 E6.35624
G1 X115.17 Y100.51 E6.37136
G1 X115.569 Y100.731 E6.38653
G1 X115.923 Y101.018 E6.40169
G1 X116.221 Y101.363 E6.41686
G1 X116.454 Y101.754 E6.43199
G1 X116.652 Y102.327 E6.45216
G1 X117.143 Y104.562 E6.52827
G1 X117.202 Y105.014 E6.54343
G1 X117.18 Y105.469 E6.55858
G1 X117.08 Y105.914 E6.57375
G1 X116.903 Y106.334 E6.58891
G1 X116.656 Y106.716 E6.60404
G1 X116.346 Y107.05 E6.61919
G1 X115.982 Y107.325 E6.63437
G1 X115.576 Y107.531 E6.64951
G1 X115.14 Y107.664 E6.66467
G1 X114.796 Y107.713 E6.67623
G1 X113.351 Y107.82 E6.72442
G1 X112.895 Y107.814 E6.73959
G1 X112.448 Y107.728 E6.75473
G1 X112.022 Y107.565 E6.7699
G1 X111.632 Y107.331 E6.78503
G1 X111.288 Y107.032 E6.80019
G1 X111.001 Y106.678 E6.81534
G1 X110.781 Y106.279 E6.8305
G1 X110.634 Y105.847 E6.84567
G1 X110.565 Y105.397 E6.86082
G1 X110.575 Y104.942 E6.87595
G1 X110.664 Y104.495 E6.89111
G1 X110.931 Y103.886 E6.91323
G1 X111.308 Y103.259 E6.93756
G1 X111.406 Y103.024 E6.94603
G1 X111.584 Y102.28 E6.97148
G1 X111.729 Y101.848 E6.98663
G1 X111.947 Y101.447 E7.00181
G1 X112.231 Y101.091 E7.01696
G0 F3600 X112.592 Y101.296
G1 F1800 X112.921 Y101.036 E7.03091
G1 X113.293 Y100.844 E7.04483
G1 X113.695 Y100.725 E7.05877
G1 X114.112 Y100.685 E7.07271
G1 X114.529 Y100.725 E7.08664
G1 X114.931 Y100.843 E7.10057
G1 X115.304 Y101.035 E7.11453
G1 X115.633 Y101.294 E7.12845
G1 X115.907 Y101.611 E7.14239
G1 X116.116 Y101.975 E7.15635
G1 X116.262 Y102.413 E7.17171
G1 X116.753 Y104.648 E7.24782
G1 X116.803 Y105.064 E7.26175
G1 X116.774 Y105.482 E7.27569
G1 X116.666 Y105.887 E7.28963
G1 X116.483 Y106.264 E7.30357
G1 X116.232 Y106.599 E7.31749
G1 X115.922 Y106.881 E7.33143
G1 X115.564 Y107.099 E7.34537
G1 X115.172 Y107.246 E7.35929
G1 X114.766 Y107.314 E7.37299
G1 X113.321 Y107.421 E7.42118
G1 X112.903 Y107.412 E7.43508
G1 X112.493 Y107.324 E7.44903
G1 X112.107 Y107.159 E7.46299
G1 X111.76 Y106.925 E7.47691
G1 X111.463 Y106.629 E7.49086
G1 X111.228 Y106.282 E7.5048
G1 X111.063 Y105.897 E7.51873
G1 X110.974 Y105.487 E7.53269
G1 X110.965 Y105.068 E7.54662
G1 X111.035 Y104.655 E7.56056
G1 X111.274 Y104.092 E7.5809
G1 X111.669 Y103.436 E7.60637
G1 X111.787 Y103.152 E7.6166
G1 X111.973 Y102.373 E7.64324
G1 X112.109 Y101.976 E7.65719
G1 X112.318 Y101.613 E7.67112
G1 X112.592 Y101.296 E7.68506
G0 F3600 X112.688 Y101.786
G1 F1800 X112.949 Y101.512 E7.69765
G1 X113.262 Y101.299 E7.71024
G1 X113.613 Y101.156 E7.72284
G1 X113.987 Y101.089 E7.73548
G1 X114.365 Y101.103 E7.74806
G1 X114.733 Y101.195 E7.76068
G1 X115.073 Y101.362 E7.77328
G1 X115.37 Y101.597 E7.78587
G1 X115.612 Y101.889 E7.79849
G1 X115.788 Y102.225 E7.8111
G1 X115.871 Y102.499 E7.82063
G1 X116.362 Y104.734 E7.89674
G1 X116.404 Y105.11 E7.90932
G1 X116.366 Y105.487 E7.92192
G1 X116.25 Y105.848 E7.93453
G1 X116.061 Y106.177 E7.94715
G1 X115.808 Y106.458 E7.95973
G1 X115.501 Y106.681 E7.97235
G1 X115.154 Y106.834 E7.98496
G1 X114.737 Y106.915 E7.99909
G1 X113.292 Y107.022 E8.04728
G1 X112.913 Y107.01 E8.0599
G1 X112.545 Y106.919 E8.0725
G1 X112.205 Y106.753 E8.08509
G1 X111.906 Y106.52 E8.0977
G1 X111.663 Y106.229 E8.11031
G1 X111.487 Y105.893 E8.12292
G1 X111.384 Y105.529 E8.1355
G1 X111.361 Y105.15 E8.14813
G1 X111.417 Y104.776 E8.16071
G1 X111.617 Y104.299 E8.17791
G1 X112.024 Y103.624 E8.20413
G1 X112.169 Y103.273 E8.21676
G1 X112.362 Y102.466 E8.24436
G1 X112.489 Y102.109 E8.25696
G1 X112.688 Y101.786 E8.26958
G0 F3600 X113.054 Y101.969
G1 F1800 X113.302 Y101.744 E8.28072
G1 X113.595 Y101.584 E8.29182
G1 X113.918 Y101.499 E8.30293
G1 X114.252 Y101.492 E8.31404
G1 X114.578 Y101.564 E8.32514
G1 X114.878 Y101.712 E8.33627
G1 X115.134 Y101.927 E8.34739
G1 X115.332 Y102.196 E8.3585
G1 X115.48 Y102.585 E8.37234
G1 X115.971 Y104.82 E8.44845
G1 X116.004 Y105.152 E8.45955
G1 X115.956 Y105.483 E8.47067
G1 X115.832 Y105.793 E8.48178
G1 X115.637 Y106.065 E8.49291
G1 X115.384 Y106.282 E8.504
G1 X115.087 Y106.434 E8.51509
G1 X114.707 Y106.516 E8.52802
G1 X113.262 Y106.623 E8.57621
G1 X112.929 Y106.608 E8.5873
G1 X112.608 Y106.514 E8.59843
G1 X112.319 Y106.347 E8.60953
G1 X112.077 Y106.116 E8.62065
G1 X111.898 Y105.834 E8.63176
G1 X111.79 Y105.518 E8.64287
G1 X111.76 Y105.186 E8.65396
G1 X111.809 Y104.855 E8.66509
G1 X111.96 Y104.505 E8.67777
G1 X112.383 Y103.803 E8.70503
G1 X112.55 Y103.4 E8.71953
G1 X112.751 Y102.559 E8.74829
G1 X112.867 Y102.246 E8.7594
G1 X113.054 Y101.969 E8.77051
G0 F3600 X113.417 Y102.167
G1 F1800 X113.645 Y102.001 E8.77989
G1 X113.911 Y101.906 E8.78929
G1 X114.192 Y101.888 E8.79865
G1 X114.468 Y101.95 E8.80806
G1 X114.715 Y102.086 E8.81744
G1 X114.914 Y102.286 E8.82682
G1 X115.049 Y102.534 E8.83621
G1 X115.09 Y102.67 E8.84094
G1 X115.581 Y104.905 E8.91705
G1 X115.602 Y105.187 E8.92645
G1 X115.543 Y105.463 E8.93584
G1 X115.41 Y105.712 E8.94523
G1 X115.213 Y105.913 E8.95459
G1 X114.967 Y106.052 E8.96399
G1 X114.678 Y106.117 E8.97384
G1 X113.233 Y106.224 E9.02203
G1 X112.951 Y106.205 E9.03143
G1 X112.686 Y106.108 E9.04082
G1 X112.459 Y105.941 E9.05019
G1 X112.287 Y105.717 E9.05959
G1 X112.185 Y105.454 E9.06897
G1 X112.16 Y105.173 E9.07835
G1 X112.215 Y104.896 E9.08774
G1 X112.302 Y104.711 E9.09454
G1 X112.741 Y103.982 E9.12285
G1 X112.932 Y103.521 E9.13944
G1 X113.14 Y102.652 E9.16916
G1 X113.244 Y102.39 E9.17854
G1 X113.417 Y102.167 E9.18793
G0 F3600 X113.618 Y102.546
G1 F1800 X113.772 Y102.391 E9.19519
G1 X113.971 Y102.302 E9.20244
G1 X114.189 Y102.29 E9.20971
G1 X114.397 Y102.356 E9.21696
G1 X114.567 Y102.493 E9.22423
G1 X114.699 Y102.756 E9.23401
G1 X115.19 Y104.991 E9.31012
G1 X115.197 Y105.209 E9.31738
G1 X115.126 Y105.416 E9.32466
G1 X114.986 Y105.583 E9.3319
G1 X114.795 Y105.689 E9.33917
G1 X114.648 Y105.718 E9.34415
G1 X113.203 Y105.825 E9.39234
G1 X112.986 Y105.802 E9.3996
G1 X112.792 Y105.702 E9.40686
