;FLAVOR:Marlin
;TIME:1133
;Filament used: 0.394748m
;Layer height: 0.2
;Generated with Cura_SteamEngine 3.1.0
M190 S60
M104 S230
M109 S230
M82 ; absolute extrusion mode
G28 ;Home
G1 Z15.0 F6000 ;Move the platform down 15mm
;Prime the extruder
G92 E0
G1 F200 E3
G92 E0
;LAYER_COUNT:214
;LAYER:0
M107
G0 F3600 X109.642 Y105.229 Z0.2
;TYPE:SKIRT
G1 F1800 X110.118 Y104.813 E0.02103
G1 X110.643 Y104.461 E0.04205
G1 X111.208 Y104.177 E0.06308
G1 X111.804 Y103.967 E0.0841
G1 X112.422 Y103.834 E0.10512
G1 X113.052 Y103.78 E0.12616
G1 X113.539 Y103.793 E0.14236
G1 X114.986 Y103.902 E0.19062
G1 X115.612 Y103.989 E0.21164
G1 X116.222 Y104.155 E0.23267
G1 X116.806 Y104.396 E0.25368
G1 X117.355 Y104.709 E0.2747
G1 X117.861 Y105.089 E0.29575
G1 X118.314 Y105.529 E0.31675
G1 X118.708 Y106.024 E0.3378
G1 X119.037 Y106.564 E0.35883
G1 X119.295 Y107.141 E0.37985
G1 X119.478 Y107.746 E0.40087
G1 X119.583 Y108.369 E0.42188
G1 X119.609 Y109.001 E0.44292
G1 X119.555 Y109.63 E0.46392
G1 X119.489 Y109.983 E0.47587
G1 X118.993 Y112.193 E0.5512
G1 X118.815 Y112.8 E0.57224
G1 X118.563 Y113.379 E0.59324
G1 X118.24 Y113.923 E0.61428
G1 X117.85 Y114.421 E0.63532
G1 X117.401 Y114.865 E0.65632
G1 X116.9 Y115.25 E0.67734
G1 X116.354 Y115.568 E0.69835
G1 X115.772 Y115.815 E0.71938
G1 X115.163 Y115.987 E0.74043
G1 X114.538 Y116.08 E0.76145
G1 X113.906 Y116.094 E0.78247
G1 X113.277 Y116.028 E0.80351
G1 X112.662 Y115.883 E0.82452
G1 X112.07 Y115.661 E0.84555
G1 X111.511 Y115.367 E0.86656
G1 X110.993 Y115.004 E0.8876
G1 X110.525 Y114.579 E0.90862
G1 X110.114 Y114.098 E0.92967
G1 X109.768 Y113.57 E0.95066
G1 X109.491 Y113.002 E0.97168
G1 X109.239 Y112.211 E0.99929
G1 X109.174 Y111.926 E1.00902
G1 X109.008 Y111.554 E1.02256
G1 X108.718 Y111.069 E1.04136
G1 X108.465 Y110.489 E1.06241
G1 X108.286 Y109.883 E1.08342
G1 X108.186 Y109.259 E1.10444
G1 X108.165 Y108.627 E1.12547
G1 X108.224 Y107.998 E1.14649
G1 X108.362 Y107.381 E1.16751
G1 X108.577 Y106.786 E1.18856
G1 X108.865 Y106.224 E1.20956
G1 X109.222 Y105.702 E1.23059
G1 X109.642 Y105.229 E1.25163
G0 F3600 X110.123 Y105.327
G1 F1800 X110.603 Y104.957 E1.27179
G1 X111.128 Y104.654 E1.29195
G1 X111.688 Y104.422 E1.31211
G1 X112.274 Y104.266 E1.33228
G1 X112.875 Y104.188 E1.35244
G1 X113.509 Y104.192 E1.37353
G1 X114.956 Y104.301 E1.42179
G1 X115.556 Y104.386 E1.44194
G1 X116.14 Y104.55 E1.46212
G1 X116.697 Y104.789 E1.48228
G1 X117.218 Y105.099 E1.50244
G1 X117.694 Y105.475 E1.52262
G1 X118.116 Y105.91 E1.54278
G1 X118.477 Y106.397 E1.56294
G1 X118.771 Y106.927 E1.5831
G1 X118.993 Y107.491 E1.60326
G1 X119.138 Y108.08 E1.62343
G1 X119.205 Y108.682 E1.64358
G1 X119.193 Y109.289 E1.66377
G1 X119.098 Y109.895 E1.68417
G1 X118.602 Y112.105 E1.75951
G1 X118.431 Y112.687 E1.77968
G1 X118.184 Y113.241 E1.79986
G1 X117.867 Y113.758 E1.82003
G1 X117.485 Y114.228 E1.84017
G1 X117.044 Y114.644 E1.86034
G1 X116.552 Y114.999 E1.88051
G1 X116.018 Y115.286 E1.90068
G1 X115.451 Y115.5 E1.92083
G1 X114.86 Y115.637 E1.94101
G1 X114.257 Y115.696 E1.96116
G1 X113.651 Y115.675 E1.98133
G1 X113.053 Y115.574 E2.0015
G1 X112.473 Y115.395 E2.02169
G1 X111.922 Y115.142 E2.04186
G1 X111.41 Y114.819 E2.06199
G1 X110.944 Y114.431 E2.08216
G1 X110.533 Y113.985 E2.10233
G1 X110.184 Y113.489 E2.1225
G1 X109.904 Y112.951 E2.14268
G1 X109.629 Y112.122 E2.17173
G1 X109.556 Y111.801 E2.18268
G1 X109.365 Y111.373 E2.19826
G1 X109.062 Y110.863 E2.218
G1 X108.824 Y110.306 E2.23814
G1 X108.661 Y109.722 E2.25831
G1 X108.576 Y109.122 E2.27846
G1 X108.571 Y108.515 E2.29865
G1 X108.645 Y107.914 E2.31879
G1 X108.798 Y107.327 E2.33897
G1 X109.027 Y106.766 E2.35912
G1 X109.328 Y106.239 E2.37931
G1 X109.695 Y105.757 E2.39946
G1 X110.123 Y105.327 E2.41964
G0 F3600 X110.172 Y105.83
G1 F1800 X110.606 Y105.447 E2.43889
G1 X111.089 Y105.127 E2.45816
G1 X111.611 Y104.876 E2.47742
G1 X112.163 Y104.7 E2.49669
G1 X112.734 Y104.601 E2.51597
G1 X113.478 Y104.591 E2.54072
G1 X114.925 Y104.7 E2.58898
G1 X115.499 Y104.783 E2.60827
G1 X116.055 Y104.944 E2.62752
G1 X116.584 Y105.181 E2.6468
G1 X117.075 Y105.488 E2.66606
G1 X117.52 Y105.859 E2.68533
G1 X117.909 Y106.289 E2.70462
G1 X118.235 Y106.767 E2.72386
G1 X118.493 Y107.286 E2.74314
G1 X118.676 Y107.836 E2.76242
G1 X118.782 Y108.405 E2.78167
G1 X118.809 Y108.984 E2.80095
G1 X118.708 Y109.808 E2.82856
G1 X118.212 Y112.018 E2.90389
G1 X118.047 Y112.573 E2.92315
G1 X117.806 Y113.1 E2.94242
G1 X117.496 Y113.589 E2.96168
G1 X117.121 Y114.031 E2.98096
G1 X116.688 Y114.416 E3.00023
G1 X116.207 Y114.739 E3.0195
G1 X115.686 Y114.993 E3.03878
G1 X115.136 Y115.172 E3.05802
G1 X114.565 Y115.274 E3.07731
G1 X113.986 Y115.296 E3.09658
G1 X113.41 Y115.239 E3.11583
G1 X112.847 Y115.102 E3.1351
G1 X112.308 Y114.89 E3.15437
G1 X111.803 Y114.605 E3.17366
G1 X111.343 Y114.254 E3.1929
G1 X110.935 Y113.843 E3.21216
G1 X110.587 Y113.379 E3.23145
G1 X110.307 Y112.872 E3.25072
G1 X110.099 Y112.331 E3.26999
G1 X110.019 Y112.033 E3.28026
G1 X109.937 Y111.675 E3.29247
G1 X109.715 Y111.178 E3.31058
G1 X109.702 Y111.158 E3.31137
G1 X109.407 Y110.659 E3.33065
G1 X109.184 Y110.124 E3.34993
G1 X109.037 Y109.564 E3.36919
G1 X108.968 Y108.989 E3.38845
G1 X108.979 Y108.41 E3.40771
G1 X109.07 Y107.838 E3.42697
G1 X109.238 Y107.283 E3.44626
G1 X109.482 Y106.757 E3.46554
G1 X109.795 Y106.27 E3.4848
G1 X110.172 Y105.83 E3.50407
G0 F3600 X110.653 Y105.926
G1 F1800 X111.091 Y105.593 E3.52237
G1 X111.574 Y105.327 E3.54071
G1 X112.09 Y105.134 E3.55903
G1 X112.628 Y105.017 E3.57735
G1 X113.448 Y104.99 E3.60463
G1 X114.895 Y105.099 E3.6529
G1 X115.44 Y105.18 E3.67122
G1 X115.968 Y105.339 E3.68956
G1 X116.467 Y105.573 E3.70789
G1 X116.927 Y105.876 E3.72622
G1 X117.338 Y106.243 E3.74454
G1 X117.692 Y106.665 E3.76286
G1 X117.981 Y107.134 E3.78119
G1 X118.199 Y107.64 E3.79951
G1 X118.342 Y108.172 E3.81783
G1 X118.406 Y108.72 E3.83618
G1 X118.391 Y109.27 E3.85448
G1 X118.318 Y109.72 E3.86965
G1 X117.822 Y111.93 E3.94498
G1 X117.662 Y112.458 E3.96333
G1 X117.429 Y112.956 E3.98162
G1 X117.125 Y113.416 E3.99995
G1 X116.758 Y113.827 E4.01828
G1 X116.335 Y114.181 E4.03663
G1 X115.866 Y114.47 E4.05495
G1 X115.36 Y114.688 E4.07327
G1 X114.828 Y114.83 E4.09159
G1 X114.281 Y114.894 E4.10991
G1 X113.73 Y114.879 E4.12824
G1 X113.187 Y114.783 E4.14658
G1 X112.664 Y114.61 E4.1649
G1 X112.171 Y114.364 E4.18323
G1 X111.719 Y114.049 E4.20155
G1 X111.318 Y113.671 E4.21988
G1 X110.975 Y113.24 E4.2382
G1 X110.698 Y112.763 E4.25655
G1 X110.493 Y112.252 E4.27486
G1 X110.409 Y111.944 E4.28548
G1 X110.318 Y111.545 E4.29909
G1 X110.069 Y110.986 E4.31944
G1 X110.031 Y110.931 E4.32167
G1 X109.753 Y110.456 E4.33997
G1 X109.546 Y109.945 E4.35831
G1 X109.416 Y109.41 E4.37662
G1 X109.364 Y108.861 E4.39496
G1 X109.392 Y108.311 E4.41328
G1 X109.499 Y107.771 E4.43159
G1 X109.684 Y107.251 E4.44995
G1 X109.941 Y106.764 E4.46826
G1 X110.266 Y106.319 E4.48659
G1 X110.653 Y105.926 E4.50493
G0 F3600 X110.743 Y106.391
G1 F1800 X111.136 Y106.049 E4.52226
G1 X111.577 Y105.771 E4.5396
G1 X112.055 Y105.564 E4.55693
G1 X112.56 Y105.433 E4.57428
G1 X113.078 Y105.38 E4.5916
G1 X113.418 Y105.389 E4.60291
G1 X114.865 Y105.498 E4.65117
G1 X115.381 Y105.576 E4.66853
G1 X115.878 Y105.733 E4.68587
G1 X116.345 Y105.964 E4.70319
G1 X116.771 Y106.263 E4.7205
G1 X117.147 Y106.625 E4.73786
G1 X117.463 Y107.039 E4.75519
G1 X117.712 Y107.497 E4.77253
G1 X117.888 Y107.987 E4.78984
G1 X117.988 Y108.499 E4.80719
G1 X118.007 Y109.02 E4.82453
G1 X117.927 Y109.633 E4.84509
G1 X117.431 Y111.843 E4.92043
G1 X117.279 Y112.341 E4.93775
G1 X117.052 Y112.81 E4.95508
G1 X116.755 Y113.239 E4.97243
G1 X116.397 Y113.617 E4.98975
G1 X115.985 Y113.937 E5.0071
G1 X115.53 Y114.189 E5.0244
G1 X115.041 Y114.369 E5.04173
G1 X114.53 Y114.472 E5.05907
G1 X114.009 Y114.496 E5.07641
G1 X113.491 Y114.44 E5.09374
G1 X112.987 Y114.306 E5.11109
G1 X112.51 Y114.096 E5.12842
G1 X112.071 Y113.816 E5.14574
G1 X111.68 Y113.472 E5.16306
G1 X111.346 Y113.072 E5.18039
G1 X111.076 Y112.625 E5.19776
G1 X110.879 Y112.143 E5.21508
G1 X110.799 Y111.855 E5.22502
G1 X110.699 Y111.419 E5.2399
G1 X110.418 Y110.788 E5.26287
G1 X110.361 Y110.705 E5.26622
G1 X110.1 Y110.254 E5.28355
G1 X109.91 Y109.768 E5.30091
G1 X109.797 Y109.26 E5.31822
G1 X109.763 Y108.74 E5.33555
G1 X109.809 Y108.221 E5.35288
G1 X109.934 Y107.715 E5.37022
G1 X110.135 Y107.234 E5.38756
G1 X110.406 Y106.789 E5.40489
G1 X110.743 Y106.391 E5.42223
G0 F3600 X111.224 Y106.49
G1 F1800 X111.622 Y106.205 E5.43851
G1 X112.061 Y105.989 E5.45479
G1 X112.529 Y105.847 E5.47105
G1 X113.015 Y105.783 E5.48736
G1 X113.388 Y105.787 E5.49976
G1 X114.835 Y105.896 E5.54803
G1 X115.319 Y105.973 E5.56433
G1 X115.783 Y106.127 E5.58059
G1 X116.217 Y106.355 E5.59689
G1 X116.607 Y106.65 E5.61316
G1 X116.945 Y107.004 E5.62944
G1 X117.22 Y107.409 E5.64572
G1 X117.426 Y107.853 E5.662
G1 X117.557 Y108.325 E5.67829
G1 X117.609 Y108.811 E5.69455
G1 X117.582 Y109.3 E5.71084
G1 X117.537 Y109.545 E5.71912
G1 X117.041 Y111.755 E5.79445
G1 X116.895 Y112.222 E5.81073
G1 X116.676 Y112.66 E5.82702
G1 X116.388 Y113.055 E5.84327
G1 X116.039 Y113.399 E5.85957
G1 X115.639 Y113.681 E5.87585
G1 X115.199 Y113.895 E5.89212
G1 X114.729 Y114.034 E5.90843
G1 X114.244 Y114.095 E5.92468
G1 X113.755 Y114.076 E5.94096
G1 X113.275 Y113.978 E5.95726
G1 X112.818 Y113.804 E5.97352
G1 X112.395 Y113.557 E5.98981
G1 X112.018 Y113.244 E6.00611
G1 X111.697 Y112.875 E6.02238
G1 X111.44 Y112.458 E6.03867
G1 X111.255 Y112.005 E6.05494
G1 X111.189 Y111.766 E6.06319
G1 X111.081 Y111.293 E6.07933
G1 X110.767 Y110.588 E6.105
G1 X110.691 Y110.478 E6.10944
G1 X110.447 Y110.054 E6.12571
G1 X110.276 Y109.595 E6.142
G1 X110.182 Y109.115 E6.15827
G1 X110.167 Y108.625 E6.17458
G1 X110.232 Y108.14 E6.19085
G1 X110.375 Y107.672 E6.20713
G1 X110.592 Y107.233 E6.22342
G1 X110.877 Y106.836 E6.23967
G1 X111.224 Y106.49 E6.25597
G0 F3600 X111.355 Y106.911
G1 F1800 X111.708 Y106.624 E6.2711
G1 X112.107 Y106.403 E6.28627
G1 X112.538 Y106.255 E6.30143
G1 X112.988 Y106.185 E6.31658
G1 X113.358 Y106.186 E6.32888
G1 X114.805 Y106.295 E6.37715
G1 X115.255 Y106.369 E6.39231
G1 X115.685 Y106.521 E6.40748
G1 X116.081 Y106.744 E6.4226
G1 X116.433 Y107.034 E6.43777
G1 X116.729 Y107.381 E6.45294
G1 X116.959 Y107.774 E6.46808
G1 X117.118 Y108.201 E6.48324
G1 X117.199 Y108.649 E6.49838
G1 X117.201 Y109.105 E6.51355
G1 X117.147 Y109.457 E6.52539
G1 X116.651 Y111.667 E6.60072
G1 X116.513 Y112.101 E6.61587
G1 X116.301 Y112.505 E6.63105
G1 X116.021 Y112.865 E6.64622
G1 X115.684 Y113.171 E6.66135
G1 X115.298 Y113.413 E6.67651
G1 X114.875 Y113.584 E6.69168
G1 X114.43 Y113.679 E6.70682
G1 X113.974 Y113.694 E6.72199
G1 X113.523 Y113.63 E6.73714
G1 X113.09 Y113.488 E6.7523
G1 X112.689 Y113.273 E6.76743
G1 X112.331 Y112.99 E6.78261
G1 X112.028 Y112.65 E6.79776
G1 X111.789 Y112.262 E6.81291
G1 X111.579 Y111.677 E6.83359
G1 X111.463 Y111.167 E6.85098
G1 X111.118 Y110.395 E6.87911
G1 X111.02 Y110.252 E6.88487
G1 X110.796 Y109.855 E6.90003
G1 X110.645 Y109.425 E6.91519
G1 X110.57 Y108.976 E6.93033
G1 X110.576 Y108.52 E6.9455
G1 X110.661 Y108.073 E6.96064
G1 X110.823 Y107.647 E6.97579
G1 X111.056 Y107.255 E6.99096
G1 X111.355 Y106.911 E7.00612
G0 F3600 X111.528 Y107.307
G1 F1800 X111.837 Y107.023 E7.02008
G1 X112.194 Y106.804 E7.03401
G1 X112.586 Y106.656 E7.04795
G1 X112.999 Y106.585 E7.06188
G1 X113.328 Y106.585 E7.07283
G1 X114.775 Y106.694 E7.12109
G1 X115.188 Y106.765 E7.13503
G1 X115.58 Y106.913 E7.14896
G1 X115.937 Y107.133 E7.16291
G1 X116.246 Y107.417 E7.17687
G1 X116.495 Y107.754 E7.19081
G1 X116.676 Y108.132 E7.20475
G1 X116.782 Y108.537 E7.21867
G1 X116.809 Y108.955 E7.2326
G1 X116.757 Y109.37 E7.24651
G1 X116.261 Y111.58 E7.32185
G1 X116.13 Y111.978 E7.33578
G1 X115.927 Y112.344 E7.3497
G1 X115.658 Y112.666 E7.36366
G1 X115.332 Y112.93 E7.37761
G1 X114.963 Y113.128 E7.39154
G1 X114.563 Y113.252 E7.40547
G1 X114.146 Y113.298 E7.41942
G1 X113.729 Y113.264 E7.43334
G1 X113.325 Y113.152 E7.44728
G1 X112.95 Y112.965 E7.46122
G1 X112.617 Y112.71 E7.47517
G1 X112.338 Y112.397 E7.48911
G1 X112.124 Y112.037 E7.50304
G1 X111.969 Y111.588 E7.51884
G1 X111.843 Y111.037 E7.53764
G1 X111.469 Y110.198 E7.56819
G1 X111.35 Y110.025 E7.57518
G1 X111.147 Y109.659 E7.5891
G1 X111.016 Y109.26 E7.60306
G1 X110.964 Y108.845 E7.61698
G1 X110.991 Y108.427 E7.63091
G1 X111.098 Y108.021 E7.64487
G1 X111.279 Y107.643 E7.65881
G1 X111.528 Y107.307 E7.67272
G0 F3600 X112.008 Y107.398
G1 F1800 X112.323 Y107.187 E7.68533
G1 X112.675 Y107.046 E7.69794
G1 X113.048 Y106.983 E7.71052
G1 X113.298 Y106.984 E7.71884
G1 X114.745 Y107.093 E7.7671
G1 X115.118 Y107.161 E7.77971
G1 X115.468 Y107.306 E7.79231
G1 X115.78 Y107.521 E7.80492
G1 X116.041 Y107.796 E7.81753
G1 X116.238 Y108.12 E7.83014
G1 X116.363 Y108.477 E7.84272
G1 X116.41 Y108.853 E7.85532
G1 X116.366 Y109.282 E7.86967
G1 X115.87 Y111.492 E7.945
G1 X115.749 Y111.851 E7.9576
G1 X115.555 Y112.177 E7.97022
G1 X115.297 Y112.454 E7.98281
G1 X114.987 Y112.672 E7.99541
G1 X114.638 Y112.82 E8.00802
G1 X114.266 Y112.892 E8.02062
G1 X113.887 Y112.884 E8.03323
G1 X113.518 Y112.797 E8.04584
G1 X113.176 Y112.634 E8.05844
G1 X112.875 Y112.404 E8.07104
G1 X112.629 Y112.115 E8.08366
G1 X112.449 Y111.782 E8.09625
G1 X112.359 Y111.499 E8.10613
G1 X112.225 Y110.911 E8.12619
G1 X111.819 Y110.001 E8.15933
G1 X111.68 Y109.799 E8.16749
G1 X111.499 Y109.465 E8.18012
G1 X111.392 Y109.102 E8.19271
G1 X111.364 Y108.724 E8.20532
G1 X111.415 Y108.349 E8.2179
G1 X111.544 Y107.992 E8.23053
G1 X111.745 Y107.671 E8.24313
G1 X112.008 Y107.398 E8.25573
G0 F3600 X112.221 Y107.743
G1 F1800 X112.493 Y107.549 E8.26685
G1 X112.804 Y107.426 E8.27797
G1 X113.268 Y107.383 E8.29347
G1 X114.715 Y107.492 E8.34173
G1 X115.043 Y107.557 E8.35285
G1 X115.346 Y107.697 E8.36396
G1 X115.607 Y107.905 E8.37506
G1 X115.812 Y108.17 E8.3862
G1 X115.948 Y108.475 E8.39731
G1 X116.007 Y108.803 E8.40839
G1 X115.976 Y109.195 E8.42147
G1 X115.48 Y111.405 E8.4968
G1 X115.368 Y111.719 E8.50789
G1 X115.186 Y111.999 E8.519
G1 X114.942 Y112.227 E8.53011
G1 X114.65 Y112.391 E8.54124
G1 X114.329 Y112.481 E8.55233
G1 X113.995 Y112.493 E8.56345
G1 X113.668 Y112.425 E8.57456
G1 X113.366 Y112.282 E8.58567
G1 X113.107 Y112.071 E8.59678
G1 X112.905 Y111.804 E8.60792
G1 X112.749 Y111.41 E8.62201
G1 X112.606 Y110.785 E8.64334
G1 X112.169 Y109.805 E8.67903
G1 X112.009 Y109.572 E8.68843
G1 X111.854 Y109.276 E8.69954
G1 X111.774 Y108.952 E8.71064
G1 X111.772 Y108.618 E8.72175
G1 X111.85 Y108.293 E8.73287
G1 X112.003 Y107.996 E8.74398
G1 X112.221 Y107.743 E8.75509
G0 F3600 X112.476 Y108.052
G1 F1800 X112.706 Y107.889 E8.76446
G1 X112.973 Y107.797 E8.77385
G1 X113.238 Y107.782 E8.78268
G1 X114.685 Y107.891 E8.83095
G1 X114.961 Y107.951 E8.84034
G1 X115.208 Y108.087 E8.84972
G1 X115.408 Y108.286 E8.8591
G1 X115.545 Y108.533 E8.8685
G1 X115.607 Y108.808 E8.87787
G1 X115.586 Y109.107 E8.88784
G1 X115.09 Y111.317 E8.96318
G1 X114.99 Y111.581 E8.97257
G1 X114.82 Y111.806 E8.98194
G1 X114.594 Y111.975 E8.99133
G1 X114.33 Y112.074 E9.00071
G1 X114.049 Y112.096 E9.01008
G1 X113.773 Y112.038 E9.01946
G1 X113.524 Y111.905 E9.02885
G1 X113.322 Y111.708 E9.03824
G1 X113.183 Y111.463 E9.04761
G1 X113.139 Y111.321 E9.05255
G1 X112.987 Y110.655 E9.07527
G1 X112.52 Y109.609 E9.11337
G1 X112.339 Y109.345 E9.12402
G1 X112.213 Y109.093 E9.13339
G1 X112.164 Y108.815 E9.14278
G1 X112.193 Y108.534 E9.15217
G1 X112.3 Y108.273 E9.16155
G1 X112.476 Y108.052 E9.17095
G0 F3600 X112.772 Y108.324
G1 F1800 X112.96 Y108.214 E9.1782
G1 X113.208 Y108.181 E9.18652
G1 X114.655 Y108.29 E9.23478
G1 X114.866 Y108.345 E9.24203
G1 X115.043 Y108.473 E9.2493
