;FLAVOR:Marlin
;TIME:116
;Filament used: 0.0411646m
;Layer height: 0.2
;Generated with Cura_SteamEngine 3.1.0
M190 S60
M104 S215
M109 S215
M82 ; absolute extrusion mode
G28 ;Home
G1 Z15.0 F6000 ;Move the platform down 15mm
;Prime the extruder
G92 E0
G1 F200 E3
G92 E0
;LAYER_COUNT:56
;LAYER:0
M107
G0 F7200 X102.117 Y102.724 Z0.2
;TYPE:SKIRT
G1 F1800 X102.483 Y102.368 E0.01698
G1 X102.991 Y101.922 E0.03947
G1 X103.492 Y101.535 E0.06052
G1 X104.037 Y101.215 E0.08154
G1 X104.451 Y101.03 E0.09662
G1 X104.772 Y100.903 E0.10811
G1 X105.373 Y100.708 E0.12912
G1 X105.994 Y100.59 E0.15015
G1 X106.452 Y100.555 E0.16542
G1 X107.144 Y100.533 E0.18845
G1 X107.776 Y100.552 E0.20948
G1 X108.4 Y100.652 E0.2305
G1 X109.007 Y100.829 E0.25153
G1 X109.526 Y101.051 E0.2703
G1 X110.205 Y101.388 E0.29552
G1 X110.752 Y101.705 E0.31654
G1 X111.255 Y102.087 E0.33755
G1 X111.706 Y102.531 E0.3586
G1 X112.022 Y102.922 E0.37532
G1 X112.42 Y103.468 E0.39779
G1 X112.76 Y104.001 E0.41882
G1 X113.029 Y104.573 E0.43985
G1 X113.277 Y105.402 E0.46863
G1 X113.397 Y105.983 E0.48836
G1 X113.485 Y106.609 E0.50938
G1 X113.494 Y107.241 E0.53041
G1 X113.423 Y107.869 E0.55143
G1 X113.345 Y108.23 E0.56371
G1 X113.159 Y108.959 E0.58873
G1 X112.964 Y109.561 E0.60978
G1 X112.695 Y110.133 E0.6308
G1 X112.356 Y110.666 E0.65181
G1 X112.018 Y111.082 E0.66964
G1 X111.551 Y111.597 E0.69276
G1 X111.098 Y112.037 E0.71377
G1 X110.592 Y112.417 E0.73481
G1 X110.043 Y112.73 E0.75583
G1 X109.667 Y112.895 E0.76949
G1 X109.04 Y113.14 E0.79188
G1 X108.438 Y113.332 E0.8129
G1 X107.816 Y113.447 E0.83394
G1 X107.185 Y113.483 E0.85496
G1 X106.791 Y113.465 E0.86807
G1 X106.095 Y113.405 E0.89131
G1 X105.469 Y113.311 E0.91236
G1 X104.861 Y113.138 E0.93339
G1 X104.28 Y112.891 E0.95439
G1 X103.786 Y112.606 E0.97336
G1 X103.152 Y112.191 E0.99856
G1 X102.646 Y111.813 E1.01957
G1 X102.192 Y111.373 E1.04059
G1 X101.797 Y110.879 E1.06163
G1 X101.528 Y110.452 E1.07842
G1 X101.203 Y109.872 E1.10053
G1 X100.93 Y109.302 E1.12155
G1 X100.73 Y108.702 E1.14258
G1 X100.585 Y107.875 E1.17051
G1 X100.531 Y107.274 E1.19058
G1 X100.514 Y106.643 E1.21158
G1 X100.578 Y106.014 E1.2326
G1 X100.72 Y105.398 E1.25363
G1 X100.847 Y105.026 E1.2667
G1 X101.118 Y104.324 E1.29173
G1 X101.382 Y103.75 E1.31275
G1 X101.717 Y103.214 E1.33377
G1 X102.117 Y102.724 E1.35481
G0 F7200 X102.461 Y102.942
G1 F1800 X102.747 Y102.668 E1.36798
G1 X103.255 Y102.222 E1.39046
G1 X103.736 Y101.853 E1.41063
G1 X104.261 Y101.55 E1.43079
G1 X104.598 Y101.402 E1.44303
G1 X104.919 Y101.275 E1.45451
G1 X105.496 Y101.089 E1.47468
G1 X106.093 Y100.981 E1.49485
G1 X106.465 Y100.954 E1.50726
G1 X107.157 Y100.932 E1.53029
G1 X107.763 Y100.953 E1.55045
G1 X108.361 Y101.053 E1.57062
G1 X108.94 Y101.231 E1.59077
G1 X109.348 Y101.41 E1.60559
G1 X110.027 Y101.747 E1.6308
G1 X110.551 Y102.051 E1.65095
G1 X111.031 Y102.422 E1.67113
G1 X111.457 Y102.853 E1.69128
G1 X111.699 Y103.157 E1.7042
G1 X112.097 Y103.703 E1.72668
G1 X112.421 Y104.216 E1.74686
G1 X112.675 Y104.766 E1.76701
G1 X112.885 Y105.483 E1.79186
G1 X113.005 Y106.064 E1.81159
G1 X113.088 Y106.664 E1.83173
G1 X113.092 Y107.27 E1.85189
G1 X112.957 Y108.131 E1.88088
G1 X112.771 Y108.86 E1.9059
G1 X112.583 Y109.437 E1.92609
G1 X112.32 Y109.983 E1.94624
G1 X111.988 Y110.49 E1.9664
G1 X111.722 Y110.813 E1.98032
G1 X111.255 Y111.328 E2.00344
G1 X110.819 Y111.749 E2.0236
G1 X110.331 Y112.11 E2.04379
G1 X109.8 Y112.403 E2.06396
G1 X109.521 Y112.523 E2.07406
G1 X108.894 Y112.768 E2.09645
G1 X108.316 Y112.95 E2.1166
G1 X107.719 Y113.056 E2.13677
G1 X106.825 Y113.066 E2.16651
G1 X106.129 Y113.006 E2.18974
G1 X105.53 Y112.914 E2.2099
G1 X104.948 Y112.744 E2.23006
G1 X104.393 Y112.5 E2.25023
G1 X104.005 Y112.272 E2.2652
G1 X103.371 Y111.857 E2.2904
G1 X102.886 Y111.492 E2.31059
G1 X102.454 Y111.067 E2.33074
G1 X102.082 Y110.588 E2.35092
G1 X101.877 Y110.257 E2.36387
G1 X101.552 Y109.677 E2.38598
G1 X101.291 Y109.129 E2.40617
G1 X101.105 Y108.552 E2.42633
G1 X100.983 Y107.84 E2.45036
G1 X100.929 Y107.239 E2.47043
G1 X100.915 Y106.633 E2.49059
G1 X100.981 Y106.03 E2.51076
G1 X101.22 Y105.17 E2.54045
G1 X101.491 Y104.468 E2.56548
G1 X101.746 Y103.918 E2.58564
G1 X102.071 Y103.407 E2.60579
G1 X102.461 Y102.942 E2.62597
G0 F7200 X103.011 Y102.969
G1 F1800 X103.519 Y102.523 E2.64845
G1 X103.98 Y102.172 E2.66773
G1 X104.745 Y101.774 E2.69641
G1 X105.066 Y101.647 E2.70789
G1 X105.618 Y101.471 E2.72716
G1 X106.478 Y101.354 E2.75603
G1 X107.17 Y101.332 E2.77905
G1 X107.748 Y101.354 E2.79829
G1 X108.319 Y101.455 E2.81758
G1 X108.87 Y101.633 E2.83684
G1 X109.17 Y101.768 E2.84778
G1 X109.849 Y102.105 E2.87299
G1 X110.349 Y102.398 E2.89227
G1 X110.804 Y102.756 E2.91152
G1 X111.376 Y103.393 E2.94
G1 X111.774 Y103.939 E2.96247
G1 X112.082 Y104.43 E2.98175
G1 X112.32 Y104.958 E3.00101
G1 X112.493 Y105.563 E3.02194
G1 X112.613 Y106.144 E3.04167
G1 X112.691 Y106.719 E3.06097
G1 X112.689 Y107.298 E3.08023
G1 X112.57 Y108.032 E3.10496
G1 X112.384 Y108.761 E3.12999
G1 X112.202 Y109.311 E3.14925
G1 X111.946 Y109.831 E3.16853
G1 X111.622 Y110.311 E3.18779
G1 X111.425 Y110.544 E3.19794
G1 X110.958 Y111.059 E3.22106
G1 X110.54 Y111.461 E3.24035
G1 X110.071 Y111.801 E3.25962
G1 X109.376 Y112.15 E3.28549
G1 X108.749 Y112.395 E3.30788
G1 X108.196 Y112.568 E3.32715
G1 X107.624 Y112.663 E3.34643
G1 X106.859 Y112.667 E3.37188
G1 X106.163 Y112.607 E3.39511
G1 X105.591 Y112.518 E3.41437
G1 X105.036 Y112.351 E3.43364
G1 X104.51 Y112.109 E3.4529
G1 X104.224 Y111.937 E3.464
G1 X103.59 Y111.522 E3.4892
G1 X103.128 Y111.172 E3.50848
G1 X102.719 Y110.762 E3.52774
G1 X102.226 Y110.061 E3.55625
G1 X101.901 Y109.481 E3.57836
G1 X101.653 Y108.957 E3.59764
G1 X101.48 Y108.405 E3.61688
G1 X101.382 Y107.804 E3.63713
G1 X101.328 Y107.203 E3.6572
G1 X101.316 Y106.624 E3.67647
G1 X101.384 Y106.048 E3.69576
G1 X101.593 Y105.314 E3.72114
G1 X101.864 Y104.612 E3.74617
G1 X102.109 Y104.088 E3.76541
G1 X102.425 Y103.602 E3.78469
G1 X103.011 Y102.969 E3.81338
G1 F1500 E3.11338
G0 F7200 X102.777 Y103.799
G1 F1500 E3.81338
G1 F1800 X103.275 Y103.269 E3.83757
G1 X103.783 Y102.823 E3.86005
G1 X104.222 Y102.491 E3.87836
G1 X104.892 Y102.145 E3.90344
G1 X105.213 Y102.018 E3.91492
G1 X105.739 Y101.853 E3.93326
G1 X106.49 Y101.754 E3.95845
G1 X107.182 Y101.732 E3.98148
G1 X107.733 Y101.754 E3.99982
G1 X108.274 Y101.856 E4.01813
G1 X108.992 Y102.126 E4.04364
G1 X109.671 Y102.463 E4.06886
G1 X110.146 Y102.743 E4.08719
G1 X110.575 Y103.089 E4.10553
G1 X111.053 Y103.629 E4.12951
G1 X111.451 Y104.175 E4.15198
G1 X111.742 Y104.642 E4.17029
G1 X111.963 Y105.147 E4.18862
G1 X112.101 Y105.644 E4.20578
G1 X112.221 Y106.225 E4.22551
G1 X112.293 Y106.772 E4.24386
G1 X112.286 Y107.323 E4.26219
G1 X112.182 Y107.933 E4.28277
G1 X111.996 Y108.662 E4.30779
G1 X111.821 Y109.185 E4.32613
G1 X111.573 Y109.677 E4.34446
G1 X111.129 Y110.276 E4.36926
G1 X110.662 Y110.791 E4.39238
G1 X110.263 Y111.171 E4.41071
G1 X109.814 Y111.489 E4.42901
G1 X109.23 Y111.777 E4.45066
G1 X108.603 Y112.022 E4.47305
G1 X108.077 Y112.185 E4.49137
G1 X107.532 Y112.27 E4.50972
G1 X106.894 Y112.269 E4.53094
G1 X106.198 Y112.209 E4.55417
G1 X105.654 Y112.122 E4.57249
G1 X105.128 Y111.957 E4.59083
G1 X104.443 Y111.602 E4.61649
G1 X103.809 Y111.187 E4.64169
G1 X103.371 Y110.853 E4.66001
G1 X102.986 Y110.459 E4.67834
G1 X102.575 Y109.866 E4.70233
G1 X102.25 Y109.286 E4.72445
G1 X102.016 Y108.787 E4.74278
G1 X101.857 Y108.259 E4.76112
G1 X101.78 Y107.768 E4.77765
G1 X101.726 Y107.167 E4.79772
G1 X101.717 Y106.616 E4.81605
G1 X101.787 Y106.07 E4.83435
G1 X101.966 Y105.458 E4.85556
G1 X102.237 Y104.756 E4.88059
G1 X102.472 Y104.258 E4.89891
G1 X102.777 Y103.799 E4.91724
G0 F7200 X103.128 Y104
G1 F1800 X103.539 Y103.57 E4.93702
G1 X104.047 Y103.124 E4.9595
G1 X104.464 Y102.811 E4.97685
G1 X105.039 Y102.517 E4.99832
G1 X105.36 Y102.39 E5.00981
G1 X105.858 Y102.236 E5.02714
G1 X106.503 Y102.154 E5.04877
G1 X107.195 Y102.132 E5.0718
G1 X107.716 Y102.155 E5.08914
G1 X108.227 Y102.258 E5.10648
G1 X108.815 Y102.484 E5.12743
G1 X109.494 Y102.821 E5.15264
G1 X109.941 Y103.088 E5.16996
G1 X110.343 Y103.42 E5.1873
G1 X110.73 Y103.864 E5.20689
G1 X111.128 Y104.41 E5.22936
G1 X111.401 Y104.854 E5.2467
G1 X111.604 Y105.334 E5.26403
G1 X111.71 Y105.725 E5.27751
G1 X111.83 Y106.306 E5.29724
G1 X111.896 Y106.823 E5.31458
G1 X111.882 Y107.344 E5.33191
G1 X111.794 Y107.835 E5.3485
G1 X111.608 Y108.564 E5.37352
G1 X111.441 Y109.057 E5.39084
G1 X111.201 Y109.519 E5.40815
G1 X110.833 Y110.007 E5.42848
G1 X110.366 Y110.522 E5.4516
G1 X109.987 Y110.88 E5.46894
G1 X109.558 Y111.176 E5.48628
G1 X109.084 Y111.405 E5.50379
G1 X108.457 Y111.65 E5.52618
G1 X107.959 Y111.802 E5.5435
G1 X107.443 Y111.876 E5.56083
G1 X106.928 Y111.87 E5.57796
G1 X106.232 Y111.81 E5.6012
G1 X105.718 Y111.726 E5.61852
G1 X105.222 Y111.564 E5.63588
G1 X104.662 Y111.268 E5.65694
G1 X104.028 Y110.853 E5.68215
G1 X103.615 Y110.535 E5.69948
G1 X103.256 Y110.157 E5.71682
G1 X102.924 Y109.67 E5.73643
G1 X102.599 Y109.09 E5.75854
G1 X102.38 Y108.617 E5.77587
G1 X102.235 Y108.116 E5.79322
G1 X102.179 Y107.732 E5.80613
G1 X102.125 Y107.131 E5.8262
G1 X102.118 Y106.61 E5.84353
G1 X102.191 Y106.094 E5.86086
G1 X102.339 Y105.603 E5.87792
G1 X102.61 Y104.901 E5.90295
G1 X102.835 Y104.43 E5.92031
G1 X103.128 Y104 E5.93761
G0 F7200 X103.478 Y104.204
G1 F1800 X103.803 Y103.871 E5.95309
G1 X104.311 Y103.425 E5.97557
G1 X104.704 Y103.133 E5.99186
G1 X105.186 Y102.889 E6.00983
G1 X105.507 Y102.762 E6.02131
G1 X105.976 Y102.62 E6.03761
G1 X106.516 Y102.554 E6.0557
G1 X107.208 Y102.532 E6.07873
G1 X107.697 Y102.556 E6.09501
G1 X108.175 Y102.66 E6.11128
G1 X108.637 Y102.843 E6.12781
G1 X109.316 Y103.18 E6.15302
G1 X109.735 Y103.432 E6.16929
G1 X110.108 Y103.75 E6.18559
G1 X110.406 Y104.1 E6.20088
G1 X110.804 Y104.646 E6.22335
G1 X111.059 Y105.064 E6.23964
G1 X111.243 Y105.517 E6.2559
G1 X111.318 Y105.806 E6.26583
G1 X111.438 Y106.387 E6.28556
G1 X111.498 Y106.873 E6.30185
G1 X111.477 Y107.362 E6.31813
G1 X111.407 Y107.736 E6.33078
G1 X111.221 Y108.465 E6.35581
G1 X111.062 Y108.928 E6.37209
G1 X110.829 Y109.358 E6.38835
G1 X110.536 Y109.738 E6.40431
G1 X110.069 Y110.253 E6.42744
G1 X109.712 Y110.588 E6.44372
G1 X109.305 Y110.86 E6.46
G1 X108.939 Y111.032 E6.47345
G1 X108.312 Y111.277 E6.49584
G1 X107.843 Y111.418 E6.51213
G1 X107.357 Y111.48 E6.52843
G1 X106.962 Y111.472 E6.54157
G1 X106.266 Y111.412 E6.5648
G1 X105.784 Y111.33 E6.58106
G1 X105.321 Y111.171 E6.59734
G1 X104.881 Y110.933 E6.61398
G1 X104.247 Y110.518 E6.63919
G1 X103.861 Y110.217 E6.65547
G1 X103.528 Y109.858 E6.67175
G1 X103.273 Y109.474 E6.68708
G1 X102.948 Y108.894 E6.7092
G1 X102.744 Y108.449 E6.72548
G1 X102.616 Y107.977 E6.74174
G1 X102.577 Y107.696 E6.75118
G1 X102.523 Y107.095 E6.77125
G1 X102.519 Y106.606 E6.78751
G1 X102.595 Y106.122 E6.80381
G1 X102.712 Y105.747 E6.81688
G1 X102.983 Y105.045 E6.8419
G1 X103.196 Y104.604 E6.85819
G1 X103.478 Y104.204 E6.87447
G0 F7200 X103.826 Y104.412
G1 F1800 X104.067 Y104.171 E6.88581
G1 X104.575 Y103.725 E6.90829
G1 X104.942 Y103.456 E6.92342
G1 X105.333 Y103.261 E6.93796
G1 X105.654 Y103.134 E6.94944
G1 X106.091 Y103.004 E6.9646
G1 X106.528 Y102.953 E6.97924
G1 X107.22 Y102.931 E7.00226
G1 X107.675 Y102.957 E7.01742
G1 X108.119 Y103.061 E7.03259
G1 X108.459 Y103.201 E7.04482
G1 X109.138 Y103.538 E7.07003
G1 X109.527 Y103.776 E7.0852
G1 X109.868 Y104.077 E7.10033
G1 X110.083 Y104.335 E7.1115
G1 X110.481 Y104.881 E7.13397
G1 X110.716 Y105.272 E7.14914
G1 X110.926 Y105.887 E7.17076
G1 X111.046 Y106.468 E7.19049
G1 X111.099 Y106.921 E7.20566
G1 X111.072 Y107.375 E7.22078
G1 X111.019 Y107.637 E7.22968
G1 X110.833 Y108.366 E7.2547
G1 X110.682 Y108.796 E7.26986
G1 X110.459 Y109.193 E7.285
G1 X110.24 Y109.47 E7.29675
G1 X109.773 Y109.985 E7.31987
G1 X109.439 Y110.294 E7.335
G1 X109.055 Y110.54 E7.35017
G1 X108.793 Y110.66 E7.35976
G1 X108.166 Y110.905 E7.38215
G1 X107.729 Y111.033 E7.39729
G1 X107.276 Y111.082 E7.41245
G1 X106.997 Y111.073 E7.42173
G1 X106.301 Y111.013 E7.44496
G1 X105.852 Y110.935 E7.46012
G1 X105.424 Y110.779 E7.47527
G1 X105.1 Y110.598 E7.48762
G1 X104.466 Y110.183 E7.51282
G1 X104.108 Y109.901 E7.52798
G1 X103.805 Y109.561 E7.54312
G1 X103.622 Y109.279 E7.55431
G1 X103.297 Y108.699 E7.57642
G1 X103.11 Y108.283 E7.59159
G1 X102.975 Y107.661 E7.61276
G1 X102.921 Y107.06 E7.63283
G1 X102.921 Y106.604 E7.64799
G1 X102.999 Y106.155 E7.66315
G1 X103.085 Y105.891 E7.67239
G1 X103.356 Y105.189 E7.69742
G1 X103.557 Y104.78 E7.71257
G1 X103.826 Y104.412 E7.72773
G0 F7200 X104.172 Y104.625
G1 F1800 X104.331 Y104.472 E7.73507
G1 X104.839 Y104.026 E7.75756
G1 X105.178 Y103.781 E7.77147
G1 X105.481 Y103.633 E7.78268
G1 X105.802 Y103.506 E7.79417
G1 X106.204 Y103.39 E7.80808
G1 X106.541 Y103.353 E7.81936
G1 X107.233 Y103.331 E7.84239
G1 X107.651 Y103.358 E7.85632
G1 X108.057 Y103.463 E7.87027
G1 X108.281 Y103.559 E7.87837
G1 X108.96 Y103.896 E7.90358
G1 X109.316 Y104.118 E7.91754
G1 X109.623 Y104.402 E7.93145
G1 X109.76 Y104.571 E7.93868
G1 X110.158 Y105.117 E7.96116
G1 X110.371 Y105.478 E7.9751
G1 X110.535 Y105.968 E7.99228
G1 X110.655 Y106.549 E8.01201
G1 X110.7 Y106.966 E8.02596
G1 X110.632 Y107.538 E8.04512
G1 X110.446 Y108.267 E8.07015
G1 X110.304 Y108.661 E8.08408
G1 X110.09 Y109.022 E8.09803
G1 X109.944 Y109.201 E8.10572
G1 X109.477 Y109.716 E8.12884
G1 X109.167 Y109.998 E8.14278
G1 X108.648 Y110.287 E8.16254
G1 X108.021 Y110.532 E8.18493
G1 X107.618 Y110.647 E8.19887
G1 X107.031 Y110.675 E8.21841
G1 X106.335 Y110.615 E8.24165
G1 X105.923 Y110.539 E8.25558
G1 X105.533 Y110.387 E8.2695
G1 X105.319 Y110.264 E8.27771
G1 X104.685 Y109.849 E8.30291
G1 X104.358 Y109.587 E8.31685
G1 X104.086 Y109.268 E8.33079
G1 X103.971 Y109.083 E8.33804
G1 X103.646 Y108.503 E8.36015
G1 X103.477 Y108.12 E8.37408
G1 X103.374 Y107.625 E8.39089
G1 X103.32 Y107.024 E8.41096
G1 X103.322 Y106.605 E8.4249
G1 X103.459 Y106.035 E8.4444
G1 X103.73 Y105.333 E8.46942
G1 X103.917 Y104.958 E8.48336
G1 X104.172 Y104.625 E8.49731
G0 F7200 X104.594 Y104.772
G1 F1800 X105.102 Y104.326 E8.5198
G1 X105.412 Y104.108 E8.5324
G1 X105.628 Y104.005 E8.54036
G1 X105.949 Y103.878 E8.55184
G1 X106.314 Y103.777 E8.56444
G1 X106.554 Y103.753 E8.57246
G1 X107.246 Y103.731 E8.59549
G1 X107.624 Y103.759 E8.60809
G1 X108.103 Y103.918 E8.62488
G1 X108.782 Y104.255 E8.65009
G1 X109.102 Y104.458 E8.6627
G1 X109.437 Y104.807 E8.67879
G1 X109.835 Y105.353 E8.70126
G1 X110.024 Y105.681 E8.71385
G1 X110.143 Y106.049 E8.72671
G1 X110.263 Y106.63 E8.74645
G1 X110.3 Y107.007 E8.75905
G1 X110.244 Y107.439 E8.77353
G1 X110.058 Y108.168 E8.79856
G1 X109.926 Y108.523 E8.81115
G1 X109.647 Y108.932 E8.82762
G1 X109.18 Y109.447 E8.85074
G1 X108.898 Y109.699 E8.86332
G1 X108.502 Y109.915 E8.87833
G1 X107.875 Y110.16 E8.90072
G1 X107.51 Y110.26 E8.9133
G1 X107.065 Y110.276 E8.92811
G1 X106.369 Y110.216 E8.95135
G1 X105.997 Y110.144 E8.96395
G1 X105.538 Y109.929 E8.98081
G1 X104.904 Y109.514 E9.00601
G1 X104.611 Y109.274 E9.01861
G1 X104.32 Y108.888 E9.03469
G1 X103.995 Y108.308 E9.0568
G1 X103.845 Y107.96 E9.0694
G1 X103.772 Y107.589 E9.08198
G1 X103.718 Y106.988 E9.10205
G1 X103.724 Y106.609 E9.11466
G1 X103.832 Y106.179 E9.1294
G1 X104.103 Y105.477 E9.15443
G1 X104.276 Y105.14 E9.16703
G1 X104.594 Y104.772 E9.18321
G0 F7200 X104.858 Y105.073
G1 F1800 X105.366 Y104.627 E9.20569
G1 X105.775 Y104.377 E9.22163
G1 X106.096 Y104.25 E9.23312
G1 X106.567 Y104.153 E9.24911
G1 X107.259 Y104.131 E9.27214
G1 X107.591 Y104.16 E9.28322
G1 X107.925 Y104.276 E9.29498
G1 X108.604 Y104.613 E9.32019
