;FLAVOR:Marlin
;TIME:5067
;Filament used: 2.30787m
;Layer height: 0.2
;Generated with Cura_SteamEngine 3.5.1
M82 ;absolute extrusion mode
G21 ; set units to millimeters
G90 ; use absolute positioning
M82 ; absolute extrusion mode
M104 S230 ; set extruder temp
M140 S60 ; set bed temp
M190 S60 ; wait for bed temp
M109 S230 ; wait for extruder temp
G28 W ; home all without mesh bed level
G80 ; mesh bed leveling
G92 E0.0 ; reset extruder distance position
G1 Y-3.0 F1000.0 ; go outside print area
G1 X60.0 E9.0 F1000.0 ; intro line
G1 X100.0 E21.5 F1000.0 ; intro line
G92 E0.0 ; reset extruder distance position
G92 E0
G1 F2100 E-0.8
;LAYER_COUNT:915
;LAYER:0
M107
G0 F3600 X121.126 Y92.535 Z0.2
;TYPE:SKIRT
G1 F2100 E0.04158
G1 F1800 X121.135 Y92.136 E0.05511
G1 X121.222 Y91.746 E0.06867
G1 X121.425 Y91.315 E0.08483
G1 X121.773 Y90.759 E0.10709
G1 X122.017 Y90.443 E0.12063
G1 X122.32 Y90.182 E0.1342
G1 X122.668 Y89.987 E0.14773
G1 X123.049 Y89.864 E0.16131
G1 X123.446 Y89.82 E0.17486
G1 X123.844 Y89.856 E0.18842
G1 X124.227 Y89.969 E0.20197
G1 X124.418 Y90.06 E0.20915
G1 X129.824 Y92.979 E0.41757
G1 X138.075 Y96.962 E0.7284
G1 X154.293 Y104.143 E1.33012
G1 X154.64 Y104.341 E1.34368
G1 X154.941 Y104.603 E1.35722
G1 X155.184 Y104.92 E1.37077
G1 X155.359 Y105.279 E1.38431
G1 X155.459 Y105.666 E1.39788
G1 X155.481 Y106.065 E1.41143
G1 X155.422 Y106.46 E1.42498
G1 X155.263 Y106.884 E1.44034
G1 X152.538 Y112.203 E1.64309
G1 X150.303 Y117.277 E1.83119
G1 X149.292 Y119.866 E1.92548
G1 X147.929 Y123.713 E2.06394
G1 X147.774 Y124.049 E2.0765
G1 X147.457 Y124.595 E2.09792
G1 X147.238 Y124.901 E2.11068
G1 X146.906 Y125.284 E2.12788
G1 X146.531 Y125.62 E2.14496
G1 X145.724 Y126.177 E2.17822
G1 X145.374 Y126.37 E2.19178
G1 X145.179 Y126.442 E2.19884
G1 X144.396 Y126.684 E2.22664
G1 X143.866 Y126.772 E2.24487
G1 X143.042 Y126.797 E2.27283
G1 X142.475 Y126.733 E2.29219
G1 X141.661 Y126.52 E2.32074
G1 X141.286 Y126.381 E2.3343
G1 X141.09 Y126.27 E2.34195
G1 X140.204 Y125.704 E2.37761
G1 X139.755 Y125.311 E2.39786
G1 X139.313 Y124.789 E2.42106
G1 X139.086 Y124.459 E2.43465
G1 X138.804 Y123.945 E2.45454
G1 X138.688 Y123.694 E2.46392
G1 X137.222 Y119.841 E2.60378
G1 X135.004 Y114.747 E2.79226
G1 X132.502 Y109.786 E2.98076
G1 X129.732 Y104.99 E3.16865
G1 X126.695 Y100.359 E3.35653
G1 X123.385 Y95.885 E3.54534
G1 X121.565 Y93.633 E3.64357
G1 X121.346 Y93.299 E3.65712
G1 X121.198 Y92.928 E3.67067
G1 X121.126 Y92.535 E3.68422
G0 F3600 X121.52 Y92.39
G1 F1800 X121.557 Y92.035 E3.69633
G1 X121.672 Y91.696 E3.70848
G1 X121.764 Y91.527 E3.715
G1 X122.112 Y90.971 E3.73726
G1 X122.334 Y90.691 E3.74938
G1 X122.613 Y90.468 E3.7615
G1 X122.934 Y90.312 E3.7736
G1 X123.282 Y90.231 E3.78573
G1 X123.639 Y90.229 E3.79784
G1 X123.988 Y90.307 E3.80997
G1 X124.228 Y90.412 E3.81886
G1 X129.63 Y93.329 E4.02713
G1 X137.93 Y97.336 E4.33981
G1 X154.131 Y104.509 E4.9409
G1 X154.439 Y104.689 E4.953
G1 X154.7 Y104.933 E4.96512
G1 X154.9 Y105.229 E4.97724
G1 X155.03 Y105.562 E4.98937
G1 X155.082 Y105.915 E5.00147
G1 X155.055 Y106.272 E5.01362
G1 X154.907 Y106.702 E5.02905
G1 X152.176 Y112.031 E5.23219
G1 X149.927 Y117.139 E5.42154
G1 X148.922 Y119.713 E5.51528
G1 X147.552 Y123.579 E5.65443
G1 X147.428 Y123.848 E5.66448
G1 X147.111 Y124.394 E5.68589
G1 X146.936 Y124.639 E5.69611
G1 X146.604 Y125.022 E5.7133
G1 X146.304 Y125.291 E5.72697
G1 X145.497 Y125.848 E5.76024
G1 X145.06 Y126.06 E5.77672
G1 X144.277 Y126.302 E5.80452
G1 X143.854 Y126.372 E5.81907
G1 X143.03 Y126.397 E5.84703
G1 X142.576 Y126.346 E5.86253
G1 X141.762 Y126.133 E5.89108
G1 X141.306 Y125.933 E5.90797
G1 X140.42 Y125.367 E5.94364
G1 X140.06 Y125.053 E5.95984
G1 X139.618 Y124.531 E5.98305
G1 X139.436 Y124.267 E5.99393
G1 X139.154 Y123.753 E6.01382
G1 X139.062 Y123.552 E6.02132
G1 X137.593 Y119.692 E6.16143
G1 X135.367 Y114.58 E6.35059
G1 X132.855 Y109.599 E6.53984
G1 X130.069 Y104.776 E6.7288
G1 X127.018 Y100.124 E6.91753
G1 X123.712 Y95.654 E7.10615
G1 X121.876 Y93.382 E7.20525
G1 X121.684 Y93.081 E7.21736
G1 X121.563 Y92.744 E7.22951
G1 X121.52 Y92.39 E7.24161
G0 F3600 X121.936 Y92.571
G1 F1800 X121.925 Y92.262 E7.2521
G1 X121.994 Y91.96 E7.26261
G1 X122.103 Y91.739 E7.27097
G1 X122.451 Y91.183 E7.29322
G1 X122.647 Y90.945 E7.30368
G1 X122.898 Y90.764 E7.31418
G1 X123.187 Y90.653 E7.32468
G1 X123.494 Y90.62 E7.33515
G1 X123.8 Y90.667 E7.34566
G1 X124.038 Y90.764 E7.35438
G1 X129.445 Y93.684 E7.56285
G1 X137.773 Y97.704 E7.87657
G1 X153.969 Y104.875 E8.47748
G1 X154.233 Y105.035 E8.48795
G1 X154.448 Y105.258 E8.49846
G1 X154.598 Y105.528 E8.50894
G1 X154.674 Y105.828 E8.51944
G1 X154.672 Y106.137 E8.52992
G1 X154.551 Y106.519 E8.54351
G1 X151.818 Y111.853 E8.74684
G1 X149.564 Y116.973 E8.93663
G1 X148.539 Y119.595 E9.03213
G1 X147.175 Y123.446 E9.17073
G1 X147.082 Y123.648 E9.17828
G1 X146.765 Y124.194 E9.1997
G1 X146.634 Y124.377 E9.20733
G1 X146.302 Y124.76 E9.22453
G1 X146.077 Y124.962 E9.23479
G1 X145.27 Y125.519 E9.26805
G1 X144.942 Y125.677 E9.2804
G1 X144.159 Y125.919 E9.30821
G1 X143.841 Y125.972 E9.31914
G1 X143.017 Y125.997 E9.34711
G1 X142.677 Y125.959 E9.35872
G1 X141.863 Y125.746 E9.38726
G1 X141.521 Y125.596 E9.39993
G1 X140.635 Y125.03 E9.4356
G1 X140.365 Y124.794 E9.44776
G1 X139.923 Y124.272 E9.47097
G1 X139.787 Y124.074 E9.47912
G1 X139.505 Y123.56 E9.49901
G1 X139.435 Y123.41 E9.50462
G1 X137.953 Y119.517 E9.64594
G1 X135.724 Y114.397 E9.83539
G1 X133.213 Y109.418 E10.02457
G1 X130.413 Y104.57 E10.2145
G1 X127.359 Y99.913 E10.40343
G1 X124.007 Y95.381 E10.59466
G1 X122.187 Y93.13 E10.69287
G1 X122.025 Y92.867 E10.70335
G1 X121.936 Y92.571 E10.71383
G1 F2100 E9.91383
G0 F3600 X123.539 Y92.066
;TYPE:WALL-OUTER
G1 F2100 E10.75541
G1 F1200 X126.772 Y93.863 E10.88089
G1 X130.703 Y95.927 E11.03152
G1 X130.707 Y95.921 E11.03176
G1 X135.988 Y98.429 E11.2301
G1 X137.667 Y99.195 E11.29271
G1 X153.203 Y106.056 E11.86888
G1 X152.377 Y107.347 E11.92088
G1 X147.239 Y112.018 E12.15645
G1 X146.937 Y111.994 E12.16673
G1 X146.106 Y122.045 E12.50887
G1 X146.061 Y122.37 E12.52
G1 X145.986 Y122.662 E12.53023
G1 X145.878 Y122.953 E12.54076
G1 X145.736 Y123.23 E12.55132
G1 X145.567 Y123.487 E12.56176
G1 X145.365 Y123.731 E12.5725
G1 X145.268 Y123.831 E12.57723
G1 X145.02 Y124.045 E12.58834
G1 X144.766 Y124.219 E12.59879
G1 X144.502 Y124.361 E12.60896
G1 X144.203 Y124.48 E12.61988
G1 X144.065 Y124.522 E12.62477
G1 X143.768 Y124.586 E12.63508
G1 X143.458 Y124.621 E12.64566
G1 X143.3 Y124.625 E12.65102
G1 X142.994 Y124.606 E12.66142
G1 X142.694 Y124.555 E12.67175
G1 X142.388 Y124.467 E12.68255
G1 X142.11 Y124.352 E12.69275
G1 X141.826 Y124.197 E12.70373
G1 X141.709 Y124.119 E12.7085
G1 X141.463 Y123.926 E12.71911
G1 X141.239 Y123.706 E12.72976
G1 X141.046 Y123.468 E12.74016
G1 X140.876 Y123.203 E12.75084
G1 X140.802 Y123.064 E12.75618
G1 X140.682 Y122.781 E12.76661
G1 X140.591 Y122.476 E12.77741
G1 X137.119 Y103.335 E13.43737
G1 X131.222 Y98.313 E13.70014
G1 X127.679 Y95.485 E13.85393
G1 X123.374 Y92.324 E14.03512
G1 X123.539 Y92.066 E14.04551
G0 F3600 X123.713 Y92.163
G1 F2100 E13.24551
G0 F3600 X131.598 Y96.775
G1 F2100 E14.08709
G1 F1200 X131.024 Y97.665 E14.12302
G1 X131.406 Y97.914 E14.13849
G1 X131.982 Y97.014 E14.17474
G1 X131.598 Y96.775 E14.19008
G0 F3600 X131.49 Y96.943
G1 F2100 E13.39008
G0 F3600 X141.339 Y111.65
G1 F2100 E14.23166
G1 F1200 X141.823 Y111.735 E14.24833
G1 X146.931 Y103.753 E14.56982
G1 X146.543 Y103.516 E14.58525
G1 X141.339 Y111.65 E14.91284
G0 F3600 X141.536 Y111.684
G1 F2100 E14.11284
G0 F3600 X142.636 Y121.31
G1 F2100 E14.95441
G1 F1200 X142.534 Y121.484 E14.96126
G1 X142.474 Y121.676 E14.96808
G1 X142.465 Y121.872 E14.97474
G1 X142.478 Y121.976 E14.97829
G1 X142.501 Y122.074 E14.98171
G1 X142.539 Y122.175 E14.98537
G1 X142.638 Y122.343 E14.99198
G1 X142.774 Y122.483 E14.99861
G1 X142.866 Y122.549 E15.00245
G1 X143.043 Y122.633 E15.00909
G1 X143.24 Y122.674 E15.01592
G1 X143.436 Y122.666 E15.02257
G1 X143.539 Y122.644 E15.02615
G1 X143.64 Y122.61 E15.02976
G1 X143.812 Y122.516 E15.03641
G1 X143.96 Y122.379 E15.04325
G1 X144.072 Y122.213 E15.05005
G1 X144.142 Y122.023 E15.05692
G1 X144.164 Y121.829 E15.06354
G1 X144.156 Y121.717 E15.06735
G1 X144.112 Y121.534 E15.07374
G1 X144.067 Y121.43 E15.07758
G1 X143.96 Y121.273 E15.08403
G1 X143.882 Y121.193 E15.08782
G1 X143.728 Y121.082 E15.09426
G1 X143.627 Y121.034 E15.09805
G1 X143.437 Y120.981 E15.10474
G1 X143.235 Y120.979 E15.1116
G1 X143.045 Y121.019 E15.11818
G1 X142.941 Y121.061 E15.12199
G1 X142.776 Y121.166 E15.12862
G1 X142.636 Y121.31 E15.13544
G0 F3600 X142.535 Y121.483
G1 F2100 E14.33544
G0 F3600 X140.871 Y122.77
;TYPE:SKIN
G1 F2100 E15.17701
G1 F1200 X142.366 Y124.264 E15.24871
G0 F3600 X143.099 Y124.431
G1 F1200 X140.691 Y122.024 E15.36422
G0 F3600 X140.566 Y121.333
G1 F1200 X143.65 Y124.417 E15.51218
G0 F3600 X144.116 Y124.317
G1 F1200 X140.441 Y120.642 E15.6885
G0 F3600 X140.315 Y119.95
G1 F1200 X142.289 Y121.925 E15.78323
G0 F3600 X142.361 Y121.431
G1 F1200 X140.19 Y119.259 E15.88742
G0 F3600 X140.065 Y118.569
G1 F1200 X142.592 Y121.096 E16.00866
G0 F3600 X142.931 Y120.87
G1 F1200 X139.939 Y117.877 E16.15223
G0 F3600 X139.814 Y117.186
G1 F1200 X143.427 Y120.8 E16.3256
G1 X143.497 Y120.87
G1 F2100 E15.5256
G0 F3600 X144.334 Y121.707
G1 F2100 E16.36717
G1 F1200 X145.642 Y123.015 E16.42993
G0 F3600 X145.429 Y123.368
G1 F1200 X144.266 Y122.204 E16.48575
G0 F3600 X144.043 Y122.547
G1 F1200 X145.17 Y123.674 E16.53982
G0 F3600 X144.862 Y123.932
G1 F1200 X143.707 Y122.777 E16.59523
G0 F3600 X143.218 Y122.853
G1 F1200 X144.513 Y124.148 E16.65737
G1 X144.583 Y124.218
G1 F2100 E15.85737
G0 F3600 X145.809 Y122.616
G1 F2100 E16.69894
G1 F1200 X139.688 Y116.495 E16.99261
G0 F3600 X139.563 Y115.804
G1 F1200 X145.909 Y122.15 E17.29708
G0 F3600 X145.959 Y121.635
G1 F1200 X139.437 Y115.113 E17.60999
G0 F3600 X139.312 Y114.422
G1 F1200 X146.002 Y121.112 E17.93096
G0 F3600 X146.045 Y120.589
G1 F1200 X139.186 Y113.731 E18.26001
G0 F3600 X139.061 Y113.04
G1 F1200 X146.088 Y120.067 E18.59715
G0 F3600 X146.132 Y119.544
G1 F1200 X138.935 Y112.348 E18.94242
G0 F3600 X138.81 Y111.657
G1 F1200 X146.175 Y119.022 E19.29578
G0 F3600 X146.218 Y118.499
G1 F1200 X138.685 Y110.966 E19.6572
G0 F3600 X138.559 Y110.275
G1 F1200 X146.261 Y117.977 E20.02672
G0 F3600 X146.304 Y117.454
G1 F1200 X138.434 Y109.584 E20.4043
G0 F3600 X138.309 Y108.893
G1 F1200 X141.102 Y111.686 E20.53831
G0 F3600 X141.229 Y111.813
G1 F1200 X146.347 Y116.932 E20.78388
G0 F3600 X146.39 Y116.409
G1 F1200 X141.911 Y111.93 E20.99877
G0 F3600 X142.131 Y111.584
G1 F1200 X146.434 Y115.887 E21.20522
G0 F3600 X146.477 Y115.364
G1 F1200 X142.352 Y111.239 E21.40313
G0 F3600 X142.573 Y110.894
G1 F1200 X146.52 Y114.841 E21.5925
G0 F3600 X146.563 Y114.319
G1 F1200 X142.793 Y110.549 E21.77337
G0 F3600 X143.014 Y110.204
G1 F1200 X146.606 Y113.796 E21.94571
G0 F3600 X146.649 Y113.274
G1 F1200 X143.235 Y109.86 E22.1095
G0 F3600 X143.456 Y109.515
G1 F1200 X146.692 Y112.751 E22.26476
G0 F3600 X146.735 Y112.229
G1 F1200 X143.677 Y109.17 E22.4115
G0 F3600 X143.897 Y108.825
G1 F1200 X146.881 Y111.809 E22.55466
G0 F3600 X147.329 Y111.691
G1 F1200 X144.118 Y108.48 E22.70872
G0 F3600 X144.338 Y108.135
G1 F1200 X147.625 Y111.421 E22.8664
G0 F3600 X147.921 Y111.152
G1 F1200 X144.559 Y107.789 E23.02772
G0 F3600 X144.78 Y107.445
G1 F1200 X148.218 Y110.882 E23.19265
G0 F3600 X148.514 Y110.613
G1 F1200 X145.001 Y107.1 E23.36119
G0 F3600 X145.222 Y106.755
G1 F1200 X148.81 Y110.344 E23.53336
G0 F3600 X149.106 Y110.074
G1 F1200 X145.442 Y106.41 E23.70915
G0 F3600 X145.663 Y106.065
G1 F1200 X149.403 Y109.805 E23.88859
G0 F3600 X149.699 Y109.535
G1 F1200 X145.883 Y105.72 E24.07165
G0 F3600 X146.105 Y105.375
G1 F1200 X149.995 Y109.266 E24.2583
G0 F3600 X150.292 Y108.996
G1 F1200 X146.325 Y105.03 E24.44861
G0 F3600 X146.546 Y104.685
G1 F1200 X150.588 Y108.727 E24.64253
G0 F3600 X150.884 Y108.458
G1 F1200 X146.767 Y104.34 E24.84008
G0 F3600 X146.987 Y103.995
G1 F1200 X151.18 Y108.188 E25.04125
G0 F3600 X151.477 Y107.919
G1 F1200 X147.128 Y103.57 E25.24991
G0 F3600 X146.399 Y103.407
G1 F1200 X146.117 Y103.125 E25.26343
G0 F3600 X146.178 Y103.752
G1 F1200 X145.103 Y102.677 E25.31501
G1 X145.033 Y102.607
G1 F2100 E24.51501
G0 F3600 X144.09 Y102.229
G1 F2100 E25.35659
G1 F1200 X145.957 Y104.096 E25.44616
G0 F3600 X145.736 Y104.441
G1 F1200 X143.077 Y101.782 E25.57373
G1 X143.007 Y101.712
G1 F2100 E24.77373
G0 F3600 X142.063 Y101.334
G1 F2100 E25.61531
G1 F1200 X145.516 Y104.786 E25.78095
G0 F3600 X145.295 Y105.131
G1 F1200 X141.05 Y100.886 E25.98462
G1 X140.98 Y100.816
G1 F2100 E25.18462
G0 F3600 X140.036 Y100.438
G1 F2100 E26.02619
G1 F1200 X145.074 Y105.476 E26.2679
G0 F3600 X144.854 Y105.822
G1 F1200 X139.022 Y99.99 E26.54771
G1 X138.952 Y99.92
G1 F2100 E25.74771
G0 F3600 X138.009 Y99.542
G1 F2100 E26.58928
G1 F1200 X144.633 Y106.167 E26.90711
G0 F3600 X144.413 Y106.512
G1 F1200 X136.98 Y99.079 E27.26373
G1 X136.91 Y99.009
G1 F2100 E26.46373
G0 F3600 X135.941 Y98.606
G1 F2100 E27.30531
G1 F1200 X144.191 Y106.856 E27.70112
G0 F3600 X143.971 Y107.201
G1 F1200 X134.865 Y98.095 E28.13801
G1 X134.795 Y98.025
G1 F2100 E27.33801
G0 F3600 X133.788 Y97.584
G1 F2100 E28.17958
G1 F1200 X143.75 Y107.546 E28.65753
G0 F3600 X143.529 Y107.891
G1 F1200 X132.711 Y97.073 E29.17656
G0 F3600 X132.152 Y97.08
G1 F1200 X143.309 Y108.236 E29.71182
G0 F3600 X143.088 Y108.581
G1 F1200 X131.931 Y97.425 E30.24708
G0 F3600 X131.71 Y97.769
G1 F1200 X136.587 Y102.646 E30.48107
G1 X136.657 Y102.716
G1 F2100 E29.68107
G0 F3600 X137.305 Y103.364
G1 F2100 E30.52264
G1 F1200 X142.868 Y108.926 E30.78952
G0 F3600 X142.646 Y109.271
G1 F1200 X137.431 Y104.055 E31.03975
G0 F3600 X137.557 Y104.747
G1 F1200 X142.426 Y109.616 E31.27335
G0 F3600 X142.205 Y109.961
G1 F1200 X137.682 Y105.438 E31.49035
G0 F3600 X137.807 Y106.128
G1 F1200 X141.984 Y110.306 E31.69078
G0 F3600 X141.764 Y110.651
G1 F1200 X137.933 Y106.82 E31.87458
G0 F3600 X138.058 Y107.511
G1 F1200 X141.543 Y110.996 E32.04179
G0 F3600 X141.323 Y111.341
G1 F1200 X138.183 Y108.202 E32.19241
G1 X138.113 Y108.132
G1 F2100 E31.39241
G0 F3600 X132.774 Y99.399
G1 F2100 E32.23399
G1 F1200 X131.49 Y98.114 E32.29561
G1 X131.42 Y98.044
G1 F2100 E31.49561
G0 F3600 X148.14 Y104.017
G1 F2100 E32.33719
G1 F1200 X151.773 Y107.649 E32.51147
G0 F3600 X152.069 Y107.38
G1 F1200 X149.154 Y104.465 E32.65132
G1 X149.084 Y104.395
G1 F2100 E31.85132
G0 F3600 X150.166 Y104.912
G1 F2100 E32.6929
G1 F1200 X152.334 Y107.08 E32.79691
G0 F3600 X152.556 Y106.735
G1 F1200 X151.18 Y105.359 E32.86293
G1 X151.11 Y105.289
G1 F2100 E32.06293
G0 F3600 X152.193 Y105.807
G1 F2100 E32.90451
G1 F1200 X152.776 Y106.389 E32.93245
G1 X152.846 Y106.459
G1 F2100 E32.13245
G0 F3600 X131.343 Y96.836
G1 F2100 E32.97403
G1 F1200 X130.567 Y96.061 E33.01124
G1 X130.497 Y95.991
G1 F2100 E32.21124
G0 F3600 X129.587 Y96.778
G1 F2100 E33.05281
G1 F1200 X126.992 Y94.183 E33.17731
G0 F3600 X127.026 Y94.782
G1 F1200 X125.74 Y93.496 E33.23901
G1 X125.67 Y93.426
G0 F3600 X124.898 Y93.22
G1 F1200 X124.467 Y92.789 E33.25969
G1 F2100 E32.45969
G0 F3600 X128.184 Y94.808
G1 F2100 E33.30127
G1 F1200 X130.9 Y97.524 E33.43157
G0 F3600 X131.121 Y97.18
G1 F1200 X129.376 Y95.435 E33.51529
M104 S230
G1 X129.306 Y95.365
G1 F2100 E32.71529
G0 F3600 X123.526 Y92.058
;TIME_ELAPSED:56.297899
;LAYER:1
M140 S60
M106 S255
G0 F5400 X123.526 Y92.058 Z0.4
;TYPE:WALL-OUTER
G1 F2100 E33.55687
G1 F1800 X126.759 Y93.855 E33.68235
G1 X130.688 Y95.918 E33.8329
G1 X130.692 Y95.912 E33.83315
G1 X135.966 Y98.417 E34.03123
