;FLAVOR:Marlin
;TIME:5061
;Filament used: 2.30683m
;Layer height: 0.2
;Generated with Cura_SteamEngine 3.5.1
M82 ;absolute extrusion mode
G21 ; set units to millimeters
G90 ; use absolute positioning
M82 ; absolute extrusion mode
M104 S230 ; set extruder temp
M140 S60 ; set bed temp
M190 S60 ; wait for bed temp
M109 S230 ; wait for extruder temp
G28 W ; home all without mesh bed level
G80 ; mesh bed leveling
G92 E0.0 ; reset extruder distance position
G1 Y-3.0 F1000.0 ; go outside print area
G1 X60.0 E9.0 F1000.0 ; intro line
G1 X100.0 E21.5 F1000.0 ; intro line
G92 E0.0 ; reset extruder distance position
G92 E0
G1 F2100 E-0.8
;LAYER_COUNT:915
;LAYER:0
M107
G0 F3600 X114.415 Y100.594 Z0.2
;TYPE:SKIRT
G1 F2100 E0.04158
G1 F1800 X114.49 Y100.202 E0.05512
G1 X114.641 Y99.832 E0.06867
G1 X114.979 Y99.37 E0.08809
G1 X115.445 Y98.895 E0.11067
G1 X115.752 Y98.64 E0.12421
G1 X116.104 Y98.45 E0.13778
G1 X116.486 Y98.334 E0.15132
G1 X116.884 Y98.296 E0.16488
G1 X117.281 Y98.338 E0.17843
G1 X117.767 Y98.507 E0.19588
G1 X120.591 Y99.918 E0.30298
G1 X125.68 Y102.188 E0.49203
G1 X130.862 Y104.157 E0.68009
G1 X136.14 Y105.827 E0.8679
G1 X141.567 Y107.213 E1.05792
G1 X144.196 Y107.765 E1.14905
G1 X151.187 Y108.925 E1.38947
G1 X151.627 Y109.051 E1.405
G1 X152.113 Y109.253 E1.42285
G1 X152.444 Y109.429 E1.43557
G1 X152.944 Y109.758 E1.45587
G1 X153.259 Y110.015 E1.46967
G1 X153.671 Y110.427 E1.48943
G1 X153.996 Y110.852 E1.50758
G1 X154.506 Y111.749 E1.54259
G1 X154.667 Y112.115 E1.55615
G1 X154.725 Y112.331 E1.56374
G1 X154.897 Y113.159 E1.59243
G1 X154.931 Y113.739 E1.61214
G1 X154.855 Y114.612 E1.64187
G1 X154.748 Y115.107 E1.65905
G1 X154.536 Y115.705 E1.68058
G1 X154.28 Y116.197 E1.69939
G1 X153.685 Y117.033 E1.7342
G1 X153.347 Y117.401 E1.75115
G1 X152.986 Y117.706 E1.76719
G1 X152.756 Y117.873 E1.77683
G1 X148.457 Y120.565 E1.94891
G1 X143.908 Y123.758 E2.13746
G1 X139.552 Y127.199 E2.32578
G1 X137.934 Y128.583 E2.39802
G1 X137.606 Y128.811 E2.41157
G1 X137.239 Y128.969 E2.42512
G1 X136.848 Y129.052 E2.43868
G1 X136.449 Y129.054 E2.45222
G1 X136.056 Y128.978 E2.4658
G1 X135.687 Y128.825 E2.47935
G1 X135.356 Y128.602 E2.49289
G1 X135.02 Y128.244 E2.50955
G1 X124.561 Y113.949 E3.11046
G1 X118.831 Y106.643 E3.42545
G1 X114.893 Y102.077 E3.63001
G1 X114.663 Y101.75 E3.64357
G1 X114.503 Y101.384 E3.65712
G1 X114.419 Y100.993 E3.67069
G1 X114.415 Y100.594 E3.68423
G0 F3600 X114.834 Y100.48
G1 F1800 X114.938 Y100.138 E3.69635
G1 X115.115 Y99.828 E3.70846
G1 X115.265 Y99.651 E3.71633
G1 X115.731 Y99.176 E3.73891
G1 X116.008 Y98.95 E3.75104
G1 X116.328 Y98.792 E3.76315
G1 X116.675 Y98.708 E3.77526
G1 X117.033 Y98.704 E3.7874
G1 X117.382 Y98.779 E3.79951
G1 X117.588 Y98.865 E3.80709
G1 X120.429 Y100.284 E3.91482
G1 X125.517 Y102.554 E4.10383
G1 X130.736 Y104.537 E4.29324
G1 X136.03 Y106.213 E4.48163
G1 X141.456 Y107.598 E4.67161
G1 X144.145 Y108.162 E4.76482
G1 X151.121 Y109.32 E5.00472
G1 X151.473 Y109.421 E5.01714
G1 X151.959 Y109.623 E5.035
G1 X152.224 Y109.763 E5.04517
G1 X152.724 Y110.092 E5.06547
G1 X152.976 Y110.298 E5.07651
G1 X153.388 Y110.71 E5.09628
G1 X153.648 Y111.05 E5.1108
G1 X154.158 Y111.947 E5.14581
G1 X154.334 Y112.413 E5.16271
G1 X154.506 Y113.241 E5.1914
G1 X154.533 Y113.705 E5.20716
G1 X154.457 Y114.578 E5.23689
G1 X154.371 Y114.974 E5.25064
G1 X154.159 Y115.572 E5.27216
G1 X153.955 Y115.965 E5.28719
G1 X153.36 Y116.801 E5.322
G1 X153.089 Y117.095 E5.33556
G1 X152.728 Y117.4 E5.3516
G1 X152.544 Y117.534 E5.35932
G1 X148.236 Y120.231 E5.53175
G1 X143.664 Y123.441 E5.72127
G1 X139.3 Y126.888 E5.90993
G1 X137.674 Y128.279 E5.98252
G1 X137.378 Y128.479 E5.99464
G1 X137.045 Y128.609 E6.00677
G1 X136.692 Y128.662 E6.01888
G1 X136.336 Y128.635 E6.03099
G1 X135.995 Y128.53 E6.0431
G1 X135.685 Y128.351 E6.05524
G1 X135.343 Y128.008 E6.07167
G1 X124.875 Y113.701 E6.67309
G1 X119.155 Y106.408 E6.98753
G1 X115.195 Y101.816 E7.19324
G1 X114.994 Y101.521 E7.20535
G1 X114.863 Y101.189 E7.21746
G1 X114.808 Y100.836 E7.22958
G1 X114.834 Y100.48 E7.24169
G0 F3600 X115.209 Y100.695
G1 F1800 X115.269 Y100.391 E7.2522
G1 X115.403 Y100.113 E7.26267
G1 X115.55 Y99.931 E7.27061
G1 X116.016 Y99.456 E7.29318
G1 X116.26 Y99.265 E7.30369
G1 X116.543 Y99.142 E7.31416
G1 X116.849 Y99.096 E7.32466
G1 X117.157 Y99.13 E7.33517
G1 X117.409 Y99.223 E7.34428
G1 X120.247 Y100.641 E7.45191
G1 X125.37 Y102.926 E7.64222
G1 X130.599 Y104.914 E7.832
G1 X135.916 Y106.596 E8.02119
G1 X141.388 Y107.993 E8.21279
G1 X144.044 Y108.55 E8.30485
G1 X151.056 Y109.714 E8.54599
G1 X151.32 Y109.79 E8.55531
G1 X151.806 Y109.992 E8.57317
G1 X152.005 Y110.098 E8.58082
G1 X152.505 Y110.427 E8.60112
G1 X152.694 Y110.58 E8.60937
G1 X153.106 Y110.992 E8.62914
G1 X153.3 Y111.248 E8.64004
G1 X153.81 Y112.145 E8.67504
G1 X153.942 Y112.494 E8.6877
G1 X154.114 Y113.322 E8.71639
G1 X154.134 Y113.67 E8.72822
G1 X154.058 Y114.543 E8.75794
G1 X153.994 Y114.84 E8.76825
G1 X153.782 Y115.438 E8.78978
G1 X153.629 Y115.733 E8.80105
G1 X153.034 Y116.569 E8.83586
G1 X152.83 Y116.79 E8.84606
G1 X152.469 Y117.095 E8.8621
G1 X152.332 Y117.195 E8.86785
G1 X148.003 Y119.906 E9.04114
G1 X143.443 Y123.106 E9.23013
G1 X139.033 Y126.59 E9.42079
G1 X137.414 Y127.975 E9.49307
G1 X137.155 Y128.144 E9.50357
G1 X136.861 Y128.241 E9.51407
G1 X136.553 Y128.26 E9.52454
G1 X136.25 Y128.2 E9.53502
G1 X135.972 Y128.064 E9.54552
G1 X135.666 Y127.772 E9.55986
G1 X125.2 Y113.468 E10.16116
G1 X119.461 Y106.15 E10.47666
G1 X115.498 Y101.555 E10.68252
G1 X115.328 Y101.297 E10.693
G1 X115.23 Y101.003 E10.70351
G1 X115.209 Y100.695 E10.71399
G1 F2100 E9.91399
G0 F3600 X116.662 Y100.773
;TYPE:WALL-OUTER
G1 F2100 E10.75556
G1 F1200 X116.879 Y100.557 E10.76595
G1 X120.886 Y104.088 E10.94714
G1 X124.403 Y106.947 E11.1009
G1 X130.568 Y111.636 E11.36367
G1 X150.014 Y110.947 E12.0238
G1 X150.32 Y110.97 E12.03421
G1 X150.465 Y110.994 E12.0392
G1 X150.769 Y111.069 E12.04982
G1 X151.069 Y111.178 E12.06065
G1 X151.198 Y111.239 E12.06549
G1 X151.476 Y111.397 E12.07634
G1 X151.721 Y111.575 E12.08661
G1 X151.955 Y111.789 E12.09737
G1 X152.058 Y111.9 E12.10251
G1 X152.251 Y112.146 E12.11311
G1 X152.411 Y112.402 E12.12335
G1 X152.55 Y112.697 E12.13442
G1 X152.648 Y112.982 E12.14464
G1 X152.715 Y113.277 E12.15491
G1 X152.75 Y113.579 E12.16522
G1 X152.75 Y113.898 E12.17604
G1 X152.714 Y114.216 E12.1869
G1 X152.649 Y114.506 E12.19698
G1 X152.598 Y114.666 E12.20268
G1 X152.475 Y114.964 E12.21362
G1 X152.413 Y115.085 E12.21823
G1 X152.241 Y115.36 E12.22923
G1 X152.051 Y115.602 E12.23967
G1 X151.943 Y115.718 E12.24505
G1 X151.72 Y115.919 E12.25523
G1 X151.596 Y116.014 E12.26053
G1 X151.327 Y116.186 E12.27136
G1 X151.191 Y116.258 E12.27658
G1 X150.912 Y116.377 E12.28687
G1 X141.431 Y119.289 E12.62335
G1 X137.744 Y125.687 E12.87387
G1 X136.657 Y126.771 E12.92595
G1 X126.642 Y113.056 E13.50208
G1 X125.534 Y111.578 E13.56475
G1 X121.854 Y106.821 E13.76878
G1 X119.108 Y103.55 E13.91367
G1 X116.662 Y100.773 E14.03922
G0 F3600 X116.803 Y100.632
G1 F2100 E13.23922
G0 F3600 X122.981 Y107.642
G1 F2100 E14.08079
G1 F1200 X123.297 Y107.967 E14.09617
G1 X124.052 Y107.213 E14.13237
G1 X123.73 Y106.891 E14.14782
G1 X122.981 Y107.642 E14.1838
G0 F3600 X123.12 Y107.785
G1 F2100 E13.3838
G0 F3600 X139.585 Y113.994
G1 F2100 E14.22538
G1 F1200 X132.754 Y120.808 E14.5527
G1 X133.07 Y121.133 E14.56808
G1 X139.78 Y114.437 E14.88968
G1 X139.585 Y113.994 E14.9061
G0 F3600 X139.444 Y114.135
G1 F2100 E14.1061
G0 F3600 X149.629 Y112.959
G1 F2100 E14.94767
G1 F1200 X149.459 Y113.055 E14.9543
G1 X149.377 Y113.122 E14.95789
G1 X149.303 Y113.2 E14.96154
G1 X149.199 Y113.357 E14.96792
G1 X149.153 Y113.461 E14.97178
G1 X149.109 Y113.651 E14.9784
G1 X149.109 Y113.851 E14.98518
G1 X149.156 Y114.041 E14.99182
G1 X149.199 Y114.138 E14.99542
G1 X149.255 Y114.231 E14.99911
G1 X149.379 Y114.373 E15.0055
G1 X149.462 Y114.44 E15.00912
G1 X149.554 Y114.496 E15.01277
G1 X149.728 Y114.565 E15.01912
G1 X149.838 Y114.588 E15.02294
G1 X150.034 Y114.595 E15.02959
G1 X150.232 Y114.552 E15.03646
G1 X150.408 Y114.466 E15.04311
G1 X150.498 Y114.4 E15.0469
G1 X150.633 Y114.259 E15.05352
G1 X150.73 Y114.091 E15.0601
G1 X150.768 Y113.992 E15.0637
G1 X150.793 Y113.887 E15.06736
G1 X150.804 Y113.691 E15.07402
G1 X150.767 Y113.493 E15.08085
G1 X150.688 Y113.317 E15.0874
G1 X150.625 Y113.222 E15.09126
G1 X150.487 Y113.083 E15.09791
G1 X150.322 Y112.98 E15.10451
G1 X150.216 Y112.937 E15.10839
G1 X150.026 Y112.9 E15.11496
G1 X149.824 Y112.904 E15.12181
G1 X149.629 Y112.959 E15.12868
G0 F3600 X149.459 Y113.055
G0 X149.456 Y113.058
G1 F2100 E14.32868
G0 F3600 X152.393 Y112.795
;TYPE:SKIN
G1 F2100 E15.17026
G1 F1200 X150.91 Y111.312 E15.24141
G0 F3600 X150.171 Y111.139
G1 F1200 X152.561 Y113.529 E15.35608
G0 F3600 X152.547 Y114.081
G1 F1200 X149.608 Y111.142 E15.49708
G0 F3600 X149.062 Y111.161
G1 F1200 X152.446 Y114.545 E15.65944
G0 F3600 X152.281 Y114.945
G1 F1200 X150.976 Y113.641 E15.72203
G0 F3600 X150.904 Y114.134
G1 F1200 X152.063 Y115.293 E15.77763
G0 F3600 X151.803 Y115.599
G1 F1200 X150.676 Y114.472 E15.8317
G0 F3600 X150.337 Y114.699
G1 F1200 X151.498 Y115.86 E15.88741
G0 F3600 X151.148 Y116.075
G1 F1200 X149.84 Y114.768 E15.95014
G1 X149.77 Y114.698
G1 F2100 E15.15014
G0 F3600 X148.928 Y113.855
G1 F2100 E15.99171
G1 F1200 X146.33 Y111.258 E16.11633
G0 F3600 X145.784 Y111.277
G1 F1200 X150.746 Y116.239 E16.3544
G0 F3600 X150.313 Y116.372
G1 F1200 X145.238 Y111.297 E16.59789
G0 F3600 X144.691 Y111.316
G1 F1200 X149.881 Y116.505 E16.84687
G0 F3600 X149.447 Y116.637
G1 F1200 X144.145 Y111.335 E17.10124
G0 F3600 X143.599 Y111.355
G1 F1200 X149.014 Y116.77 E17.36104
G0 F3600 X148.582 Y116.903
G1 F1200 X143.052 Y111.374 E17.62633
G0 F3600 X142.506 Y111.394
G1 F1200 X148.149 Y117.036 E17.89705
G0 F3600 X147.716 Y117.169
G1 F1200 X141.96 Y111.413 E18.17321
G0 F3600 X141.413 Y111.432
G1 F1200 X147.283 Y117.302 E18.45484
G0 F3600 X146.851 Y117.435
G1 F1200 X140.867 Y111.452 E18.74191
G0 F3600 X140.321 Y111.471
G1 F1200 X146.418 Y117.568 E19.03443
G0 F3600 X145.985 Y117.701
G1 F1200 X139.774 Y111.49 E19.33242
G0 F3600 X139.228 Y111.51
G1 F1200 X145.552 Y117.834 E19.63583
G0 F3600 X145.12 Y117.967
G1 F1200 X138.682 Y111.529 E19.94471
G0 F3600 X138.136 Y111.548
G1 F1200 X144.687 Y118.1 E20.25904
G0 F3600 X144.254 Y118.233
G1 F1200 X137.589 Y111.568 E20.57881
G0 F3600 X137.042 Y111.587
G1 F1200 X139.389 Y113.933 E20.69139
G0 F3600 X139.106 Y114.216
G1 F1200 X136.497 Y111.606 E20.81659
G0 F3600 X135.95 Y111.625
G1 F1200 X138.822 Y114.498 E20.9544
G0 F3600 X138.539 Y114.781
G1 F1200 X135.403 Y111.645 E21.10486
G0 F3600 X134.857 Y111.664
G1 F1200 X138.256 Y115.063 E21.26794
G0 F3600 X137.973 Y115.346
G1 F1200 X134.311 Y111.683 E21.44365
G0 F3600 X133.764 Y111.703
G1 F1200 X137.689 Y115.628 E21.63197
G0 F3600 X137.407 Y115.911
G1 F1200 X133.218 Y111.722 E21.83294
G0 F3600 X132.672 Y111.741
G1 F1200 X137.123 Y116.193 E22.04652
G0 F3600 X136.84 Y116.476
G1 F1200 X132.126 Y111.761 E22.27271
G0 F3600 X131.579 Y111.78
G1 F1200 X136.557 Y116.758 E22.51154
G0 F3600 X136.274 Y117.041
G1 F1200 X131.033 Y111.799 E22.76302
G0 F3600 X130.409 Y111.741
G1 F1200 X135.99 Y117.323 E23.0308
G0 F3600 X135.707 Y117.605
G1 F1200 X128.045 Y109.943 E23.39841
G1 X127.975 Y109.873
G1 F2100 E22.59841
G0 F3600 X125.87 Y111.728
G1 F2100 E23.43998
G1 F1200 X133.725 Y119.583 E23.81685
G0 F3600 X133.442 Y119.865
G1 F1200 X127.489 Y113.913 E24.10244
G1 X127.419 Y113.843
G1 F2100 E23.30244
G0 F3600 X129.021 Y116.01
G1 F2100 E24.14401
G1 F1200 X133.159 Y120.148 E24.34254
G0 F3600 X132.875 Y120.43
G1 F1200 X130.553 Y118.108 E24.45395
G1 X130.483 Y118.038
G1 F2100 E23.65395
G0 F3600 X132.084 Y120.205
G1 F2100 E24.49552
G1 F1200 X132.593 Y120.713 E24.51992
G1 F2100 E23.71992
G0 F3600 X133.168 Y121.289
G1 F2100 E24.56149
G1 F1200 X137.526 Y125.647 E24.77058
G0 F3600 X137.243 Y125.93
G1 F1200 X133.616 Y122.302 E24.94462
G1 X133.546 Y122.232
G1 F2100 E24.14462
G0 F3600 X133.451 Y121.006
G1 F2100 E24.98619
G1 F1200 X137.754 Y125.309 E25.19264
G0 F3600 X137.96 Y124.95
G1 F1200 X133.734 Y120.723 E25.39542
G0 F3600 X134.017 Y120.441
G1 F1200 X138.167 Y124.591 E25.59453
G0 F3600 X138.374 Y124.232
G1 F1200 X134.3 Y120.158 E25.78999
G0 F3600 X134.584 Y119.876
G1 F1200 X138.58 Y123.873 E25.98173
G0 F3600 X138.788 Y123.514
G1 F1200 X134.867 Y119.593 E26.16985
G0 F3600 X135.15 Y119.311
G1 F1200 X138.994 Y123.155 E26.35428
G0 F3600 X139.201 Y122.796
G1 F1200 X135.433 Y119.028 E26.53506
G0 F3600 X135.716 Y118.745
G1 F1200 X139.408 Y122.437 E26.71219
G0 F3600 X139.615 Y122.079
G1 F1200 X135.999 Y118.463 E26.88568
G0 F3600 X136.282 Y118.18
G1 F1200 X139.821 Y121.719 E27.05547
G0 F3600 X140.029 Y121.361
G1 F1200 X136.566 Y117.898 E27.22162
G0 F3600 X136.849 Y117.615
G1 F1200 X140.235 Y121.002 E27.38409
G0 F3600 X140.442 Y120.643
G1 F1200 X137.132 Y117.333 E27.5429
G0 F3600 X137.415 Y117.05
G1 F1200 X140.649 Y120.284 E27.69806
G0 F3600 X140.855 Y119.925
G1 F1200 X137.698 Y116.768 E27.84953
G0 F3600 X137.981 Y116.485
G1 F1200 X141.062 Y119.566 E27.99734
G0 F3600 X141.269 Y119.207
G1 F1200 X138.264 Y116.203 E28.14149
G0 F3600 X138.547 Y115.92
G1 F1200 X141.658 Y119.03 E28.29073
G0 F3600 X142.09 Y118.897
G1 F1200 X138.831 Y115.638 E28.44709
G0 F3600 X139.114 Y115.355
G1 F1200 X142.523 Y118.764 E28.61064
G0 F3600 X142.956 Y118.632
G1 F1200 X139.397 Y115.073 E28.7814
G0 F3600 X139.68 Y114.79
G1 F1200 X143.389 Y118.499 E28.95935
G0 F3600 X143.821 Y118.366
G1 F1200 X139.963 Y114.507 E29.14447
G1 X139.893 Y114.437
G1 F2100 E28.34447
G0 F3600 X135.424 Y117.888
G1 F2100 E29.18604
G1 F1200 X125.681 Y108.144 E29.65351
G1 X125.611 Y108.074
G1 F2100 E28.85351
G0 F3600 X124.245 Y107.274
G1 F2100 E29.69509
G1 F1200 X135.141 Y118.17 E30.21785
G0 F3600 X134.857 Y118.453
G1 F1200 X123.962 Y107.557 E30.74059
G0 F3600 X123.679 Y107.84
G1 F1200 X134.575 Y118.735 E31.26333
G0 F3600 X134.291 Y119.018
G1 F1200 X123.396 Y108.122 E31.78607
G1 X123.326 Y108.052
G1 F2100 E30.98607
G0 F3600 X123.967 Y109.259
G1 F2100 E31.82765
G1 F1200 X134.008 Y119.3 E32.30939
G1 X134.078 Y119.37
G1 F2100 E31.50939
G0 F3600 X135.147 Y124.399
G1 F2100 E32.35097
G1 F1200 X136.96 Y126.212 E32.43795
G1 X137.03 Y126.282
G1 F2100 E31.63795
G0 F3600 X148.999 Y113.361
G1 F2100 E32.47953
G1 F1200 X146.877 Y111.239 E32.58134
G0 F3600 X147.423 Y111.219
G1 F1200 X149.224 Y113.021 E32.66777
G0 F3600 X149.56 Y112.79
G1 F1200 X147.969 Y111.2 E32.74408
G0 F3600 X148.516 Y111.181
G1 F1200 X150.058 Y112.723 E32.81806
G1 X150.128 Y112.793
G1 F2100 E32.01806
G0 F3600 X123.668 Y106.698
G1 F2100 E32.85963
G1 F1200 X123.052 Y106.081 E32.88921
G1 X122.982 Y106.011
G1 F2100 E32.08921
G0 F3600 X123.385 Y106.981
G1 F2100 E32.93079
G1 F1200 X119.6 Y103.195 E33.11241
G0 F3600 X119.035 Y103.195
G1 F1200 X123.103 Y107.263 E33.30758
G0 F3600 X122.82 Y107.546
G1 F1200 X122.036 Y106.763 E33.34517
M104 S230
G1 X121.966 Y106.693
G1 F2100 E32.54517
G0 F3600 X116.651 Y100.762
;TIME_ELAPSED:55.690841
;LAYER:1
M140 S60
M106 S255
G0 F5400 X116.651 Y100.762 Z0.4
;TYPE:WALL-OUTER
G1 F2100 E33.38674
G1 F1800 X116.868 Y100.546 E33.39713
G1 X120.87 Y104.073 E33.5781
G1 X124.393 Y106.938 E33.73215
G1 X130.572 Y111.636 E33.99549
G1 X150.014 Y110.947 E34.65548
G1 X150.313 Y110.97 E34.66565
G1 X150.617 Y111.027 E34.67615
G1 X150.923 Y111.12 E34.687
G1 X151.198 Y111.239 E34.69716
G1 X151.476 Y111.397 E34.70801
G1 X151.721 Y111.575 E34.71828
G1 X151.955 Y111.789 E34.72904
G1 X152.058 Y111.9 E34.73418
G1 X152.251 Y112.146 E34.74479
G1 X152.411 Y112.402 E34.75503
G1 X152.55 Y112.697 E34.76609
