;FLAVOR:Marlin
;TIME:5169
;Filament used: 3.90703m
;Layer height: 0.2
;Generated with Cura_SteamEngine 3.5.1
M82 ;absolute extrusion mode
G21 ; set units to millimeters
G90 ; use absolute positioning
M82 ; absolute extrusion mode
M104 S230 ; set extruder temp
M140 S60 ; set bed temp
M190 S60 ; wait for bed temp
M109 S230 ; wait for extruder temp
G28 W ; home all without mesh bed level
G80 ; mesh bed leveling
G92 E0.0 ; reset extruder distance position
G1 Y-3.0 F1000.0 ; go outside print area
G1 X60.0 E9.0 F1000.0 ; intro line
G1 X100.0 E21.5 F1000.0 ; intro line
G92 E0.0 ; reset extruder distance position
G92 E0
G1 F2100 E-0.8
;LAYER_COUNT:785
;LAYER:0
M107
G0 F3600 X99.123 Y88.982 Z0.2
;TYPE:SKIRT
G1 F2100 E0.04158
G1 F1800 X99.112 Y88.582 E0.05515
G1 X99.181 Y88.189 E0.06869
G1 X99.327 Y87.817 E0.08224
G1 X99.634 Y87.376 E0.10047
G1 X103.394 Y83.279 E0.28913
G1 X107.551 Y78.153 E0.51303
G1 X107.832 Y77.87 E0.52656
G1 X108.164 Y77.648 E0.5401
G1 X108.534 Y77.496 E0.55367
G1 X108.926 Y77.421 E0.56721
G1 X109.326 Y77.425 E0.58079
G1 X109.716 Y77.509 E0.59432
G1 X110.184 Y77.729 E0.61186
G1 X116.491 Y81.773 E0.86604
G1 X116.535 Y81.803 E0.86784
G1 X124.181 Y86.996 E1.18141
G1 X124.231 Y87.031 E1.18348
G1 X129.028 Y90.511 E1.38453
G1 X129.082 Y90.552 E1.38683
G1 X133.791 Y94.217 E1.58927
G1 X133.871 Y94.282 E1.59277
G1 X138.447 Y98.24 E1.79802
G1 X138.507 Y98.294 E1.80076
G1 X142.253 Y101.806 E1.97496
G1 X142.31 Y101.861 E1.97765
G1 X146.517 Y106.131 E2.18101
G1 X146.565 Y106.182 E2.18339
G1 X148.838 Y108.656 E2.29736
G1 X148.889 Y108.714 E2.29998
G1 X152.566 Y113.041 E2.49262
G1 X152.636 Y113.128 E2.49641
G1 X155.8 Y117.304 E2.67415
G1 X155.876 Y117.411 E2.67861
G1 X157.849 Y120.405 E2.80025
G1 X157.923 Y120.526 E2.80506
G1 X159.228 Y122.848 E2.89542
G1 X159.324 Y123.045 E2.90286
G1 X160.404 Y125.584 E2.99646
G1 X160.513 Y125.92 E3.00845
G1 X160.816 Y127.24 E3.05439
G1 X160.866 Y127.636 E3.06794
G1 X160.861 Y127.836 E3.07472
G1 X160.779 Y128.932 E3.11201
G1 X160.71 Y129.326 E3.12558
G1 X160.686 Y129.411 E3.12857
G1 X160.592 Y129.673 E3.13802
G1 X160.406 Y130.096 E3.15369
G1 X160.184 Y130.479 E3.16871
G1 X159.837 Y130.949 E3.18853
G1 X159.459 Y131.338 E3.20693
G1 X158.794 Y131.857 E3.23555
G1 X158.456 Y132.07 E3.24911
G1 X158.195 Y132.178 E3.25869
G1 X157.402 Y132.442 E3.28704
G1 X156.871 Y132.541 E3.30537
G1 X156.12 Y132.579 E3.33088
G1 X155.785 Y132.568 E3.34225
G1 X154.552 Y132.423 E3.38437
G1 X154.286 Y132.373 E3.39355
G1 X151.91 Y131.759 E3.4768
G1 X151.744 Y131.709 E3.48269
G1 X150.451 Y131.252 E3.52921
G1 X150.32 Y131.2 E3.53399
G1 X146.507 Y129.543 E3.67504
G1 X146.381 Y129.483 E3.67977
G1 X142.601 Y127.516 E3.82433
G1 X142.507 Y127.464 E3.82798
G1 X137.951 Y124.774 E4.00747
G1 X137.887 Y124.735 E4.01001
G1 X135.402 Y123.138 E4.11023
G1 X135.348 Y123.102 E4.11243
G1 X131.094 Y120.17 E4.2877
G1 X131.025 Y120.12 E4.29059
G1 X125.887 Y116.245 E4.50892
G1 X125.814 Y116.187 E4.51208
G1 X120.518 Y111.795 E4.7455
G1 X120.437 Y111.724 E4.74915
G1 X116.274 Y107.872 E4.94156
G1 X116.218 Y107.819 E4.94418
G1 X111.388 Y102.991 E5.17586
G1 X111.345 Y102.946 E5.17798
G1 X106.549 Y97.846 E5.41548
G1 X106.512 Y97.806 E5.41733
G1 X99.613 Y90.058 E5.76928
G1 X99.379 Y89.735 E5.78282
G1 X99.213 Y89.371 E5.79639
G1 X99.123 Y88.982 E5.80993
G0 F3600 X99.51 Y88.818
G1 F1800 X99.529 Y88.461 E5.82206
G1 X99.628 Y88.118 E5.83417
G1 X99.8 Y87.805 E5.84629
G1 X99.928 Y87.646 E5.85321
G1 X103.7 Y83.536 E6.04247
G1 X107.861 Y78.405 E6.26658
G1 X108.116 Y78.155 E6.2787
G1 X108.42 Y77.967 E6.29082
G1 X108.758 Y77.851 E6.30295
G1 X109.113 Y77.813 E6.31506
G1 X109.468 Y77.855 E6.32719
G1 X109.804 Y77.974 E6.33928
G1 X109.968 Y78.066 E6.34566
G1 X116.275 Y82.11 E6.59983
G1 X116.31 Y82.133 E6.60125
G1 X123.956 Y87.326 E6.91482
G1 X123.997 Y87.355 E6.91652
G1 X128.794 Y90.835 E7.11757
G1 X128.837 Y90.867 E7.11939
G1 X133.546 Y94.532 E7.32183
G1 X133.61 Y94.585 E7.32465
G1 X138.186 Y98.543 E7.52991
G1 X138.233 Y98.586 E7.53207
G1 X141.979 Y102.098 E7.70627
G1 X142.025 Y102.142 E7.70843
G1 X146.232 Y106.412 E7.91179
G1 X146.27 Y106.453 E7.91368
G1 X148.543 Y108.927 E8.02766
G1 X148.584 Y108.973 E8.02975
G1 X152.261 Y113.3 E8.22239
G1 X152.317 Y113.37 E8.22543
G1 X155.481 Y117.546 E8.40318
G1 X155.542 Y117.632 E8.40675
G1 X157.515 Y120.626 E8.5284
G1 X157.574 Y120.722 E8.53222
G1 X158.879 Y123.044 E8.62258
G1 X158.956 Y123.202 E8.62855
G1 X160.036 Y125.741 E8.72215
G1 X160.123 Y126.009 E8.73171
G1 X160.426 Y127.329 E8.77766
G1 X160.463 Y127.806 E8.79389
G1 X160.381 Y128.902 E8.83117
G1 X160.325 Y129.218 E8.84206
G1 X160.301 Y129.303 E8.84506
G1 X160.226 Y129.512 E8.85259
G1 X160.04 Y129.935 E8.86827
G1 X159.862 Y130.241 E8.88028
G1 X159.515 Y130.711 E8.9001
G1 X159.212 Y131.022 E8.91483
G1 X158.547 Y131.541 E8.94344
G1 X158.243 Y131.728 E8.95555
G1 X158.068 Y131.798 E8.96195
G1 X157.275 Y132.062 E8.9903
G1 X156.851 Y132.142 E9.00494
G1 X156.1 Y132.18 E9.03045
G1 X155.832 Y132.171 E9.03955
G1 X154.599 Y132.026 E9.08166
G1 X154.386 Y131.986 E9.08902
G1 X152.01 Y131.372 E9.17227
G1 X151.877 Y131.332 E9.17698
G1 X150.584 Y130.875 E9.22351
G1 X150.479 Y130.833 E9.22734
G1 X146.666 Y129.176 E9.36839
G1 X146.565 Y129.128 E9.37218
G1 X142.785 Y127.161 E9.51674
G1 X142.711 Y127.12 E9.51961
G1 X138.155 Y124.43 E9.69911
G1 X138.103 Y124.398 E9.70118
G1 X135.618 Y122.801 E9.80139
G1 X135.575 Y122.772 E9.80315
G1 X131.321 Y119.84 E9.97843
G1 X131.266 Y119.8 E9.98074
G1 X126.128 Y115.925 E10.19906
G1 X126.07 Y115.88 E10.20155
G1 X120.774 Y111.488 E10.43496
G1 X120.708 Y111.43 E10.43794
G1 X116.545 Y107.578 E10.63036
G1 X116.501 Y107.536 E10.63242
G1 X111.671 Y102.708 E10.86411
G1 X111.636 Y102.672 E10.86581
G1 X106.84 Y97.572 E11.10332
G1 X106.811 Y97.54 E11.10478
G1 X99.912 Y89.792 E11.45674
G1 X99.706 Y89.5 E11.46886
G1 X99.569 Y89.17 E11.48098
G1 X99.51 Y88.818 E11.49309
G0 F3600 X99.934 Y88.979
G1 F1800 X99.908 Y88.671 E11.50357
G1 X99.963 Y88.366 E11.51409
G1 X100.093 Y88.086 E11.52456
G1 X100.223 Y87.917 E11.5318
G1 X104 Y83.802 E11.72129
G1 X108.172 Y78.657 E11.94601
G1 X108.396 Y78.444 E11.95649
G1 X108.667 Y78.295 E11.96699
G1 X108.967 Y78.221 E11.97747
G1 X109.276 Y78.225 E11.98795
G1 X109.574 Y78.309 E11.99846
G1 X109.752 Y78.403 E12.00529
G1 X116.059 Y82.447 E12.25946
G1 X116.085 Y82.464 E12.26051
G1 X123.731 Y87.657 E12.57408
G1 X123.762 Y87.679 E12.57537
G1 X128.559 Y91.159 E12.77642
G1 X128.591 Y91.183 E12.77778
G1 X133.3 Y94.848 E12.98021
G1 X133.348 Y94.887 E12.98231
G1 X137.924 Y98.845 E13.18757
G1 X137.96 Y98.878 E13.18923
G1 X141.706 Y102.39 E13.36343
G1 X141.74 Y102.423 E13.36504
G1 X145.947 Y106.693 E13.56839
G1 X145.976 Y106.723 E13.56981
G1 X148.249 Y109.197 E13.68379
G1 X148.279 Y109.232 E13.68535
G1 X151.956 Y113.559 E13.87799
G1 X151.998 Y113.611 E13.88026
G1 X155.162 Y117.787 E14.058
G1 X155.208 Y117.852 E14.0607
G1 X157.181 Y120.846 E14.18235
G1 X157.225 Y120.918 E14.18521
G1 X158.53 Y123.24 E14.27557
G1 X158.588 Y123.358 E14.28003
G1 X159.668 Y125.897 E14.37364
G1 X159.734 Y126.099 E14.38085
G1 X160.037 Y127.419 E14.42679
G1 X160.064 Y127.777 E14.43897
G1 X159.982 Y128.873 E14.47626
G1 X159.94 Y129.109 E14.48439
G1 X159.916 Y129.194 E14.48739
G1 X159.859 Y129.351 E14.49305
G1 X159.673 Y129.774 E14.50873
G1 X159.54 Y130.004 E14.51774
G1 X159.193 Y130.474 E14.53756
G1 X158.966 Y130.707 E14.5486
G1 X158.301 Y131.226 E14.57722
G1 X157.942 Y131.419 E14.59105
G1 X157.149 Y131.683 E14.6194
G1 X156.831 Y131.742 E14.63037
G1 X156.08 Y131.78 E14.65588
G1 X155.879 Y131.774 E14.6627
G1 X154.646 Y131.629 E14.70482
G1 X154.486 Y131.599 E14.71035
G1 X152.11 Y130.985 E14.7936
G1 X152.01 Y130.954 E14.79715
G1 X150.717 Y130.497 E14.84368
G1 X150.639 Y130.467 E14.84651
G1 X146.826 Y128.81 E14.98756
G1 X146.75 Y128.773 E14.99042
G1 X142.97 Y126.806 E15.13498
G1 X142.914 Y126.775 E15.13716
G1 X138.358 Y124.085 E15.31665
G1 X138.319 Y124.062 E15.31819
G1 X135.834 Y122.465 E15.4184
G1 X135.802 Y122.443 E15.41972
G1 X131.548 Y119.511 E15.59499
G1 X131.506 Y119.481 E15.59674
G1 X126.368 Y115.606 E15.81507
G1 X126.325 Y115.572 E15.81693
G1 X121.029 Y111.18 E16.05034
G1 X120.98 Y111.137 E16.05255
G1 X116.817 Y107.285 E16.24497
G1 X116.784 Y107.253 E16.24653
G1 X111.954 Y102.425 E16.47821
G1 X111.928 Y102.398 E16.47948
G1 X107.132 Y97.298 E16.71699
G1 X107.11 Y97.274 E16.71809
G1 X100.211 Y89.526 E17.07005
G1 X100.037 Y89.271 E17.08052
G1 X99.934 Y88.979 E17.09102
G1 F2100 E16.29102
G0 F3600 X101.746 Y89.174
;TYPE:WALL-OUTER
G1 F2100 E17.1326
G1 F1200 X102.052 Y89.265 E17.14343
G1 X102.604 Y89.381 E17.16257
G1 X103.148 Y89.446 E17.18115
G1 X103.705 Y89.466 E17.20006
G1 X104.249 Y89.44 E17.21854
G1 X104.799 Y89.37 E17.23735
G1 X105.244 Y89.276 E17.25278
G1 X105.775 Y89.125 E17.27151
G1 X106.279 Y88.932 E17.28982
G1 X106.776 Y88.695 E17.30849
G1 X107.239 Y88.424 E17.3267
G1 X107.688 Y88.112 E17.34524
G1 X108.099 Y87.772 E17.36334
G1 X108.49 Y87.39 E17.38188
G1 X108.842 Y86.986 E17.40006
G1 X109.164 Y86.548 E17.41851
G1 X109.451 Y86.084 E17.43701
G1 X109.696 Y85.602 E17.45536
G1 X109.904 Y85.097 E17.47389
G1 X110.066 Y84.584 E17.49214
G1 X110.188 Y84.056 E17.51052
G1 X110.265 Y83.527 E17.52866
G1 X110.299 Y82.987 E17.54701
G1 X110.289 Y82.458 E17.56496
G1 X110.238 Y81.927 E17.58306
G1 X110.145 Y81.407 E17.60098
G1 X110.011 Y80.902 E17.61871
G1 X109.838 Y80.405 E17.63656
G1 X109.648 Y79.973 E17.65257
G1 X110.465 Y80.487 E17.68532
G1 X112.706 Y81.932 E17.77578
G1 X115.588 Y83.811 E17.8925
G1 X117.807 Y85.287 E17.98291
G1 X119.586 Y86.489 E18.05575
G1 X121.931 Y88.105 E18.15236
G1 X123.263 Y89.036 E18.20749
G1 X124.889 Y90.196 E18.27526
G1 X126.519 Y91.384 E18.34368
G1 X128.117 Y92.572 E18.41124
G1 X129.596 Y93.696 E18.47426
G1 X130.86 Y94.68 E18.5286
G1 X131.935 Y95.535 E18.5752
G1 X133.005 Y96.408 E18.62205
G1 X134.308 Y97.512 E18.67999
G1 X135.117 Y98.209 E18.71621
G1 X136.15 Y99.123 E18.76301
G1 X137.314 Y100.179 E18.81632
G1 X138.946 Y101.683 E18.89162
G1 X140.043 Y102.723 E18.9429
G1 X141.17 Y103.815 E18.99614
G1 X142.394 Y105.028 E19.0546
G1 X143.126 Y105.771 E19.08998
G1 X144.582 Y107.28 E19.16112
G1 X145.584 Y108.348 E19.2108
G1 X146.561 Y109.411 E19.25978
G1 X147.529 Y110.492 E19.30901
G1 X148.588 Y111.703 E19.36359
G1 X149.457 Y112.719 E19.40894
G1 X150.29 Y113.72 E19.45312
G1 X151.202 Y114.846 E19.50228
G1 X151.985 Y115.841 E19.54524
G1 X152.785 Y116.891 E19.59002
G1 X153.543 Y117.919 E19.63335
G1 X154.392 Y119.122 E19.6833
G1 X154.975 Y119.981 E19.71852
G1 X155.409 Y120.642 E19.74535
G1 X155.893 Y121.406 E19.77603
G1 X156.368 Y122.192 E19.80719
G1 X156.74 Y122.842 E19.83259
G1 X157.088 Y123.48 E19.85725
G1 X157.404 Y124.094 E19.88068
G1 X157.716 Y124.752 E19.90538
G1 X157.985 Y125.37 E19.92825
G1 X158.145 Y125.763 E19.94264
G1 X158.313 Y126.221 E19.95919
G1 X158.446 Y126.633 E19.97388
G1 X158.546 Y127.002 E19.98685
G1 X158.622 Y127.345 E19.99877
G1 X158.67 Y127.637 E20.00881
G1 X158.693 Y127.9 E20.01776
G1 X158.695 Y128.101 E20.02458
G1 X158.678 Y128.343 E20.03281
G1 X158.645 Y128.557 E20.04016
G1 X158.596 Y128.755 E20.04708
G1 X158.531 Y128.947 E20.05396
G1 X158.456 Y129.114 E20.06017
G1 X158.36 Y129.289 E20.06694
G1 X158.265 Y129.425 E20.07257
G1 X158.023 Y129.709 E20.08522
G1 X157.899 Y129.829 E20.09108
G1 X157.597 Y130.045 E20.10368
G1 X157.386 Y130.157 E20.11178
G1 X157.189 Y130.239 E20.11902
G1 X156.974 Y130.305 E20.12665
G1 X156.761 Y130.353 E20.13406
G1 X156.55 Y130.381 E20.14128
G1 X156.286 Y130.395 E20.15025
G1 X156.029 Y130.392 E20.15896
G1 X155.67 Y130.369 E20.17117
G1 X155.297 Y130.329 E20.1839
G1 X154.96 Y130.278 E20.19546
G1 X154.456 Y130.181 E20.21287
G1 X153.988 Y130.071 E20.22918
G1 X153.417 Y129.922 E20.2492
G1 X152.799 Y129.743 E20.27103
G1 X151.593 Y129.337 E20.3142
G1 X151.012 Y129.119 E20.33525
G1 X150.069 Y128.744 E20.36968
G1 X149.11 Y128.332 E20.40509
G1 X148.168 Y127.905 E20.44018
G1 X147.331 Y127.51 E20.47158
G1 X146.394 Y127.047 E20.50703
G1 X145.338 Y126.504 E20.54732
G1 X144.299 Y125.949 E20.58728
G1 X143.093 Y125.28 E20.63407
G1 X141.958 Y124.628 E20.67847
G1 X140.87 Y123.985 E20.72135
G1 X139.537 Y123.173 E20.7743
G1 X138.264 Y122.374 E20.82529
G1 X136.876 Y121.476 E20.88137
G1 X135.436 Y120.517 E20.94007
G1 X133.66 Y119.295 E21.0132
G1 X132.811 Y118.699 E21.04839
G1 X131.98 Y118.102 E21.08311
G1 X130.219 Y116.809 E21.15722
G1 X128.964 Y115.856 E21.21068
G1 X127.547 Y114.755 E21.27156
G1 X126.124 Y113.625 E21.33321
G1 X124.696 Y112.463 E21.39567
G1 X123.434 Y111.411 E21.4514
G1 X122.301 Y110.44 E21.50203
G1 X121.243 Y109.504 E21.54995
G1 X120.285 Y108.637 E21.59378
G1 X119.239 Y107.665 E21.64223
G1 X118.098 Y106.58 E21.69564
G1 X116.716 Y105.239 E21.76097
G1 X115.517 Y104.052 E21.81821
G1 X114.359 Y102.885 E21.87398
G1 X112.697 Y101.182 E21.95471
G1 X111.063 Y99.47 E22.035
G1 X109.726 Y98.043 E22.10134
G1 X107.916 Y96.085 E22.1918
G1 X106.313 Y94.322 E22.27264
G1 X104.448 Y92.245 E22.36734
G1 X102.449 Y89.985 E22.4697
G1 X101.746 Y89.174 E22.50611
G0 F3600 X101.937 Y89.231
G1 F2100 E21.70611
G0 F3600 X108.259 Y96.057
G1 F2100 E22.54768
G1 F1200 X110.005 Y97.556 E22.62575
G1 X119.181 Y86.862 E23.1038
G1 X117.435 Y85.365 E23.18183
G1 X108.259 Y96.057 E23.65982
G0 F3600 X108.41 Y96.187
G1 F2100 E22.85982
G0 F3600 X137.881 Y121.426
G1 F2100 E23.7014
G1 F1200 X139.627 Y122.923 E23.77942
G1 X148.751 Y112.291 E24.25472
G1 X147.007 Y110.792 E24.33274
G1 X137.881 Y121.426 E24.80814
G0 F3600 X138.032 Y121.556
G1 F2100 E24.00814
G0 F3600 X146.874 Y110.67
;TYPE:SKIN
G1 F2100 E24.84971
G1 F1200 X132.134 Y95.931 E25.55688
G1 X132.064 Y95.861
G1 F2100 E24.75688
G0 F3600 X129.45 Y93.811
G1 F2100 E25.59846
G1 F1200 X146.612 Y110.974 E26.42187
G0 F3600 X146.352 Y111.279
G1 F1200 X127.151 Y92.079 E27.34307
G1 X127.081 Y92.009
G1 F2100 E26.54307
G0 F3600 X125.026 Y90.519
G1 F2100 E27.38464
G1 F1200 X146.09 Y111.583 E28.39524
G0 F3600 X145.829 Y111.888
G1 F1200 X123.045 Y89.103 E29.48839
G1 X122.975 Y89.033
G1 F2100 E28.68839
G0 F3600 X121.185 Y87.809
G1 F2100 E29.52997
G1 F1200 X145.567 Y112.192 E30.69978
G0 F3600 X145.306 Y112.497
G1 F1200 X119.37 Y86.561 E31.94413
G0 F3600 X119.272 Y87.028
G1 F1200 X145.045 Y112.801 E33.18066
G0 F3600 X144.784 Y113.105
G1 F1200 X119.011 Y87.333 E34.41716
G0 F3600 X118.75 Y87.637
G1 F1200 X144.523 Y113.41 E35.65369
G0 F3600 X144.261 Y113.714
G1 F1200 X118.489 Y87.942 E36.89017
G0 F3600 X118.228 Y88.246
G1 F1200 X144 Y114.019 E38.12668
G0 F3600 X143.739 Y114.323
G1 F1200 X117.966 Y88.55 E39.36321
G0 F3600 X117.705 Y88.855
G1 F1200 X143.478 Y114.628 E40.59974
G0 F3600 X143.216 Y114.932
G1 F1200 X117.444 Y89.159 E41.83624
G0 F3600 X117.183 Y89.464
G1 F1200 X142.955 Y115.237 E43.07274
G0 F3600 X142.694 Y115.541
G1 F1200 X116.922 Y89.769 E44.30923
G0 F3600 X116.66 Y90.073
G1 F1200 X142.433 Y115.846 E45.54575
G0 F3600 X142.171 Y116.15
G1 F1200 X116.399 Y90.378 E46.78223
G0 F3600 X116.138 Y90.682
G1 F1200 X141.91 Y116.454 E48.01871
G0 F3600 X141.649 Y116.758
G1 F1200 X115.877 Y90.986 E49.2552
G0 F3600 X115.616 Y91.291
G1 F1200 X141.388 Y117.063 E50.49168
G0 F3600 X141.126 Y117.367
G1 F1200 X115.354 Y91.595 E51.72816
G0 F3600 X115.093 Y91.9
G1 F1200 X140.865 Y117.672 E52.96464
G0 F3600 X140.604 Y117.977
G1 F1200 X114.832 Y92.204 E54.20114
G0 F3600 X114.571 Y92.509
G1 F1200 X140.343 Y118.281 E55.43762
G0 F3600 X140.082 Y118.586
G1 F1200 X114.31 Y92.814 E56.6741
G0 F3600 X114.048 Y93.118
G1 F1200 X139.82 Y118.89 E57.91058
G0 F3600 X139.559 Y119.194
G1 F1200 X113.787 Y93.422 E59.14706
G0 F3600 X113.525 Y93.727
G1 F1200 X139.297 Y119.498 E60.38352
G0 F3600 X139.036 Y119.803
