;FLAVOR:Marlin
;TIME:107
;Filament used: 0.0477684m
;Layer height: 0.2
;Generated with Cura_SteamEngine 3.1.0
M190 S60
M104 S215
M109 S215
M82 ; absolute extrusion mode
G28 ;Home
G1 Z15.0 F6000 ;Move the platform down 15mm
;Prime the extruder
G92 E0
G1 F200 E3
G92 E0
;LAYER_COUNT:27
;LAYER:0
M107
G0 F7200 X99.377 Y106.142 Z0.2
;TYPE:SKIRT
G1 F1800 X99.69 Y105.894 E0.01328
G1 X100.046 Y105.713 E0.02657
G1 X100.522 Y105.592 E0.0429
G1 X104.674 Y105.073 E0.18207
G1 X107.359 Y104.647 E0.27249
G1 X111.691 Y103.8 E0.4193
G1 X112.089 Y103.763 E0.4326
G1 X112.486 Y103.806 E0.44588
G1 X112.867 Y103.926 E0.45916
G1 X113.216 Y104.121 E0.47246
G1 X113.52 Y104.38 E0.48574
G1 X113.72 Y104.626 E0.49629
G1 X114.565 Y105.849 E0.54573
G1 X114.759 Y106.199 E0.55904
G1 X114.878 Y106.58 E0.57232
G1 X114.92 Y106.977 E0.5856
G1 X114.882 Y107.375 E0.59889
G1 X114.765 Y107.757 E0.61218
G1 X114.575 Y108.108 E0.62546
G1 X114.319 Y108.415 E0.63875
G1 X114.043 Y108.641 E0.65062
G1 X110.989 Y110.714 E0.77338
G1 X110.638 Y110.904 E0.78666
G1 X110.256 Y111.021 E0.79995
G1 X109.866 Y111.059 E0.81298
G1 X100.77 Y111.059 E1.11551
G1 X100.372 Y111.019 E1.12882
G1 X99.991 Y110.901 E1.14208
G1 X99.64 Y110.709 E1.15539
G1 X99.335 Y110.452 E1.16865
G1 X99.087 Y110.139 E1.18194
G1 X98.906 Y109.783 E1.19522
G1 X98.799 Y109.398 E1.20851
G1 X98.77 Y109.059 E1.21983
G1 X98.77 Y107.577 E1.26912
G1 X98.81 Y107.179 E1.28242
G1 X98.928 Y106.798 E1.29569
G1 X99.12 Y106.447 E1.309
G1 X99.377 Y106.142 E1.32226
G0 F7200 X99.769 Y106.329
G1 F1800 X100.071 Y106.138 E1.33415
G1 X100.572 Y105.989 E1.35153
G1 X104.721 Y105.471 E1.4906
G1 X107.446 Y105.038 E1.58237
G1 X111.768 Y104.193 E1.72884
G1 X112.124 Y104.164 E1.74072
G1 X112.478 Y104.214 E1.75261
G1 X112.811 Y104.342 E1.76448
G1 X113.108 Y104.541 E1.77637
G1 X113.391 Y104.853 E1.79038
G1 X114.236 Y106.076 E1.83982
G1 X114.405 Y106.391 E1.85171
G1 X114.5 Y106.736 E1.86361
G1 X114.516 Y107.092 E1.87546
G1 X114.453 Y107.444 E1.88736
G1 X114.313 Y107.773 E1.89925
G1 X114.104 Y108.062 E1.91111
G1 X113.819 Y108.31 E1.92368
G1 X110.765 Y110.383 E2.04644
G1 X110.448 Y110.549 E2.05835
G1 X110.103 Y110.641 E2.07022
G1 X109.866 Y110.659 E2.07813
G1 X100.77 Y110.659 E2.38066
G1 X100.415 Y110.619 E2.39254
G1 X100.078 Y110.501 E2.40442
G1 X99.775 Y110.312 E2.4163
G1 X99.522 Y110.06 E2.42817
G1 X99.331 Y109.758 E2.44006
G1 X99.212 Y109.421 E2.45195
G1 X99.17 Y109.059 E2.46407
G1 X99.17 Y107.577 E2.51336
G1 X99.21 Y107.222 E2.52524
G1 X99.328 Y106.885 E2.53712
G1 X99.517 Y106.582 E2.54899
G1 X99.769 Y106.329 E2.56087
G0 F7200 X99.913 Y106.737
G1 F1800 X100.156 Y106.546 E2.57115
G1 X100.44 Y106.423 E2.58144
G1 X100.621 Y106.386 E2.58759
G1 X104.776 Y105.867 E2.72686
G1 X107.502 Y105.434 E2.81866
G1 X111.845 Y104.585 E2.96585
G1 X112.153 Y104.566 E2.97611
G1 X112.457 Y104.625 E2.98641
G1 X112.735 Y104.761 E2.9967
G1 X113.062 Y105.081 E3.01192
G1 X113.907 Y106.304 E3.06136
G1 X114.049 Y106.579 E3.07166
G1 X114.115 Y106.881 E3.08194
G1 X114.103 Y107.19 E3.09222
G1 X114.011 Y107.485 E3.1025
G1 X113.848 Y107.747 E3.11276
G1 X113.594 Y107.979 E3.1242
G1 X110.54 Y110.052 E3.24697
G1 X110.264 Y110.191 E3.25725
G1 X109.866 Y110.259 E3.27068
G1 X100.77 Y110.259 E3.57321
G1 X100.463 Y110.219 E3.58351
G1 X100.177 Y110.102 E3.59379
G1 X99.93 Y109.916 E3.60407
G1 X99.739 Y109.673 E3.61435
G1 X99.616 Y109.389 E3.62465
G1 X99.57 Y109.059 E3.63573
G1 X99.57 Y107.577 E3.68502
G1 X99.61 Y107.27 E3.69532
G1 X99.727 Y106.984 E3.70559
G1 X99.913 Y106.737 E3.71588
G1 F1500 E3.01588
G0 F7200 X109.585 Y108.169
;TYPE:WALL-INNER
G1 F1500 E3.71588
G1 F1200 X111.931 Y106.581 E3.8101
G1 X112.1 Y106.829 E3.82008
G1 X109.677 Y108.469 E3.9174
G1 X101.361 Y108.469 E4.19399
G1 X101.36 Y108.169 E4.20397
G1 X109.585 Y108.169 E4.47753
G0 F7200 X109.462 Y107.769
;TYPE:WALL-OUTER
G1 F1200 X112.038 Y106.026 E4.58098
G1 X112.655 Y106.936 E4.61755
G1 X109.799 Y108.869 E4.73225
G1 X100.961 Y108.869 E5.0262
G1 X100.96 Y107.769 E5.06279
G1 X109.462 Y107.769 E5.34557
G0 F7200 X109.627 Y107.657
G0 X109.585 Y108.169
;TIME_ELAPSED:7.674578
;LAYER:1
M140 S60
M106 S255
G0 X109.585 Y108.169 Z0.4
;TYPE:WALL-INNER
G1 F600 X112.096 Y106.469 E5.44642
G1 X112.265 Y106.717 E5.4564
G1 X109.677 Y108.469 E5.56035
G1 X101.161 Y108.469 E5.84359
G1 X101.16 Y108.169 E5.85357
G1 X109.585 Y108.169 E6.13379
G0 F7200 X109.462 Y107.769
;TYPE:WALL-OUTER
G1 F800 X112.203 Y105.914 E6.24387
G1 X112.82 Y106.824 E6.28044
G1 X109.799 Y108.869 E6.40177
G1 X100.761 Y108.869 E6.70238
G1 X100.76 Y107.769 E6.73896
G1 X109.462 Y107.769 E7.02839
G0 F7200 X109.627 Y107.657
G0 X109.585 Y108.169
;TIME_ELAPSED:12.191357
;LAYER:2
G0 X109.585 Y108.169 Z0.6
;TYPE:WALL-INNER
G1 F600 X112.262 Y106.357 E7.13591
G1 X112.431 Y106.605 E7.14589
G1 X109.677 Y108.469 E7.2565
G1 X100.961 Y108.469 E7.54639
G1 X100.96 Y108.169 E7.55637
G1 X109.585 Y108.169 E7.84324
G0 F7200 X109.462 Y107.769
;TYPE:WALL-OUTER
G1 F1200 X112.369 Y105.802 E7.95998
G1 X112.986 Y106.712 E7.99655
G1 X109.799 Y108.869 E8.12455
G1 X100.561 Y108.869 E8.4318
G1 X100.56 Y107.769 E8.46839
G1 X109.462 Y107.769 E8.76447
G0 F7200 X109.627 Y107.657
G0 X109.585 Y108.169
;TIME_ELAPSED:16.156999
;LAYER:3
G0 X109.585 Y108.169 Z0.8
;TYPE:WALL-INNER
G1 F600 X112.428 Y106.245 E8.87865
G1 X112.597 Y106.493 E8.88863
G1 X109.677 Y108.469 E9.0059
G1 X100.761 Y108.469 E9.30244
G1 X100.76 Y108.169 E9.31242
G1 X109.585 Y108.169 E9.60594
G0 F7200 X109.462 Y107.769
;TYPE:WALL-OUTER
G1 F1200 X112.535 Y105.69 E9.72934
G1 X113.152 Y106.6 E9.76591
G1 X109.799 Y108.869 E9.90057
G1 X100.361 Y108.869 E10.21448
G1 X100.36 Y107.769 E10.25106
G1 X109.462 Y107.769 E10.5538
G0 F7200 X109.627 Y107.657
G0 X109.585 Y108.169
;TIME_ELAPSED:20.242717
;LAYER:4
G0 X109.585 Y108.169 Z1
;TYPE:WALL-INNER
G1 F600 X112.586 Y106.138 E10.67432
G1 X112.755 Y106.386 E10.6843
G1 X109.677 Y108.469 E10.80792
G1 X100.561 Y108.469 E11.11112
G1 X100.56 Y108.169 E11.12109
G1 X109.585 Y108.169 E11.42127
G0 F7200 X109.462 Y107.769
;TYPE:WALL-OUTER
G1 F1200 X112.693 Y105.583 E11.55102
G1 X113.31 Y106.493 E11.58758
G1 X109.799 Y108.869 E11.72859
G1 X100.161 Y108.869 E12.04915
G1 X100.16 Y107.769 E12.08573
G1 X109.462 Y107.769 E12.39512
G0 F7200 X109.627 Y107.657
G0 X109.585 Y108.169
;TIME_ELAPSED:24.445681
;LAYER:5
G0 X109.585 Y108.169 Z1.2
;TYPE:WALL-INNER
G1 F600 X112.729 Y106.041 E12.52139
G1 X112.898 Y106.289 E12.53137
G1 X109.677 Y108.469 E12.66073
G1 X100.461 Y108.469 E12.96726
G1 X100.461 Y108.169 E12.97724
G1 X109.585 Y108.169 E13.2807
G0 F7200 X109.462 Y107.769
;TYPE:WALL-OUTER
G1 F1200 X112.836 Y105.486 E13.4162
G1 X113.453 Y106.396 E13.45277
G1 X109.799 Y108.869 E13.59952
G1 X100.061 Y108.869 E13.9234
G1 X100.061 Y107.769 E13.95999
G1 X109.462 Y107.769 E14.27267
G0 F7200 X109.627 Y107.657
G0 X109.584 Y108.169
;TIME_ELAPSED:28.730336
;LAYER:6
G0 X109.584 Y108.169 Z1.4
;TYPE:WALL-INNER
G1 F600 X110.789 Y107.355 E14.32103
G1 X110.958 Y107.603 E14.33102
G1 X109.677 Y108.469 E14.38244
G1 X100.461 Y108.469 E14.68897
G1 X100.461 Y108.169 E14.69895
G1 X109.584 Y108.169 E15.00238
G0 F7200 X109.462 Y107.769
;TYPE:WALL-OUTER
G1 F1200 X110.896 Y106.8 E15.05994
G1 X111.513 Y107.71 E15.09651
G1 X109.799 Y108.869 E15.16533
G1 X100.061 Y108.869 E15.48922
G1 X100.061 Y107.769 E15.5258
G1 X109.462 Y107.769 E15.83848
G0 F7200 X109.627 Y107.657
G1 F1500 E15.13848
G0 F7200 X113.004 Y106.217
;TYPE:WALL-INNER
G1 F1500 E15.83848
G1 F600 X112.518 Y106.545 E15.85798
G1 X112.35 Y106.297 E15.86794
G1 X112.836 Y105.969 E15.88745
G1 X113.004 Y106.217 E15.89741
G0 F7200 X113.56 Y106.323
;TYPE:WALL-OUTER
G1 F1200 X112.411 Y107.1 E15.94354
G1 X111.794 Y106.191 E15.98008
G1 X112.943 Y105.414 E16.02622
G1 X113.56 Y106.323 E16.06276
G0 F7200 X113.395 Y106.435
G1 F1500 E15.36276
G0 F7200 X109.585 Y108.169
;TIME_ELAPSED:32.960474
;LAYER:7
G0 X109.585 Y108.169 Z1.6
;TYPE:WALL-INNER
G1 F1500 E16.06276
G1 F600 X110.431 Y107.596 E16.09674
G1 X110.6 Y107.844 E16.10672
G1 X109.677 Y108.469 E16.1438
G1 X100.461 Y108.469 E16.45032
G1 X100.461 Y108.169 E16.4603
G1 X109.585 Y108.169 E16.76377
G0 F7200 X109.462 Y107.769
;TYPE:WALL-OUTER
G1 F1200 X110.538 Y107.041 E16.80698
G1 X111.155 Y107.951 E16.84354
G1 X109.799 Y108.869 E16.89801
G1 X100.061 Y108.869 E17.2219
G1 X100.061 Y107.769 E17.25848
G1 X109.462 Y107.769 E17.57116
G0 F7200 X109.627 Y107.657
G1 F1500 E16.87116
G0 F7200 X113.095 Y106.155
;TYPE:WALL-INNER
G1 F1500 E17.57116
G1 F600 X112.876 Y106.303 E17.57995
G1 X112.708 Y106.055 E17.58992
G1 X112.927 Y105.907 E17.59871
G1 X113.095 Y106.155 E17.60867
G0 F7200 X113.651 Y106.261
;TYPE:WALL-OUTER
G1 F1200 X112.769 Y106.858 E17.64409
G1 X112.152 Y105.949 E17.68063
G1 X113.034 Y105.352 E17.71606
G1 X113.651 Y106.261 E17.7526
G0 F7200 X113.486 Y106.373
G1 F1500 E17.0526
G0 F7200 X109.584 Y108.169
;TIME_ELAPSED:36.991050
;LAYER:8
G0 X109.584 Y108.169 Z1.8
;TYPE:WALL-INNER
G1 F1500 E17.7526
G1 F600 X110.242 Y107.725 E17.779
G1 X110.411 Y107.973 E17.78898
G1 X109.677 Y108.469 E17.81844
G1 X100.461 Y108.469 E18.12497
G1 X100.461 Y108.169 E18.13495
G1 X109.584 Y108.169 E18.43838
G0 F7200 X109.462 Y107.769
;TYPE:WALL-OUTER
G1 F1200 X110.349 Y107.17 E18.47398
G1 X110.966 Y108.08 E18.51055
G1 X109.799 Y108.869 E18.5574
G1 X100.061 Y108.869 E18.88129
G1 X100.061 Y107.769 E18.91787
G1 X109.462 Y107.769 E19.23055
G0 F7200 X109.627 Y107.658
G1 F1500 E18.53055
G0 F7200 X113.171 Y106.104
;TYPE:WALL-INNER
G1 F1500 E19.23055
G1 F600 X113.065 Y106.175 E19.2348
G1 X112.897 Y105.927 E19.24476
G1 X113.003 Y105.856 E19.249
G1 X113.171 Y106.104 E19.25896
G0 F7200 X113.727 Y106.21
;TYPE:WALL-OUTER
G1 F1200 X112.958 Y106.73 E19.28984
G1 X112.341 Y105.821 E19.32638
G1 X113.11 Y105.301 E19.35726
G1 X113.727 Y106.21 E19.3938
G0 F7200 X113.562 Y106.322
G1 F1500 E18.6938
G0 F7200 X109.584 Y108.169
;TIME_ELAPSED:40.913421
;LAYER:9
G0 X109.584 Y108.169 Z2
;TYPE:WALL-INNER
G1 F1500 E19.3938
G1 F600 X110.119 Y107.808 E19.41526
G1 X110.288 Y108.056 E19.42524
G1 X109.677 Y108.469 E19.44977
G1 X100.461 Y108.469 E19.7563
G1 X100.461 Y108.169 E19.76628
G1 X109.584 Y108.169 E20.06971
G0 F7200 X109.462 Y107.769
;TYPE:WALL-OUTER
G1 F1200 X110.226 Y107.253 E20.10037
G1 X110.843 Y108.163 E20.13694
G1 X109.799 Y108.869 E20.17886
G1 X100.061 Y108.869 E20.50275
G1 X100.061 Y107.769 E20.53933
G1 X109.462 Y107.769 E20.85201
G0 F7200 X109.627 Y107.657
G1 F1500 E20.15201
G0 F7200 X113.223 Y106.068
;TYPE:WALL-INNER
G1 F1500 E20.85201
G1 F600 X113.188 Y106.091 E20.8534
G1 X113.02 Y105.843 E20.86337
G1 X113.055 Y105.82 E20.86476
G1 X113.223 Y106.068 E20.87472
G0 F7200 X113.779 Y106.174
;TYPE:WALL-OUTER
G1 F1200 X113.081 Y106.646 E20.90275
G1 X112.464 Y105.737 E20.93929
G1 X113.162 Y105.265 E20.96731
G1 X113.779 Y106.174 E21.00385
G0 F7200 X113.614 Y106.286
G1 F1500 E20.30385
G0 F7200 X109.584 Y108.169
;TIME_ELAPSED:44.766618
;LAYER:10
G0 X109.584 Y108.169 Z2.2
;TYPE:WALL-INNER
G1 F1500 E21.00385
G1 F600 X110.036 Y107.864 E21.02199
G1 X110.205 Y108.112 E21.03197
G1 X109.677 Y108.469 E21.05317
G1 X100.461 Y108.469 E21.3597
G1 X100.461 Y108.169 E21.36967
G1 X109.584 Y108.169 E21.67311
G0 F7200 X109.462 Y107.769
;TYPE:WALL-OUTER
G1 F1200 X110.143 Y107.309 E21.70044
G1 X110.76 Y108.219 E21.73701
G1 X109.799 Y108.869 E21.77559
G1 X100.061 Y108.869 E22.09948
G1 X100.061 Y107.769 E22.13607
G1 X109.462 Y107.769 E22.44875
G0 F7200 X109.627 Y107.657
G1 F1500 E21.74875
G0 F7200 X113.824 Y106.144
G1 F1500 E22.44875
G1 F1200 X113.163 Y106.591 E22.47529
G1 X112.546 Y105.682 E22.51183
G1 X113.207 Y105.235 E22.53837
G1 X113.824 Y106.144 E22.57491
G0 F7200 X113.659 Y106.256
G0 X113.263 Y106.2
G1 F1200 X113.244 Y106 E22.58121
G1 X113.108 Y105.8 E22.58943
G1 X113.117 Y105.6 E22.59524
G1 F1500 E21.89524
G0 F7200 X109.585 Y108.169
;TIME_ELAPSED:48.545254
;LAYER:11
G0 X109.585 Y108.169 Z2.4
;TYPE:WALL-INNER
G1 F1500 E22.59524
G1 F600 X109.985 Y107.898 E22.61131
G1 X110.154 Y108.146 E22.62129
G1 X109.677 Y108.469 E22.64045
G1 X100.461 Y108.469 E22.94698
G1 X100.461 Y108.169 E22.95696
G1 X109.585 Y108.169 E23.26042
G0 F7200 X109.462 Y107.769
;TYPE:WALL-OUTER
G1 F1200 X110.092 Y107.343 E23.28572
G1 X110.709 Y108.253 E23.32228
G1 X109.799 Y108.869 E23.35883
G1 X100.061 Y108.869 E23.68272
G1 X100.061 Y107.769 E23.71931
G1 X109.462 Y107.769 E24.03198
G0 F7200 X109.627 Y107.657
G1 F1500 E23.33198
G0 F7200 X113.847 Y106.128
G1 F1500 E24.03198
G1 F1200 X113.214 Y106.557 E24.05742
G1 X112.597 Y105.648 E24.09396
G1 X113.23 Y105.219 E24.11939
G1 X113.847 Y106.128 E24.15593
G0 F7200 X113.682 Y106.24
G0 X113.298 Y106
G1 F1200 X113.162 Y105.8 E24.16349
G1 X113.134 Y105.6 E24.16925
G0 F7200 X113.207 Y106.2
;TYPE:SKIN
G1 F1200 X113.392 Y106.2 E24.17233
G1 F1500 E23.47233
G0 F7200 X109.584 Y108.169
;TIME_ELAPSED:52.325998
;LAYER:12
G0 X109.584 Y108.169 Z2.6
;TYPE:WALL-INNER
G1 F1500 E24.17233
G1 F600 X109.961 Y107.915 E24.18745
G1 X110.13 Y108.163 E24.19743
G1 X109.677 Y108.469 E24.21561
G1 X100.461 Y108.469 E24.52214
G1 X100.461 Y108.169 E24.53212
G1 X109.584 Y108.169 E24.83555
G0 F7200 X109.462 Y107.769
;TYPE:WALL-OUTER
G1 F1200 X110.068 Y107.36 E24.85986
G1 X110.685 Y108.27 E24.89643
G1 X109.799 Y108.869 E24.932
G1 X100.061 Y108.869 E25.25589
G1 X100.061 Y107.769 E25.29248
G1 X109.462 Y107.769 E25.60516
G0 F7200 X109.627 Y107.658
G1 F1500 E24.90516
G0 F7200 X113.861 Y106.119
G1 F1500 E25.60516
G1 F1200 X113.239 Y106.54 E25.63014
G1 X112.622 Y105.63 E25.6667
G1 X113.244 Y105.209 E25.69169
G1 X113.861 Y106.119 E25.72825
G0 F7200 X113.696 Y106.231
G0 X113.327 Y106
G1 F1200 X113.191 Y105.8 E25.73555
G1 X113.145 Y105.6 E25.74134
G0 F7200 X113.244 Y106.2
;TYPE:SKIN
G1 F1200 X113.392 Y106.2 E25.7438
G1 F1500 E25.0438
G0 F7200 X109.585 Y108.169
;TIME_ELAPSED:56.094714
;LAYER:13
G0 X109.585 Y108.169 Z2.8
;TYPE:WALL-INNER
G1 F1500 E25.7438
G1 F600 X109.961 Y107.914 E25.75891
G1 X110.13 Y108.162 E25.76889
G1 X109.677 Y108.469 E25.78709
G1 X100.461 Y108.469 E26.09362
G1 X100.461 Y108.169 E26.1036
G1 X109.585 Y108.169 E26.40706
G0 F7200 X109.462 Y107.769
;TYPE:WALL-OUTER
G1 F1200 X110.068 Y107.359 E26.4314
G1 X110.685 Y108.269 E26.46797
G1 X109.799 Y108.869 E26.50355
G1 X100.061 Y108.869 E26.82744
G1 X100.061 Y107.769 E26.86403
G1 X109.462 Y107.769 E27.17671
G0 F7200 X109.627 Y107.657
G1 F1500 E26.47671
G0 F7200 X113.861 Y106.119
G1 F1500 E27.17671
G1 F1200 X113.239 Y106.541 E27.20171
G1 X112.622 Y105.631 E27.23827
G1 X113.244 Y105.209 E27.26327
G1 X113.861 Y106.119 E27.29984
G0 F7200 X113.696 Y106.231
G0 X113.326 Y106
G1 F1200 X113.19 Y105.8 E27.30712
G1 X113.145 Y105.6 E27.31288
G0 F7200 X113.243 Y106.2
;TYPE:SKIN
G1 F1200 X113.394 Y106.2 E27.31539
G1 F1500 E26.61539
G0 F7200 X109.585 Y108.169
;TIME_ELAPSED:59.863860
;LAYER:14
G0 X109.585 Y108.169 Z3
;TYPE:WALL-INNER
G1 F1500 E27.31539
G1 F600 X109.986 Y107.897 E27.33151
G1 X110.154 Y108.145 E27.34147
G1 X109.677 Y108.469 E27.36065
G1 X100.461 Y108.469 E27.66718
G1 X100.461 Y108.169 E27.67716
G1 X109.585 Y108.169 E27.98062
G0 F7200 X109.462 Y107.769
;TYPE:WALL-OUTER
G1 F1200 X110.093 Y107.342 E28.00596
G1 X110.709 Y108.252 E28.04251
G1 X109.799 Y108.869 E28.07908
G1 X100.061 Y108.869 E28.40297
G1 X100.061 Y107.769 E28.43955
G1 X109.462 Y107.769 E28.75223
G0 F7200 X109.627 Y107.657
G1 F1500 E28.05223
G0 F7200 X113.846 Y106.13
G1 F1500 E28.75223
G1 F1200 X113.214 Y106.557 E28.7776
G1 X112.597 Y105.648 E28.81414
G1 X113.229 Y105.22 E28.83953
G1 X113.846 Y106.13 E28.87609
G0 F7200 X113.681 Y106.242
G0 X113.297 Y106
G1 F1200 X113.161 Y105.8 E28.88364
G1 X113.133 Y105.6 E28.88936
G0 F7200 X113.207 Y106.2
;TYPE:SKIN
