;FLAVOR:Marlin
;TIME:3648
;Filament used: 2.35363m
;Layer height: 0.2
;Generated with Cura_SteamEngine 3.1.0
M190 S60
M104 S230
M109 S230
M82 ; absolute extrusion mode
G28 ;Home
G1 Z15.0 F6000 ;Move the platform down 15mm
;Prime the extruder
G92 E0
G1 F200 E3
G92 E0
;LAYER_COUNT:673
;LAYER:0
M107
G0 F3600 X109.56 Y106.032 Z0.2
;TYPE:SKIRT
G1 F1800 X109.858 Y105.766 E0.01355
G1 X110.203 Y105.564 E0.02711
G1 X110.581 Y105.435 E0.04066
G1 X110.977 Y105.384 E0.05421
G1 X111.376 Y105.412 E0.06778
G1 X111.76 Y105.519 E0.0813
G1 X112.274 Y105.813 E0.10139
G1 X117.234 Y109.725 E0.3157
G1 X123.824 Y114.491 E0.59161
G1 X129.055 Y118.108 E0.80736
G1 X152.427 Y133.853 E1.76341
G1 X152.735 Y134.108 E1.77697
G1 X152.985 Y134.42 E1.79054
G1 X153.169 Y134.774 E1.80407
G1 X153.279 Y135.159 E1.81765
G1 X153.309 Y135.557 E1.83119
G1 X153.261 Y135.953 E1.84473
G1 X153.134 Y136.332 E1.85829
G1 X152.935 Y136.678 E1.87183
G1 X152.808 Y136.838 E1.87876
G1 X145.163 Y145.476 E2.2701
G1 X144.753 Y145.828 E2.28843
G1 X139.789 Y149.047 E2.48914
G1 X135.556 Y152.136 E2.66692
G1 X135.284 Y152.303 E2.67775
G1 X134.403 Y152.751 E2.71128
G1 X133.954 Y152.915 E2.72749
G1 X133.486 Y153.025 E2.7438
G1 X133.03 Y153.078 E2.75938
G1 X132.001 Y153.079 E2.79429
G1 X131.603 Y153.039 E2.80786
G1 X131.387 Y152.983 E2.81543
G1 X130.466 Y152.687 E2.84825
G1 X129.954 Y152.438 E2.86756
G1 X129.284 Y151.983 E2.89504
G1 X128.948 Y151.695 E2.91005
G1 X128.579 Y151.301 E2.92836
G1 X128.37 Y151.036 E2.93981
G1 X127.979 Y150.444 E2.96388
G1 X127.79 Y150.082 E2.97774
G1 X127.616 Y149.645 E2.99369
G1 X127.523 Y149.345 E3.00435
G1 X126.504 Y144.83 E3.16138
G1 X125.024 Y139.476 E3.34982
G1 X123.242 Y134.21 E3.53843
G1 X121.177 Y129.085 E3.72588
G1 X118.818 Y124.064 E3.91408
G1 X116.177 Y119.184 E4.10232
G1 X113.277 Y114.481 E4.28977
G1 X109.217 Y108.74 E4.52832
G1 X109.02 Y108.392 E4.54188
G1 X108.896 Y108.012 E4.55545
G1 X108.85 Y107.616 E4.56897
G1 X108.884 Y107.217 E4.58256
G1 X108.996 Y106.834 E4.59609
G1 X109.183 Y106.481 E4.60964
G1 X109.375 Y106.234 E4.62026
G1 X109.56 Y106.032 E4.62955
G0 F3600 X109.855 Y106.302
G1 F1800 X110.124 Y106.068 E4.64165
G1 X110.439 Y105.898 E4.65379
G1 X110.783 Y105.803 E4.6659
G1 X111.14 Y105.786 E4.67802
G1 X111.491 Y105.849 E4.69012
G1 X111.82 Y105.989 E4.70225
G1 X112.026 Y106.127 E4.71066
G1 X117 Y110.05 E4.92557
G1 X123.562 Y114.796 E5.20032
G1 X128.832 Y118.44 E5.41768
G1 X152.204 Y134.185 E6.37372
G1 X152.476 Y134.416 E6.38583
G1 X152.69 Y134.702 E6.39795
G1 X152.835 Y135.029 E6.41008
G1 X152.904 Y135.379 E6.42219
G1 X152.894 Y135.736 E6.4343
G1 X152.805 Y136.082 E6.44642
G1 X152.641 Y136.4 E6.45856
G1 X152.508 Y136.572 E6.46594
G1 X144.863 Y145.21 E6.85727
G1 X144.536 Y145.492 E6.87192
G1 X139.549 Y148.726 E7.07357
G1 X135.32 Y151.812 E7.25117
G1 X135.102 Y151.946 E7.25986
G1 X134.221 Y152.394 E7.29339
G1 X133.862 Y152.526 E7.30636
G1 X133.394 Y152.636 E7.32267
G1 X133.03 Y152.678 E7.3351
G1 X132.001 Y152.679 E7.37001
G1 X131.509 Y152.602 E7.38691
G1 X130.588 Y152.306 E7.41973
G1 X130.179 Y152.107 E7.43516
G1 X129.509 Y151.652 E7.46263
G1 X129.24 Y151.422 E7.47464
G1 X128.871 Y151.028 E7.49295
G1 X128.704 Y150.816 E7.50211
G1 X128.313 Y150.224 E7.52618
G1 X128.162 Y149.934 E7.53727
G1 X127.988 Y149.497 E7.55323
G1 X127.913 Y149.257 E7.56176
G1 X126.888 Y144.718 E7.71962
G1 X125.409 Y139.368 E7.90793
G1 X123.619 Y134.075 E8.09749
G1 X121.54 Y128.916 E8.28619
G1 X119.178 Y123.889 E8.47462
G1 X116.526 Y118.99 E8.66361
G1 X113.604 Y114.251 E8.85248
G1 X109.544 Y108.509 E9.09106
G1 X109.371 Y108.196 E9.10319
G1 X109.273 Y107.853 E9.11529
G1 X109.252 Y107.496 E9.12742
G1 X109.312 Y107.144 E9.13954
G1 X109.448 Y106.814 E9.15165
G1 X109.67 Y106.504 E9.16458
G1 X109.855 Y106.302 E9.17388
G0 F3600 X110.15 Y106.573
G1 F1800 X110.387 Y106.373 E9.1844
G1 X110.666 Y106.241 E9.19487
G1 X110.97 Y106.185 E9.20535
G1 X111.278 Y106.208 E9.21583
G1 X111.571 Y106.309 E9.22635
G1 X111.778 Y106.441 E9.23467
G1 X116.761 Y110.371 E9.44997
G1 X123.334 Y115.125 E9.72518
G1 X128.608 Y118.772 E9.94271
G1 X151.98 Y134.517 E10.89875
G1 X152.212 Y134.721 E10.90923
G1 X152.385 Y134.978 E10.91974
G1 X152.485 Y135.27 E10.93022
G1 X152.508 Y135.579 E10.94073
G1 X152.451 Y135.883 E10.95122
G1 X152.319 Y136.162 E10.96169
G1 X152.209 Y136.307 E10.96787
G1 X144.564 Y144.945 E11.3592
G1 X144.318 Y145.157 E11.37022
G1 X139.317 Y148.4 E11.57243
G1 X135.084 Y151.489 E11.75021
G1 X134.921 Y151.59 E11.75671
G1 X134.04 Y152.038 E11.79024
G1 X133.771 Y152.136 E11.79996
G1 X133.303 Y152.246 E11.81627
G1 X133.029 Y152.278 E11.82562
G1 X132 Y152.279 E11.86053
G1 X131.632 Y152.221 E11.87317
G1 X130.711 Y151.925 E11.90599
G1 X130.404 Y151.776 E11.91757
G1 X129.734 Y151.321 E11.94504
G1 X129.532 Y151.148 E11.95407
G1 X129.163 Y150.754 E11.97238
G1 X129.038 Y150.595 E11.97924
G1 X128.647 Y150.003 E12.00331
G1 X128.533 Y149.786 E12.01163
G1 X128.359 Y149.349 E12.02758
G1 X128.303 Y149.169 E12.03398
G1 X127.279 Y144.63 E12.19184
G1 X125.788 Y139.238 E12.38163
G1 X123.993 Y133.933 E12.57162
G1 X121.909 Y128.76 E12.76082
G1 X119.531 Y123.7 E12.9505
G1 X116.873 Y118.79 E13.13991
G1 X113.946 Y114.042 E13.32914
G1 X109.87 Y108.278 E13.56864
G1 X109.726 Y108.005 E13.57911
G1 X109.656 Y107.703 E13.58963
G1 X109.665 Y107.394 E13.60011
G1 X109.753 Y107.098 E13.61059
G1 X109.965 Y106.775 E13.6237
G1 X110.15 Y106.573 E13.63299
G1 F1500 E12.83299
G0 F3600 X126.623 Y128.823
;TYPE:SUPPORT
G1 F1500 E13.67456
G1 F1200 X126.721 Y128.79 E13.67807
G1 X126.803 Y128.982 E13.68516
G1 X127.141 Y129.689 E13.71174
G1 X127.605 Y130.547 E13.74483
G1 X128.161 Y131.443 E13.78061
G1 X128.844 Y132.407 E13.82069
G1 X129.311 Y132.988 E13.84598
G1 X129.799 Y133.531 E13.87074
G1 X130.202 Y133.947 E13.89039
G1 X130.677 Y134.397 E13.91259
G1 X131.431 Y135.051 E13.94645
G1 X132.13 Y135.594 E13.97648
G1 X132.905 Y136.117 E14.0082
G1 X133.64 Y136.552 E14.03717
G1 X134.254 Y136.893 E14.061
G1 X134.579 Y137.103 E14.07413
G1 X135.79 Y137.605 E14.1186
G1 X137.101 Y139.109 E14.18629
G1 X136.673 Y139.987 E14.21943
G1 X135.896 Y140.283 E14.24763
G1 X135.598 Y140.71 E14.2653
G1 X135.504 Y148.164 E14.5182
G1 X135.491 Y148.295 E14.52266
G1 X135.38 Y148.818 E14.5408
G1 X135.247 Y149.167 E14.55347
G1 X135.121 Y149.407 E14.56267
G1 X135.016 Y149.587 E14.56974
G1 X134.852 Y149.808 E14.57908
G1 X134.704 Y149.982 E14.58682
G1 X134.616 Y150.07 E14.59105
G1 X134.356 Y150.297 E14.60276
G1 X134.212 Y150.403 E14.60882
G1 X134.06 Y150.502 E14.61498
G1 X133.824 Y150.626 E14.62402
G1 X133.539 Y150.75 E14.63456
G1 X133.423 Y150.791 E14.63874
G1 X133.248 Y150.837 E14.64488
G1 X133.001 Y150.889 E14.65344
G1 X132.806 Y150.918 E14.66013
G1 X132.565 Y150.929 E14.66831
G1 X132.303 Y150.926 E14.6772
G1 X132.211 Y150.917 E14.68034
G1 X131.867 Y150.854 E14.6922
G1 X131.829 Y150.853 E14.69349
G1 X131.707 Y150.825 E14.69774
G1 X131.527 Y150.767 E14.70415
G1 X131.267 Y150.66 E14.71369
G1 X131.093 Y150.566 E14.7204
G1 X131.052 Y150.551 E14.72188
G1 X130.862 Y150.439 E14.72937
G1 X130.731 Y150.348 E14.73478
G1 X130.451 Y150.114 E14.74716
G1 X130.156 Y149.791 E14.762
G1 X130.063 Y149.66 E14.76745
G1 X129.817 Y149.257 E14.78346
G1 X129.651 Y148.835 E14.79885
G1 X129.563 Y148.464 E14.81178
G1 X129.494 Y148.045 E14.82619
G1 X126.623 Y128.823 E15.48554
G1 F1500 E14.68554
G0 F3600 X127.053 Y130.634
G1 F1500 E15.52711
G1 F1200 X127.471 Y130.634 E15.54129
G1 F1500 E14.74129
G0 F3600 X127.968 Y131.436
G1 F1500 E15.58287
G1 F1200 X127.968 Y136.746 E15.76301
G0 F3600 X128.049 Y137.299
G1 F1200 X134.634 Y137.299 E15.98641
G0 F3600 X134.633 Y137.299
G1 F1200 X134.633 Y149.818 E16.41112
G0 F3600 X134.998 Y149.296
G1 F1200 X130.027 Y149.296 E16.57976
G1 F1500 E15.77976
G0 F3600 X130.634 Y150.059
G1 F1500 E16.62134
G1 F1200 X130.634 Y134.572 E17.14674
G0 F3600 X130.704 Y134.633
G1 F1200 X127.651 Y134.633 E17.25032
G1 F1500 E16.45032
G0 F3600 X127.452 Y133.3
G1 F1500 E17.29189
G1 F1200 X129.377 Y133.3 E17.3572
G0 F3600 X129.301 Y133.216
G1 F1200 X129.301 Y145.665 E17.77953
G0 F3600 X129.244 Y145.297
G1 F1200 X135.38 Y145.297 E17.9877
G1 F1500 E17.1877
G0 F3600 X135.397 Y143.964
G1 F1500 E18.02927
G1 F1200 X129.045 Y143.964 E18.24477
G1 F1500 E17.44477
G0 F3600 X128.846 Y142.631
G1 F1500 E18.28634
G1 F1200 X135.414 Y142.631 E18.50916
G1 F1500 E17.70916
G0 F3600 X135.43 Y141.298
G1 F1500 E18.55074
G1 F1200 X128.647 Y141.298 E18.78086
G1 F1500 E17.98086
G0 F3600 X128.448 Y139.965
G1 F1500 E18.82243
G1 F1200 X136.28 Y139.965 E19.08813
G0 F3600 X135.966 Y140.085
G1 F1200 X135.966 Y138.051 E19.15714
G0 F3600 X136.474 Y138.632
G1 F1200 X128.248 Y138.632 E19.43621
G1 F1500 E18.63621
G0 F3600 X127.85 Y135.966
G1 F1500 E19.47778
G1 F1200 X132.395 Y135.966 E19.63197
G0 F3600 X131.967 Y135.669
G1 F1200 X131.967 Y150.708 E20.14218
G0 F3600 X131.618 Y150.629
G1 F1200 X133.399 Y150.629 E20.2026
G0 F3600 X133.3 Y150.658
G1 F1200 X133.3 Y136.538 E20.68162
G1 F1500 E19.88162
G0 F3600 X128.335 Y131.967
G1 F1500 E20.7232
G1 F1200 X127.252 Y131.967 E20.75994
G1 F1500 E19.95994
G0 F3600 X129.444 Y146.63
G1 F1500 E20.80152
G1 F1200 X135.363 Y146.63 E21.00232
G1 F1500 E20.20232
G0 F3600 X135.346 Y147.963
G1 F1500 E21.04389
G1 F1200 X129.643 Y147.963 E21.23737
G1 F1500 E20.43737
G0 F3600 X112.165 Y108.563
;TYPE:WALL-OUTER
G1 F1500 E21.27895
G1 F1200 X112.875 Y109.138 E21.30994
G1 X113.958 Y109.994 E21.35677
G1 X115.059 Y110.842 E21.40392
G1 X116.284 Y111.765 E21.45595
G1 X117.739 Y112.841 E21.51735
G1 X119.249 Y113.94 E21.58071
G1 X120.891 Y115.116 E21.64922
G1 X122.919 Y116.545 E21.73339
G1 X125.319 Y118.213 E21.83254
G1 X127.983 Y120.04 E21.94213
G1 X130.745 Y121.916 E22.0554
G1 X137.837 Y126.672 E22.3451
G1 X144.535 Y131.152 E22.61847
G1 X147.756 Y133.317 E22.75013
G1 X151.033 Y135.537 E22.88442
G1 X149.206 Y137.6 E22.97791
G1 X149 Y137.43 E22.98697
G1 X148.797 Y137.281 E22.99551
G1 X148.597 Y137.154 E23.00355
G1 X148.384 Y137.036 E23.01181
G1 X148.163 Y136.933 E23.02008
G1 X147.945 Y136.844 E23.02807
G1 X147.698 Y136.765 E23.03687
G1 X147.469 Y136.709 E23.04486
G1 X147.235 Y136.669 E23.05292
G1 X147.009 Y136.644 E23.06063
G1 X146.774 Y136.638 E23.06861
G1 X146.532 Y136.651 E23.07683
G1 X146.315 Y136.677 E23.08424
G1 X146.092 Y136.725 E23.09198
G1 X145.89 Y136.783 E23.09911
G1 X145.68 Y136.865 E23.10676
G1 X145.488 Y136.957 E23.11398
G1 X145.302 Y137.071 E23.12138
G1 X145.139 Y137.188 E23.12819
G1 X144.974 Y137.332 E23.13562
G1 X144.829 Y137.489 E23.14287
G1 X144.702 Y137.642 E23.14962
G1 X144.564 Y137.854 E23.1582
G1 X144.485 Y138 E23.16383
G1 X144.403 Y138.186 E23.17072
G1 X144.332 Y138.394 E23.17818
G1 X144.281 Y138.59 E23.18505
G1 X144.253 Y138.774 E23.19137
G1 X144.226 Y139.026 E23.19996
G1 X144.227 Y139.264 E23.20804
G1 X144.242 Y139.488 E23.21565
G1 X144.282 Y139.748 E23.22458
G1 X144.326 Y139.943 E23.23136
G1 X144.396 Y140.174 E23.23955
G1 X144.483 Y140.403 E23.24786
G1 X144.64 Y140.727 E23.26007
G1 X144.714 Y140.858 E23.26518
G1 X144.842 Y141.058 E23.27323
G1 X144.989 Y141.261 E23.28174
G1 X145.154 Y141.458 E23.29046
G1 X145.299 Y141.608 E23.29753
G1 X145.501 Y141.79 E23.30676
G1 X143.669 Y143.858 E23.40048
G1 X140.839 Y140.615 E23.54651
G1 X138.515 Y137.932 E23.66693
G1 X131.672 Y129.993 E24.0225
G1 X128.496 Y126.32 E24.18723
G1 X126.378 Y123.89 E24.29659
G1 X124.397 Y121.635 E24.39842
G1 X122.713 Y119.736 E24.48453
G1 X121.013 Y117.839 E24.57094
G1 X119.45 Y116.119 E24.64979
G1 X118.036 Y114.585 E24.72057
G1 X116.752 Y113.215 E24.78427
G1 X115.523 Y111.926 E24.84469
G1 X114.513 Y110.885 E24.89389
G1 X113.584 Y109.95 E24.93861
G1 X112.717 Y109.094 E24.97994
G1 X112.165 Y108.563 E25.00593
G0 F3600 X112.32 Y108.688
G1 F1500 E24.20593
G0 F3600 X150.534 Y135.826
;TYPE:SKIN
G1 F1500 E25.0475
G1 F1200 X149.263 Y134.555 E25.10848
G1 X149.193 Y134.485
G1 F1500 E24.30848
G0 F3600 X150.269 Y136.127
G1 F1500 E25.15006
G1 F1200 X147.513 Y133.37 E25.28231
G1 X147.443 Y133.3
G1 F1500 E24.48231
G0 F3600 X145.788 Y132.211
G1 F1500 E25.32388
G1 F1200 X150.003 Y136.427 E25.52613
G1 X150.073 Y136.497
G0 F3600 X149.738 Y136.727
G1 F1200 X144.067 Y131.056 E25.79822
G1 X143.997 Y130.986
G1 F1500 E24.99822
G0 F3600 X142.358 Y129.913
G1 F1500 E25.83979
G1 F1200 X149.472 Y137.027 E26.1811
G1 X149.542 Y137.097
G0 F3600 X149.207 Y137.327
G1 F1200 X140.649 Y128.77 E26.59167
G1 X140.579 Y128.7
G1 F1500 E25.79167
G0 F3600 X138.941 Y127.627
G1 F1500 E26.63325
G1 F1200 X147.98 Y136.666 E27.06692
G1 X148.05 Y136.736
G1 F1500 E26.26692
G0 F3600 X147.236 Y136.488
G1 F1500 E27.10849
G1 F1200 X137.23 Y126.482 E27.58856
G1 X137.16 Y126.412
G1 F1500 E26.78856
G0 F3600 X135.514 Y125.331
G1 F1500 E27.63013
G1 F1200 X146.646 Y136.464 E28.16424
G1 X146.716 Y136.534
G0 F3600 X146.145 Y136.528
G1 F1200 X133.797 Y124.18 E28.75667
G1 X133.727 Y124.11
G1 F1500 E27.95667
G0 F3600 X132.081 Y123.03
G1 F1500 E28.79825
G1 F1200 X145.709 Y136.658 E29.45209
G1 X145.779 Y136.728
G0 F3600 X145.328 Y136.842
G1 F1200 X130.356 Y121.871 E30.17039
G1 X130.286 Y121.801
G1 F1500 E29.37039
G0 F3600 X128.59 Y120.671
G1 F1500 E30.21196
G1 F1200 X144.994 Y137.074 E30.99896
G1 X145.064 Y137.144
G0 F3600 X144.708 Y137.354
G1 F1200 X126.805 Y119.451 E31.85791
G1 X126.735 Y119.381
G1 F1500 E31.05791
G0 F3600 X124.998 Y118.21
G1 F1500 E31.89948
G1 F1200 X144.464 Y137.676 E32.83341
G1 X144.534 Y137.746
G0 F3600 X144.268 Y138.045
G1 F1200 X123.144 Y116.922 E33.84687
G1 X123.074 Y116.852
G1 F1500 E33.04687
G0 F3600 X121.426 Y118.032
G1 F1500 E33.88845
G1 F1200 X145.224 Y141.83 E35.03022
G1 X145.294 Y141.9
G0 F3600 X144.959 Y142.13
G1 F1200 X125.879 Y123.05 E35.94563
G1 X125.809 Y122.98
G1 F1500 E35.14563
G0 F3600 X129.695 Y127.432
G1 F1500 E35.98721
G1 F1200 X144.693 Y142.43 E36.70678
G1 X144.763 Y142.5
G0 F3600 X144.427 Y142.73
G1 F1200 X133.274 Y131.577 E37.24187
G1 X133.204 Y131.507
G1 F1500 E36.44187
G0 F3600 X136.811 Y135.679
G1 F1500 E37.28345
G1 F1200 X144.161 Y143.03 E37.63611
G1 X144.231 Y143.1
G0 F3600 X143.895 Y143.329
G1 F1200 X140.406 Y139.84 E37.8035
G1 X140.336 Y139.77
G1 F1500 E37.0035
G0 F3600 X144.068 Y139.542
G1 F1500 E37.84508
G1 F1200 X117.17 Y112.644 E39.13558
G1 X117.1 Y112.574
G1 F1500 E38.33558
G0 F3600 X119.263 Y114.172
G1 F1500 E39.17716
G1 F1200 X144.051 Y138.96 E40.36643
G1 X144.121 Y139.03
G0 F3600 X144.126 Y138.469
G1 F1200 X121.237 Y115.58 E41.46459
G1 X121.167 Y115.51
G1 F1500 E40.66459
G0 F3600 X114.931 Y110.971
G1 F1500 E41.50616
G1 F1200 X144.246 Y140.286 E42.91263
G1 X144.316 Y140.356
G1 F1500 E42.11263
G0 F3600 X126.635 Y128.608
;TIME_ELAPSED:63.915207
;LAYER:1
M140 S60
M106 S127.5
G0 F5400 X126.635 Y128.608 Z0.4
;TYPE:SUPPORT
G1 F1500 E42.9542
G1 F1800 X126.635 Y130.261 E43.01028
G1 F1500 E42.21028
G0 F5400 X127.968 Y130.752
G1 F1500 E43.05186
G1 F1800 X127.968 Y139.185 E43.33795
G1 F1500 E42.53795
G0 F5400 X131.967 Y135.214
G1 F1500 E43.37952
G1 F1800 X131.967 Y151.076 E43.91765
G1 F1500 E43.11765
G0 F5400 X133.3 Y151.03
G1 F1500 E43.95922
G1 F1800 X133.3 Y136.118 E44.46512
G1 F1500 E43.66512
G0 F5400 X134.633 Y136.901
G1 F1500 E44.50669
G1 F1800 X134.633 Y150.32 E44.96194
G1 F1500 E44.16194
G0 F5400 X130.634 Y150.523
G1 F1500 E45.00351
G1 F1800 X130.634 Y134.083 E45.56124
G1 F1500 E44.76124
G0 F5400 X129.301 Y132.657
G1 F1500 E45.60282
G1 F1800 X129.301 Y148.107 E46.12697
G1 F1500 E45.32697
G0 F5400 X135.966 Y140.533
G1 F1500 E46.16854
G1 F1800 X135.966 Y137.503 E46.27134
G1 F1500 E45.47134
G0 F5400 X137.299 Y139.033
G1 F1500 E46.31291
G1 F1800 X137.299 Y139.161 E46.31725
G1 F1500 E45.51725
G0 F5400 X112.089 Y108.496
;TYPE:WALL-OUTER
G1 F1500 E46.35883
