;FLAVOR:Marlin
;TIME:938
;Filament used: 0.614737m
;Layer height: 0.2
;Generated with Cura_SteamEngine 3.5.1
M82 ;absolute extrusion mode
G21 ; set units to millimeters
G90 ; use absolute positioning
M82 ; absolute extrusion mode
M104 S230 ; set extruder temp
M140 S60 ; set bed temp
M190 S60 ; wait for bed temp
M109 S230 ; wait for extruder temp
G28 W ; home all without mesh bed level
G80 ; mesh bed leveling
G92 E0.0 ; reset extruder distance position
G1 Y-3.0 F1000.0 ; go outside print area
G1 X60.0 E9.0 F1000.0 ; intro line
G1 X100.0 E21.5 F1000.0 ; intro line
G92 E0.0 ; reset extruder distance position
G92 E0
G1 F2100 E-0.8
;LAYER_COUNT:146
;LAYER:0
M107
G0 F3600 X108.393 Y84.176 Z0.2
;TYPE:SKIRT
G1 F2100 E0.04158
G1 F1800 X108.398 Y83.777 E0.05511
G1 X108.482 Y83.387 E0.06865
G1 X108.643 Y83.021 E0.08221
G1 X108.997 Y82.563 E0.10185
G1 X109.08 Y82.483 E0.10576
G1 X109.394 Y82.236 E0.11931
G1 X109.751 Y82.056 E0.13288
G1 X110.136 Y81.951 E0.14642
G1 X110.535 Y81.924 E0.15998
G1 X110.931 Y81.977 E0.17354
G1 X111.308 Y82.108 E0.18708
G1 X111.652 Y82.311 E0.20063
G1 X111.833 Y82.461 E0.2086
G1 X115.682 Y86.056 E0.38728
G1 X120.438 Y90.133 E0.5998
G1 X131.749 Y99.605 E1.10031
G1 X131.79 Y99.64 E1.10214
G1 X137.79 Y104.946 E1.37386
G1 X137.841 Y104.993 E1.37622
G1 X141.99 Y108.927 E1.57019
G1 X142.04 Y108.975 E1.57254
G1 X144.487 Y111.462 E1.6909
G1 X144.547 Y111.526 E1.69388
G1 X148.667 Y116.099 E1.9027
G1 X148.721 Y116.162 E1.90551
G1 X152.432 Y120.643 E2.10289
G1 X152.479 Y120.702 E2.10545
G1 X155.015 Y124.01 E2.24686
G1 X155.057 Y124.067 E2.24926
G1 X157.283 Y127.193 E2.37946
G1 X157.343 Y127.282 E2.3831
G1 X159.399 Y130.525 E2.51336
G1 X159.485 Y130.675 E2.51923
G1 X160.788 Y133.186 E2.6152
G1 X160.903 Y133.453 E2.62507
G1 X161.35 Y134.745 E2.67145
G1 X161.442 Y135.134 E2.68501
G1 X161.459 Y135.444 E2.69554
G1 X161.441 Y136.243 E2.72265
G1 X161.393 Y136.64 E2.73622
G1 X161.266 Y137.018 E2.74975
G1 X161.099 Y137.318 E2.7614
G1 X160.84 Y137.701 E2.77708
G1 X160.584 Y138.008 E2.79064
G1 X160.272 Y138.258 E2.80421
G1 X160.031 Y138.392 E2.81356
G1 X159.841 Y138.481 E2.82068
G1 X159.464 Y138.614 E2.83424
G1 X159.066 Y138.669 E2.84787
G1 X158.384 Y138.694 E2.87102
G1 X157.986 Y138.668 E2.88456
G1 X157.767 Y138.619 E2.89217
G1 X157.364 Y138.505 E2.90638
G1 X157.052 Y138.389 E2.91767
G1 X155.612 Y137.707 E2.97172
G1 X155.408 Y137.595 E2.97962
G1 X153.711 Y136.534 E3.04752
G1 X153.602 Y136.461 E3.05197
G1 X151.031 Y134.608 E3.15948
G1 X150.943 Y134.54 E3.16326
G1 X147.912 Y132.09 E3.29547
G1 X147.84 Y132.03 E3.29865
G1 X143.587 Y128.25 E3.49169
G1 X143.525 Y128.192 E3.49457
G1 X139.376 Y124.177 E3.69044
G1 X139.326 Y124.127 E3.69284
G1 X136.321 Y121.007 E3.8398
G1 X136.267 Y120.948 E3.84251
G1 X132.931 Y117.192 E4.01294
G1 X132.876 Y117.128 E4.0158
G1 X129.204 Y112.628 E4.21284
G1 X129.168 Y112.583 E4.2148
G1 X126.398 Y108.98 E4.36898
G1 X126.365 Y108.935 E4.37087
G1 X113.355 Y90.991 E5.1228
G1 X111.028 Y87.94 E5.25297
G1 X108.839 Y85.272 E5.37005
G1 X108.618 Y84.939 E5.38361
G1 X108.467 Y84.569 E5.39717
G1 X108.393 Y84.176 E5.41073
G0 F3600 X108.785 Y84.028
G1 F1800 X108.819 Y83.673 E5.42283
G1 X108.932 Y83.334 E5.43496
G1 X109.116 Y83.028 E5.44707
G1 X109.275 Y82.851 E5.45514
G1 X109.358 Y82.771 E5.45905
G1 X109.641 Y82.553 E5.47117
G1 X109.965 Y82.404 E5.48327
G1 X110.315 Y82.33 E5.49541
G1 X110.672 Y82.336 E5.50752
G1 X111.019 Y82.421 E5.51964
G1 X111.339 Y82.581 E5.53178
G1 X111.56 Y82.754 E5.5413
G1 X115.405 Y86.345 E5.71978
G1 X120.163 Y90.424 E5.9324
G1 X131.492 Y99.911 E6.4337
G1 X131.525 Y99.939 E6.43517
G1 X137.525 Y105.245 E6.7069
G1 X137.566 Y105.283 E6.70879
G1 X141.715 Y109.217 E6.90276
G1 X141.755 Y109.256 E6.90466
G1 X144.202 Y111.743 E7.02302
G1 X144.25 Y111.794 E7.0254
G1 X148.37 Y116.367 E7.23422
G1 X148.413 Y116.417 E7.23645
G1 X152.124 Y120.898 E7.43384
G1 X152.162 Y120.946 E7.43591
G1 X154.698 Y124.254 E7.57732
G1 X154.731 Y124.299 E7.57922
G1 X156.957 Y127.425 E7.70941
G1 X157.005 Y127.496 E7.71231
G1 X159.061 Y130.739 E7.84258
G1 X159.13 Y130.859 E7.84728
G1 X160.433 Y133.37 E7.94325
G1 X160.525 Y133.584 E7.95115
G1 X160.972 Y134.876 E7.99753
G1 X161.05 Y135.224 E8.00963
G1 X161.06 Y135.435 E8.0168
G1 X161.042 Y136.234 E8.04391
G1 X160.994 Y136.588 E8.05603
G1 X160.869 Y136.923 E8.06816
G1 X160.767 Y137.094 E8.07492
G1 X160.508 Y137.477 E8.0906
G1 X160.277 Y137.749 E8.10271
G1 X159.862 Y138.03 E8.11971
G1 X159.672 Y138.119 E8.12683
G1 X159.333 Y138.233 E8.13896
G1 X159.052 Y138.269 E8.14857
G1 X158.37 Y138.294 E8.17173
G1 X157.875 Y138.235 E8.18864
G1 X157.472 Y138.121 E8.20285
G1 X157.223 Y138.027 E8.21188
G1 X155.783 Y137.345 E8.26593
G1 X155.62 Y137.256 E8.27223
G1 X153.923 Y136.195 E8.34013
G1 X153.835 Y136.136 E8.34372
G1 X151.264 Y134.283 E8.45124
G1 X151.194 Y134.229 E8.45424
G1 X148.163 Y131.779 E8.58646
G1 X148.106 Y131.731 E8.58898
G1 X143.853 Y127.951 E8.78202
G1 X143.803 Y127.905 E8.78433
G1 X139.654 Y123.89 E8.9802
G1 X139.615 Y123.85 E8.98209
G1 X136.61 Y120.73 E9.12905
G1 X136.566 Y120.683 E9.13123
G1 X133.23 Y116.927 E9.30166
G1 X133.186 Y116.876 E9.30395
G1 X129.514 Y112.376 E9.50099
G1 X129.486 Y112.339 E9.50256
G1 X126.716 Y108.736 E9.65674
G1 X126.689 Y108.7 E9.65827
G1 X113.677 Y90.753 E10.41032
G1 X111.345 Y87.696 E10.54076
G1 X109.148 Y85.018 E10.65827
G1 X108.954 Y84.718 E10.67039
G1 X108.831 Y84.383 E10.6825
G1 X108.785 Y84.028 E10.69464
G0 F3600 X109.202 Y84.206
G1 F1800 X109.19 Y83.897 E10.70513
G1 X109.256 Y83.596 E10.71559
G1 X109.398 Y83.321 E10.72609
G1 X109.552 Y83.139 E10.73417
G1 X109.635 Y83.059 E10.73808
G1 X109.884 Y82.875 E10.74859
G1 X110.171 Y82.76 E10.75908
G1 X110.478 Y82.723 E10.76957
G1 X110.784 Y82.765 E10.78005
G1 X111.069 Y82.885 E10.79054
G1 X111.287 Y83.046 E10.79973
G1 X115.143 Y86.648 E10.97874
G1 X119.917 Y90.74 E11.19206
G1 X131.235 Y100.218 E11.69288
G1 X131.26 Y100.239 E11.69398
G1 X137.26 Y105.545 E11.96571
G1 X137.291 Y105.573 E11.96713
G1 X141.44 Y109.507 E12.1611
G1 X141.469 Y109.536 E12.16249
G1 X143.916 Y112.023 E12.28086
G1 X143.953 Y112.062 E12.28268
G1 X148.073 Y116.635 E12.4915
G1 X148.105 Y116.673 E12.49318
G1 X151.816 Y121.154 E12.69057
G1 X151.844 Y121.189 E12.69209
G1 X154.38 Y124.497 E12.8335
G1 X154.405 Y124.531 E12.83493
G1 X156.631 Y127.657 E12.96512
G1 X156.667 Y127.71 E12.96729
G1 X158.723 Y130.953 E13.09756
G1 X158.775 Y131.043 E13.10109
G1 X160.078 Y133.554 E13.19706
G1 X160.147 Y133.715 E13.203
G1 X160.594 Y135.007 E13.24938
G1 X160.66 Y135.426 E13.26377
G1 X160.642 Y136.225 E13.29088
G1 X160.595 Y136.531 E13.30139
G1 X160.436 Y136.87 E13.31409
G1 X160.177 Y137.253 E13.32978
G1 X159.972 Y137.485 E13.34028
G1 X159.692 Y137.668 E13.35163
G1 X159.502 Y137.757 E13.35874
G1 X159.207 Y137.851 E13.36925
G1 X159.037 Y137.869 E13.37505
G1 X158.355 Y137.894 E13.3982
G1 X157.984 Y137.85 E13.41088
G1 X157.581 Y137.736 E13.42508
G1 X157.394 Y137.666 E13.43186
G1 X155.954 Y136.984 E13.48591
G1 X155.832 Y136.916 E13.49065
G1 X154.135 Y135.855 E13.55855
G1 X154.069 Y135.812 E13.56122
G1 X151.498 Y133.959 E13.66874
G1 X151.446 Y133.918 E13.67098
G1 X148.415 Y131.468 E13.8032
G1 X148.372 Y131.432 E13.8051
G1 X144.119 Y127.652 E13.99814
G1 X144.082 Y127.617 E13.99987
G1 X139.933 Y123.602 E14.19574
G1 X139.903 Y123.572 E14.19718
G1 X136.898 Y120.452 E14.34414
G1 X136.865 Y120.417 E14.34577
G1 X133.529 Y116.661 E14.5162
G1 X133.496 Y116.623 E14.5179
G1 X129.824 Y112.123 E14.71494
G1 X129.803 Y112.095 E14.71613
G1 X127.033 Y108.492 E14.87031
G1 X127.012 Y108.465 E14.87147
G1 X113.988 Y90.501 E15.62422
G1 X111.652 Y87.44 E15.75486
G1 X109.457 Y84.764 E15.87227
G1 X109.294 Y84.502 E15.88274
G1 X109.202 Y84.206 E15.89326
G1 F2100 E15.09326
G0 F3600 X112.221 Y85.895
;TYPE:WALL-OUTER
G1 F2100 E15.93483
G1 F1200 X113.303 Y86.888 E15.98466
G1 X114.125 Y87.624 E16.02209
G1 X114.968 Y88.363 E16.06012
G1 X116.601 Y89.773 E16.13331
G1 X119.255 Y92.012 E16.25111
G1 X127.398 Y98.793 E16.61061
G1 X128.968 Y100.12 E16.68035
G1 X130.635 Y101.545 E16.75475
G1 X132.366 Y103.046 E16.83248
G1 X134.117 Y104.589 E16.91165
G1 X135.21 Y105.569 E16.96146
G1 X136.647 Y106.879 E17.02742
G1 X137.597 Y107.762 E17.07142
G1 X138.813 Y108.908 E17.12811
G1 X140.063 Y110.114 E17.18704
G1 X140.863 Y110.899 E17.22506
G1 X141.655 Y111.695 E17.26316
G1 X142.448 Y112.508 E17.30168
G1 X143.262 Y113.367 E17.34183
G1 X144.446 Y114.652 E17.40111
G1 X145.445 Y115.757 E17.45165
G1 X146.359 Y116.791 E17.49847
G1 X147.379 Y117.968 E17.5513
G1 X148.17 Y118.898 E17.59272
G1 X149.285 Y120.239 E17.65189
G1 X150.094 Y121.234 E17.69539
G1 X150.994 Y122.366 E17.74446
G1 X151.883 Y123.503 E17.79342
G1 X152.96 Y124.923 E17.85388
G1 X153.655 Y125.863 E17.89354
G1 X154.337 Y126.808 E17.93308
G1 X155.126 Y127.931 E17.97964
G1 X155.776 Y128.888 E18.01889
G1 X156.51 Y130.011 E18.0644
G1 X157.153 Y131.036 E18.10545
G1 X157.54 Y131.686 E18.13111
G1 X157.871 Y132.267 E18.1538
G1 X158.182 Y132.837 E18.17583
G1 X158.543 Y133.546 E18.20282
G1 X158.842 Y134.189 E18.22688
G1 X158.989 Y134.546 E18.23997
G1 X159.1 Y134.839 E18.2506
G1 X159.198 Y135.14 E18.26134
G1 X159.271 Y135.426 E18.27136
G1 X159.302 Y135.623 E18.27812
G1 X159.311 Y135.736 E18.28197
G1 X159.308 Y135.891 E18.28723
G1 X159.292 Y136.027 E18.29187
G1 X159.256 Y136.172 E18.29694
G1 X159.215 Y136.264 E18.30036
G1 X159.156 Y136.356 E18.30407
G1 X159.067 Y136.431 E18.30801
G1 X158.952 Y136.483 E18.3123
G1 X158.843 Y136.513 E18.31613
G1 X158.72 Y136.53 E18.32034
G1 X158.586 Y136.535 E18.32489
G1 X158.498 Y136.53 E18.32788
G1 X158.339 Y136.506 E18.33334
G1 X158.159 Y136.464 E18.33961
G1 X157.776 Y136.328 E18.3534
G1 X157.385 Y136.16 E18.36784
G1 X157.134 Y136.037 E18.37732
G1 X156.709 Y135.811 E18.39365
G1 X156.172 Y135.504 E18.41463
G1 X155.531 Y135.111 E18.44014
G1 X154.873 Y134.68 E18.46683
G1 X154.286 Y134.277 E18.49098
G1 X153.776 Y133.914 E18.51222
G1 X152.879 Y133.254 E18.55
G1 X151.828 Y132.446 E18.59497
G1 X150.832 Y131.653 E18.63817
G1 X149.918 Y130.903 E18.67828
G1 X148.909 Y130.055 E18.72299
G1 X147.698 Y129.003 E18.77741
G1 X146.794 Y128.204 E18.81834
G1 X145.755 Y127.263 E18.8659
G1 X144.679 Y126.267 E18.91564
G1 X143.683 Y125.328 E18.96208
G1 X142.652 Y124.333 E19.01069
G1 X141.341 Y123.041 E19.07313
G1 X140.515 Y122.207 E19.11295
G1 X139.406 Y121.067 E19.16691
G1 X138.235 Y119.839 E19.22448
G1 X137.32 Y118.858 E19.26999
G1 X136.534 Y117.993 E19.30964
G1 X135.773 Y117.133 E19.3486
G1 X134.99 Y116.228 E19.38919
G1 X134.226 Y115.325 E19.42932
G1 X132.802 Y113.602 E19.50516
G1 X131.85 Y112.425 E19.55651
G1 X131.144 Y111.538 E19.59497
G1 X129.908 Y109.954 E19.66313
G1 X128.354 Y107.922 E19.74992
G1 X127.139 Y106.304 E19.81856
G1 X126.067 Y104.857 E19.87966
G1 X124.803 Y103.13 E19.95226
G1 X122.977 Y100.601 E20.05809
G1 X118.746 Y94.671 E20.30522
G1 X117.154 Y92.455 E20.39779
G1 X115.481 Y90.159 E20.49417
G1 X113.903 Y88.048 E20.58358
G1 X113.096 Y86.998 E20.62851
G1 X112.392 Y86.103 E20.66714
G1 X112.221 Y85.895 E20.67627
G0 F3600 X112.368 Y86.03
G1 F2100 E19.87627
G0 F3600 X118.082 Y93.379
G1 F2100 E20.71785
G1 F1200 X125.569 Y101.439 E21.09105
G1 X126.741 Y100.349 E21.14535
G1 X119.254 Y92.29 E21.51854
G1 X118.082 Y93.379 E21.57281
G0 F3600 X118.218 Y93.525
G0 X118.051 Y93.161
;TYPE:SKIN
G1 F1200 X117.45 Y92.56 E21.60165
G1 X117.38 Y92.49
G1 F2100 E20.80165
G0 F3600 X118.344 Y92.888
G1 F2100 E21.64322
G1 F1200 X115.94 Y90.484 E21.75856
G1 X115.87 Y90.414
G1 F2100 E20.95856
G0 F3600 X116.573 Y89.986
G1 F2100 E21.80013
G1 F1200 X118.93 Y92.343 E21.91322
G0 F3600 X118.637 Y92.616
G1 F1200 X114.296 Y88.274 E22.12151
G1 X114.226 Y88.204
G1 F2100 E21.32151
G0 F3600 X145.449 Y116.033
G1 F2100 E22.16309
G1 F1200 X135.427 Y106.012 E22.6439
G1 X135.357 Y105.942
G1 F2100 E21.8439
G0 F3600 X130.623 Y101.773
G1 F2100 E22.68547
G1 F1200 X148.858 Y120.008 E23.56034
G1 X148.928 Y120.078
G1 F2100 E22.76034
G0 F3600 X151.176 Y122.892
G1 F2100 E23.60192
G1 F1200 X126.883 Y98.599 E24.76744
G1 X126.813 Y98.529
G1 F2100 E23.96744
G0 F3600 X126.968 Y100.381
G1 F2100 E24.80902
G1 F1200 X155.724 Y129.137 E26.18866
G1 X155.794 Y129.207
G1 F2100 E25.38866
G0 F3600 X156.742 Y130.721
G1 F2100 E26.23024
G1 F1200 X126.676 Y100.654 E27.67276
G0 F3600 X126.383 Y100.927
G1 F1200 X157.582 Y132.126 E29.16961
G1 X157.652 Y132.196
G1 F2100 E28.36961
G0 F3600 X158.242 Y133.351
G1 F2100 E29.21119
G1 F1200 X126.089 Y101.199 E30.75379
G0 F3600 X125.797 Y101.472
G1 F1200 X158.739 Y134.415 E32.3343
G1 X158.809 Y134.485
G1 F2100 E31.5343
G0 F3600 X159.05 Y135.292
G1 F2100 E32.37587
G1 F1200 X120.301 Y96.542 E34.23498
G1 X120.231 Y96.472
G1 F2100 E33.43498
G0 F3600 X119.549 Y95.225
G1 F2100 E34.27656
G1 F1200 X118.911 Y94.586 E34.30719
G1 X118.841 Y94.516
G1 F2100 E33.50719
G0 F3600 X120.358 Y93.205
G1 F2100 E34.34877
G1 F1200 X154.481 Y127.328 E35.98591
G1 X154.551 Y127.398
G1 F2100 E35.18591
G0 F3600 X153 Y125.281
G1 F2100 E36.02748
G1 F1200 X123.5 Y95.781 E37.44282
G1 X123.43 Y95.711
G1 F2100 E36.64282
G0 F3600 X121.71 Y98.516
G1 F2100 E37.4844
G1 F1200 X159.121 Y135.928 E39.27932
G0 F3600 X158.925 Y136.297
G1 F1200 X123.118 Y100.491 E40.99723
G1 X123.048 Y100.421
G1 F2100 E40.19723
G0 F3600 X124.587 Y102.525
G1 F2100 E41.0388
G1 F1200 X158.393 Y136.331 E42.66074
G1 X158.463 Y136.401
G1 F2100 E41.86074
G0 F3600 X157.516 Y136.02
G1 F2100 E42.70231
G1 F1200 X126.114 Y104.618 E44.20891
G1 X126.044 Y104.548
G1 F2100 E43.40891
G0 F3600 X127.75 Y106.82
G1 F2100 E44.25048
G1 F1200 X156.298 Y135.368 E45.62015
G1 X156.368 Y135.438
G1 F2100 E44.82015
G0 F3600 X154.726 Y134.361
G1 F2100 E45.66172
G1 F1200 X129.529 Y109.165 E46.87059
G1 X129.459 Y109.095
G1 F2100 E46.07059
G0 F3600 X131.51 Y111.711
G1 F2100 E46.91217
G1 F1200 X152.648 Y132.849 E47.92632
G1 X152.718 Y132.919
G1 F2100 E47.12632
G0 F3600 X149.81 Y130.577
G1 F2100 E47.9679
G1 F1200 X133.981 Y114.748 E48.72733
G1 X133.911 Y114.678
G1 F2100 E47.92733
G0 F3600 X138.117 Y119.45
G1 F2100 E48.76891
G1 F1200 X144.836 Y126.169 E49.09127
M104 S230
G1 X144.906 Y126.239
G1 F2100 E48.29127
G0 F3600 X112.156 Y85.824
;TIME_ELAPSED:74.312583
;LAYER:1
M140 S60
M106 S255
G0 F5400 X112.156 Y85.824 Z0.4
;TYPE:WALL-OUTER
G1 F2100 E49.13285
G1 F1800 X113.322 Y86.893 E49.18651
G1 X115.069 Y88.436 E49.26559
G1 X116.721 Y89.858 E49.33953
G1 X118.386 Y91.268 E49.41355
G1 X127.019 Y98.459 E49.79473
G1 X128.763 Y99.931 E49.87215
G1 X130.457 Y101.378 E49.94773
G1 X132.026 Y102.736 E50.01813
G1 X133.944 Y104.427 E50.10488
G1 X135.654 Y105.964 E50.18288
G1 X136.796 Y107.013 E50.23548
G1 X137.892 Y108.036 E50.28635
G1 X139.007 Y109.095 E50.33852
G1 X140.659 Y110.705 E50.41677
G1 X141.471 Y111.52 E50.4558
G1 X142.273 Y112.343 E50.49479
G1 X143.064 Y113.176 E50.53376
G1 X143.853 Y114.027 E50.57313
G1 X144.637 Y114.887 E50.61261
G1 X146.174 Y116.613 E50.69102
G1 X146.934 Y117.485 E50.73026
G1 X147.928 Y118.652 E50.78226
G1 X149.086 Y120.042 E50.84364
G1 X150.625 Y121.953 E50.92688
G1 X151.829 Y123.498 E50.99333
G1 X152.554 Y124.451 E51.03396
G1 X153.426 Y125.624 E51.08354
G1 X154.087 Y126.538 E51.12181
G1 X154.803 Y127.554 E51.16398
G1 X155.461 Y128.516 E51.20352
G1 X155.962 Y129.273 E51.23431
G1 X156.665 Y130.371 E51.27854
G1 X157.031 Y130.968 E51.3023
G1 X157.462 Y131.699 E51.33109
G1 X157.8 Y132.299 E51.35445
G1 X158.146 Y132.954 E51.37958
G1 X158.431 Y133.532 E51.40145
G1 X158.665 Y134.053 E51.42082
G1 X158.816 Y134.426 E51.43447
G1 X158.933 Y134.75 E51.44616
G1 X159.028 Y135.075 E51.45765
G1 X159.068 Y135.261 E51.4641
G1 X159.092 Y135.439 E51.47019
G1 X159.096 Y135.653 E51.47746
